;FLAVOR:Marlin
;TIME:24049
;Filament used: 18.7399m
;Layer height: 0.2
;MINX:24
;MINY:51.5
;MINZ:0.2
;MAXX:196
;MAXY:168.5
;MAXZ:35
;Generated with Cura_SteamEngine 4.9.0
M140 S60
M105
M190 S60
M104 S200
M105
M109 S200
M82 ;absolute extrusion mode
; Ender 3 Custom Start G-code
G92 E0 ; Reset Extruder
G28 ; Home all axes
G1 Z2.0 F3000 ; Move Z Axis up little to prevent scratching of Heat Bed
G1 X0.1 Y20 Z0.3 F5000.0 ; Move to start position
G1 X0.1 Y200.0 Z0.3 F1500.0 E15 ; Draw the first line
G1 X0.4 Y200.0 Z0.3 F5000.0 ; Move to side a little
G1 X0.4 Y20 Z0.3 F1500.0 E30 ; Draw the second line
G92 E0 ; Reset Extruder
G1 Z2.0 F3000 ; Move Z Axis up little to prevent scratching of Heat Bed
G1 X5 Y20 Z0.3 F5000.0 ; Move over to prevent blob squish
G92 E0
G92 E0
G1 F1500 E-6.5
;LAYER_COUNT:175
;LAYER:0
M107
G0 F6000 X29.412 Y53.039 Z0.2
;TYPE:SKIRT
G1 F1500 E0
G1 F1200 X30.239 Y52.597 E0.03119
G1 X31.101 Y52.227 E0.06239
G1 X31.991 Y51.931 E0.09358
G1 X32.903 Y51.713 E0.12477
G1 X33.83 Y51.572 E0.15596
G1 X34.701 Y51.513 E0.18499
G1 X35.022 Y51.504 E0.19567
G1 X35.33 Y51.5 E0.20592
G1 X184.293 Y51.5 E5.16045
G1 X185.149 Y51.511 E5.18892
G1 X186.085 Y51.565 E5.22011
G1 X187.013 Y51.697 E5.25128
G1 X187.927 Y51.909 E5.28249
G1 X188.819 Y52.198 E5.31367
G1 X189.684 Y52.561 E5.34488
G1 X190.514 Y52.997 E5.37606
G1 X191.305 Y53.502 E5.40727
G1 X192.049 Y54.073 E5.43847
G1 X192.742 Y54.705 E5.46966
G1 X193.379 Y55.393 E5.50085
G1 X193.954 Y56.134 E5.53204
G1 X194.465 Y56.92 E5.56322
G1 X194.907 Y57.748 E5.59444
G1 X195.276 Y58.61 E5.62563
G1 X195.571 Y59.5 E5.65681
G1 X195.789 Y60.412 E5.688
G1 X195.929 Y61.34 E5.71921
G1 X195.987 Y62.201 E5.74792
G1 X195.996 Y62.521 E5.75856
G1 X196 Y62.83 E5.76884
G1 X195.999 Y156.9 E8.89762
G1 X195.99 Y157.627 E8.9218
G1 X195.939 Y158.564 E8.95302
G1 X195.807 Y159.492 E8.98419
G1 X195.598 Y160.406 E9.01538
G1 X195.311 Y161.299 E9.04657
G1 X194.949 Y162.165 E9.07779
G1 X194.515 Y162.996 E9.10897
G1 X194.011 Y163.787 E9.14017
G1 X193.442 Y164.532 E9.17135
G1 X192.811 Y165.227 E9.20257
G1 X192.124 Y165.865 E9.23375
G1 X191.385 Y166.442 E9.26494
G1 X190.599 Y166.954 E9.29614
G1 X189.773 Y167.397 E9.32731
G1 X188.911 Y167.769 E9.35854
G1 X188.022 Y168.065 E9.3897
G1 X187.11 Y168.285 E9.42091
G1 X186.183 Y168.426 E9.45209
G1 X185.299 Y168.487 E9.48156
G1 X184.978 Y168.496 E9.49224
G1 X184.67 Y168.5 E9.50249
G1 X35.565 Y168.499 E14.46174
G1 X34.867 Y168.49 E14.48496
G1 X33.931 Y168.438 E14.51614
G1 X33.002 Y168.306 E14.54735
G1 X32.088 Y168.096 E14.57854
G1 X31.195 Y167.809 E14.60974
G1 X30.33 Y167.446 E14.64094
G1 X29.499 Y167.012 E14.67212
G1 X28.708 Y166.508 E14.70331
G1 X27.963 Y165.938 E14.73451
G1 X27.269 Y165.307 E14.76571
G1 X26.632 Y164.62 E14.79687
G1 X26.055 Y163.88 E14.82808
G1 X25.543 Y163.094 E14.85928
G1 X25.1 Y162.267 E14.89049
G1 X24.729 Y161.406 E14.92167
G1 X24.433 Y160.516 E14.95286
G1 X24.214 Y159.604 E14.98406
G1 X24.073 Y158.677 E15.01525
G1 X24.013 Y157.788 E15.04488
G1 X24.004 Y157.455 E15.05596
G1 X24 Y157.158 E15.06584
G1 X24.001 Y63.025 E18.19672
G1 X24.01 Y62.36 E18.21884
G1 X24.063 Y61.424 E18.25002
G1 X24.195 Y60.495 E18.28123
G1 X24.406 Y59.581 E18.31243
G1 X24.694 Y58.689 E18.3436
G1 X25.057 Y57.824 E18.3748
G1 X25.492 Y56.993 E18.406
G1 X25.996 Y56.203 E18.43717
G1 X26.566 Y55.458 E18.46837
G1 X27.198 Y54.764 E18.49959
G1 X27.886 Y54.127 E18.53077
G1 X28.626 Y53.551 E18.56196
G1 X29.412 Y53.039 E18.59316
G0 F6000 X29.791 Y53.282
G1 F1200 X30.611 Y52.864 E18.62377
G1 X31.465 Y52.519 E18.65441
G1 X32.345 Y52.249 E18.68502
G1 X33.245 Y52.057 E18.71563
G1 X34.159 Y51.943 E18.74627
G1 X34.712 Y51.913 E18.76469
G1 X35.033 Y51.904 E18.77537
G1 X35.33 Y51.9 E18.78525
G1 X184.293 Y51.9 E23.73978
G1 X185.143 Y51.911 E23.76805
G1 X186.062 Y51.964 E23.79867
G1 X186.973 Y52.097 E23.82929
G1 X187.869 Y52.308 E23.8599
G1 X188.743 Y52.596 E23.89051
G1 X189.59 Y52.959 E23.92116
G1 X190.401 Y53.394 E23.95177
G1 X191.171 Y53.898 E23.98238
G1 X191.895 Y54.467 E24.01301
G1 X192.567 Y55.097 E24.04364
G1 X193.182 Y55.782 E24.07426
G1 X193.735 Y56.518 E24.10488
G1 X194.222 Y57.299 E24.13549
G1 X194.639 Y58.12 E24.16612
G1 X194.984 Y58.974 E24.19675
G1 X195.253 Y59.854 E24.22736
G1 X195.445 Y60.755 E24.258
G1 X195.558 Y61.668 E24.2886
G1 X195.587 Y62.212 E24.30672
G1 X195.596 Y62.532 E24.31736
G1 X195.6 Y62.83 E24.32728
G1 X195.599 Y156.895 E27.45589
G1 X195.59 Y157.622 E27.48007
G1 X195.539 Y158.541 E27.51069
G1 X195.408 Y159.453 E27.54133
G1 X195.198 Y160.349 E27.57194
G1 X194.912 Y161.224 E27.60256
G1 X194.551 Y162.071 E27.63318
G1 X194.117 Y162.883 E27.6638
G1 X193.615 Y163.655 E27.69443
G1 X193.047 Y164.38 E27.72506
G1 X192.419 Y165.053 E27.75568
G1 X191.735 Y165.669 E27.7863
G1 X191 Y166.223 E27.81691
G1 X190.22 Y166.712 E27.84753
G1 X189.4 Y167.131 E27.87816
G1 X188.547 Y167.477 E27.90877
G1 X187.667 Y167.748 E27.9394
G1 X186.767 Y167.941 E27.97001
G1 X185.853 Y168.056 E28.00065
G1 X185.288 Y168.087 E28.01947
G1 X184.967 Y168.096 E28.03015
G1 X184.67 Y168.1 E28.04003
G1 X35.57 Y168.099 E32.99912
G1 X34.872 Y168.09 E33.02234
G1 X33.953 Y168.038 E33.05295
G1 X33.042 Y167.907 E33.08356
G1 X32.146 Y167.697 E33.11417
G1 X31.271 Y167.41 E33.1448
G1 X30.424 Y167.048 E33.17543
G1 X29.612 Y166.614 E33.20606
G1 X28.841 Y166.112 E33.23666
G1 X28.116 Y165.544 E33.26729
G1 X27.443 Y164.915 E33.29793
G1 X26.828 Y164.231 E33.32852
G1 X26.274 Y163.496 E33.35914
G1 X25.786 Y162.715 E33.38977
G1 X25.367 Y161.895 E33.42039
G1 X25.021 Y161.042 E33.45101
G1 X24.751 Y160.162 E33.48162
G1 X24.558 Y159.261 E33.51227
G1 X24.444 Y158.348 E33.54287
G1 X24.413 Y157.777 E33.56189
G1 X24.404 Y157.444 E33.57297
G1 X24.4 Y157.158 E33.58249
G1 X24.401 Y63.031 E36.71316
G1 X24.41 Y62.366 E36.73528
G1 X24.462 Y61.446 E36.76593
G1 X24.594 Y60.535 E36.79655
G1 X24.805 Y59.639 E36.82716
G1 X25.092 Y58.764 E36.85779
G1 X25.455 Y57.918 E36.88841
G1 X25.889 Y57.106 E36.91903
G1 X26.392 Y56.335 E36.94965
G1 X26.961 Y55.611 E36.98028
G1 X27.589 Y54.939 E37.01087
G1 X28.274 Y54.323 E37.04151
G1 X29.01 Y53.77 E37.07213
G1 X29.791 Y53.282 E37.10276
G0 F6000 X30.169 Y53.531
G1 F1200 X30.982 Y53.138 E37.1328
G1 X31.827 Y52.818 E37.16285
G1 X32.696 Y52.575 E37.19286
G1 X33.584 Y52.409 E37.22291
G1 X34.723 Y52.313 E37.26092
G1 X35.044 Y52.304 E37.2716
G1 X35.33 Y52.3 E37.28112
G1 X184.293 Y52.3 E42.23565
G1 X185.137 Y52.311 E42.26372
G1 X186.039 Y52.364 E42.29377
G1 X186.932 Y52.496 E42.3238
G1 X187.81 Y52.707 E42.35383
G1 X188.666 Y52.995 E42.38387
G1 X189.493 Y53.357 E42.4139
G1 X190.285 Y53.792 E42.44395
G1 X191.036 Y54.294 E42.47399
G1 X191.739 Y54.861 E42.50403
G1 X192.389 Y55.488 E42.53407
G1 X192.981 Y56.17 E42.56411
G1 X193.511 Y56.901 E42.59414
G1 X193.973 Y57.677 E42.62418
G1 X194.366 Y58.49 E42.65421
G1 X194.684 Y59.335 E42.68424
G1 X194.927 Y60.205 E42.71429
G1 X195.092 Y61.093 E42.74433
G1 X195.187 Y62.223 E42.78204
G1 X195.196 Y62.543 E42.79269
G1 X195.2 Y62.83 E42.80224
G1 X195.199 Y156.89 E45.93068
G1 X195.19 Y157.617 E45.95487
G1 X195.139 Y158.519 E45.98492
G1 X195.008 Y159.413 E46.01497
G1 X194.799 Y160.291 E46.04499
G1 X194.513 Y161.148 E46.07503
G1 X194.152 Y161.976 E46.10508
G1 X193.72 Y162.768 E46.13508
G1 X193.219 Y163.52 E46.16514
G1 X192.653 Y164.224 E46.19518
G1 X192.028 Y164.875 E46.2252
G1 X191.347 Y165.469 E46.25525
G1 X190.616 Y166 E46.2853
G1 X189.842 Y166.464 E46.31532
G1 X189.029 Y166.858 E46.34537
G1 X188.185 Y167.178 E46.37539
G1 X187.315 Y167.423 E46.40545
G1 X186.428 Y167.589 E46.43547
G1 X185.277 Y167.687 E46.47389
G1 X184.956 Y167.696 E46.48457
G1 X184.67 Y167.7 E46.49408
G1 X35.575 Y167.699 E51.453
G1 X34.877 Y167.69 E51.47622
G1 X33.976 Y167.639 E51.50623
G1 X33.082 Y167.507 E51.53629
G1 X32.204 Y167.298 E51.56631
G1 X31.347 Y167.011 E51.59637
G1 X30.52 Y166.65 E51.62638
G1 X29.727 Y166.217 E51.65643
G1 X28.976 Y165.716 E51.68646
G1 X28.272 Y165.15 E51.7165
G1 X27.621 Y164.524 E51.74654
G1 X27.028 Y163.843 E51.77657
G1 X26.498 Y163.112 E51.80661
G1 X26.034 Y162.337 E51.83665
G1 X25.64 Y161.524 E51.8667
G1 X25.32 Y160.68 E51.89672
G1 X25.076 Y159.81 E51.92677
G1 X24.91 Y158.922 E51.95682
G1 X24.813 Y157.767 E51.99537
G1 X24.804 Y157.434 E52.00645
G1 X24.8 Y157.158 E52.01563
G1 X24.801 Y63.036 E55.14614
G1 X24.81 Y62.371 E55.16826
G1 X24.862 Y61.469 E55.19831
G1 X24.994 Y60.576 E55.22833
G1 X25.204 Y59.698 E55.25836
G1 X25.491 Y58.841 E55.28842
G1 X25.853 Y58.014 E55.31845
G1 X26.286 Y57.222 E55.34847
G1 X26.788 Y56.471 E55.37851
G1 X27.355 Y55.767 E55.40858
G1 X27.981 Y55.117 E55.43859
G1 X28.662 Y54.524 E55.46863
G1 X29.394 Y53.994 E55.49869
G1 X30.169 Y53.531 E55.52871
G1 F1500 E49.02871
;MESH:AnahtarAski-Body.stl
G0 F6000 X35.81 Y61.835
G0 X35.81 Y63.31
G0 X35.782 Y156.718
G0 X184.4 Y156.9
;TYPE:WALL-INNER
G1 F1500 E55.52871
G1 F1200 X35.6 Y156.9 E60.47782
G1 X35.6 Y63.1 E63.59762
G1 X184.4 Y63.1 E68.54673
G1 X184.4 Y156.9 E71.66653
G0 F6000 X184.8 Y157.3
;TYPE:WALL-OUTER
G1 F1200 X35.2 Y157.3 E76.64225
G1 X35.2 Y62.7 E79.78865
G1 X184.8 Y62.7 E84.76437
G1 X184.8 Y157.3 E87.91078
G0 F6000 X184.53 Y157.03
G0 X184.29 Y156.51
G0 X184.01 Y156.51
;TYPE:SKIN
G1 F1200 X35.99 Y156.51 E92.83394
G1 X35.99 Y63.49 E95.9278
G1 X184.01 Y63.49 E100.85097
G1 X184.01 Y156.51 E103.94483
G1 F1500 E97.44483
G0 F6000 X184.29 Y156.51
G0 X184.29 Y63.923
G0 X183.849 Y63.923
G1 F1500 E103.94483
G1 F1200 X183.574 Y63.649 E103.95774
G0 F6000 X183.009 Y63.649
G1 F1200 X183.849 Y64.489 E103.99725
G0 F6000 X183.849 Y65.055
G1 F1200 X182.443 Y63.649 E104.06338
G0 F6000 X181.877 Y63.649
G1 F1200 X183.849 Y65.62 E104.15611
G0 F6000 X183.849 Y66.186
G1 F1200 X181.312 Y63.649 E104.27545
G0 F6000 X180.746 Y63.649
G1 F1200 X183.849 Y66.752 E104.4214
G0 F6000 X183.849 Y67.317
G1 F1200 X180.18 Y63.649 E104.59396
G0 F6000 X179.615 Y63.649
G1 F1200 X183.849 Y67.883 E104.79311
G0 F6000 X183.849 Y68.449
G1 F1200 X179.049 Y63.649 E105.01889
G0 F6000 X178.483 Y63.649
G1 F1200 X183.849 Y69.015 E105.27129
G0 F6000 X183.849 Y69.58
G1 F1200 X177.917 Y63.649 E105.55029
G0 F6000 X177.352 Y63.649
G1 F1200 X183.849 Y70.146 E105.85589
G0 F6000 X183.849 Y70.712
G1 F1200 X176.786 Y63.649 E106.18811
G0 F6000 X176.22 Y63.649
G1 F1200 X183.849 Y71.277 E106.54693
G0 F6000 X183.849 Y71.843
G1 F1200 X175.655 Y63.649 E106.93235
G0 F6000 X175.089 Y63.649
G1 F1200 X183.849 Y72.409 E107.3444
G0 F6000 X183.849 Y72.974
G1 F1200 X174.523 Y63.649 E107.78304
G0 F6000 X173.958 Y63.649
G1 F1200 X183.849 Y73.54 E108.24828
G0 F6000 X183.849 Y74.106
G1 F1200 X173.392 Y63.649 E108.74015
G0 F6000 X172.826 Y63.649
G1 F1200 X183.849 Y74.671 E109.25861
G0 F6000 X183.849 Y75.237
G1 F1200 X172.261 Y63.649 E109.80368
G0 F6000 X171.695 Y63.649
G1 F1200 X183.849 Y75.803 E110.37536
G0 F6000 X183.849 Y76.368
G1 F1200 X171.129 Y63.649 E110.97365
G0 F6000 X170.564 Y63.649
G1 F1200 X183.849 Y76.934 E111.59853
G0 F6000 X183.849 Y77.5
G1 F1200 X169.998 Y63.649 E112.25004
G0 F6000 X169.432 Y63.649
G1 F1200 X183.849 Y78.066 E112.92817
G0 F6000 X183.849 Y78.631
G1 F1200 X168.866 Y63.649 E113.6329
G0 F6000 X168.301 Y63.649
G1 F1200 X183.849 Y79.197 E114.36424
G0 F6000 X183.849 Y79.763
G1 F1200 X167.735 Y63.649 E115.12219
G0 F6000 X167.169 Y63.649
G1 F1200 X183.849 Y80.328 E115.90674
G0 F6000 X183.849 Y80.894
G1 F1200 X166.604 Y63.649 E116.71789
G0 F6000 X166.038 Y63.649
G1 F1200 X183.849 Y81.46 E117.55567
G0 F6000 X183.849 Y82.025
G1 F1200 X165.472 Y63.649 E118.42004
G0 F6000 X164.907 Y63.649
G1 F1200 X183.849 Y82.591 E119.31102
G0 F6000 X183.849 Y83.157
G1 F1200 X164.341 Y63.649 E120.22861
G0 F6000 X163.775 Y63.649
G1 F1200 X183.849 Y83.722 E121.17281
G0 F6000 X183.849 Y84.288
G1 F1200 X163.21 Y63.649 E122.1436
G0 F6000 X162.644 Y63.649
G1 F1200 X183.849 Y84.854 E123.14102
G0 F6000 X183.849 Y85.419
G1 F1200 X162.078 Y63.649 E124.16504
G0 F6000 X161.513 Y63.649
G1 F1200 X183.849 Y85.985 E125.21566
G0 F6000 X183.849 Y86.551
G1 F1200 X160.947 Y63.649 E126.2929
G0 F6000 X160.381 Y63.649
G1 F1200 X183.849 Y87.116 E127.39673
G0 F6000 X183.849 Y87.682
G1 F1200 X159.816 Y63.649 E128.52717
G0 F6000 X159.25 Y63.649
G1 F1200 X183.849 Y88.248 E129.68424
G0 F6000 X183.849 Y88.814
G1 F1200 X158.684 Y63.649 E130.86792
G0 F6000 X158.118 Y63.649
G1 F1200 X183.849 Y89.379 E132.0782
G0 F6000 X183.849 Y89.945
G1 F1200 X157.553 Y63.649 E133.31509
G0 F6000 X156.987 Y63.649
G1 F1200 X183.849 Y90.511 E134.57859
G0 F6000 X183.849 Y91.076
G1 F1200 X156.421 Y63.649 E135.8687
G0 F6000 X155.856 Y63.649
G1 F1200 X183.849 Y91.642 E137.1854
G0 F6000 X183.849 Y92.208
G1 F1200 X155.29 Y63.649 E138.52873
G0 F6000 X154.724 Y63.649
G1 F1200 X183.849 Y92.773 E139.89866
G0 F6000 X183.849 Y93.339
G1 F1200 X154.159 Y63.649 E141.29518
G0 F6000 X153.593 Y63.649
G1 F1200 X183.849 Y93.905 E142.71833
G0 F6000 X183.849 Y94.47
G1 F1200 X153.027 Y63.649 E144.16808
G0 F6000 X152.462 Y63.649
G1 F1200 X183.849 Y95.036 E145.64443
G0 F6000 X183.849 Y95.602
G1 F1200 X151.896 Y63.649 E147.1474
G0 F6000 X151.33 Y63.649
G1 F1200 X183.849 Y96.167 E148.67697
G0 F6000 X183.849 Y96.733
G1 F1200 X150.765 Y63.649 E150.23314
G0 F6000 X150.199 Y63.649
G1 F1200 X183.849 Y97.299 E151.81594
G0 F6000 X183.849 Y97.864
G1 F1200 X149.633 Y63.649 E153.42533
G0 F6000 X149.068 Y63.649
G1 F1200 X183.849 Y98.43 E155.06132
G0 F6000 X183.849 Y98.996
G1 F1200 X148.502 Y63.649 E156.72393
G0 F6000 X147.936 Y63.649
G1 F1200 X183.849 Y99.562 E158.41317
G0 F6000 X183.849 Y100.127
G1 F1200 X147.37 Y63.649 E160.12901
G0 F6000 X146.805 Y63.649
G1 F1200 X183.849 Y100.693 E161.87144
G0 F6000 X183.849 Y101.259
G1 F1200 X146.239 Y63.649 E163.6405
G0 F6000 X145.673 Y63.649
G1 F1200 X183.849 Y101.824 E165.43616
G0 F6000 X183.849 Y102.39
G1 F1200 X145.108 Y63.649 E167.25842
G0 F6000 X144.542 Y63.649
G1 F1200 X183.849 Y102.956 E169.1073
G0 F6000 X183.849 Y103.521
G1 F1200 X143.976 Y63.649 E170.98278
G0 F6000 X143.411 Y63.649
G1 F1200 X183.849 Y104.087 E172.88486
G0 F6000 X183.849 Y104.653
G1 F1200 X142.845 Y63.649 E174.81356
G0 F6000 X142.279 Y63.649
G1 F1200 X183.849 Y105.218 E176.76886
G0 F6000 X183.849 Y105.784
G1 F1200 X141.714 Y63.649 E178.75077
G0 F6000 X141.148 Y63.649
G1 F1200 X183.849 Y106.35 E180.75929
G0 F6000 X183.849 Y106.915
G1 F1200 X140.582 Y63.649 E182.79441
G0 F6000 X140.017 Y63.649
G1 F1200 X183.849 Y107.481 E184.85614
G0 F6000 X183.849 Y108.047
G1 F1200 X139.451 Y63.649 E186.94448
G0 F6000 X138.885 Y63.649
G1 F1200 X183.849 Y108.613 E189.05945
G0 F6000 X183.849 Y109.178
G1 F1200 X138.319 Y63.649 E191.20102
G0 F6000 X137.754 Y63.649
G1 F1200 X183.849 Y109.744 E193.36919
G0 F6000 X183.849 Y110.31
G1 F1200 X137.188 Y63.649 E195.56398
G0 F6000 X136.622 Y63.649
G1 F1200 X183.849 Y110.875 E197.78537
G0 F6000 X183.849 Y111.441
G1 F1200 X136.057 Y63.649 E200.03336
G0 F6000 X135.491 Y63.649
G1 F1200 X183.849 Y112.007 E202.30797
G0 F6000 X183.849 Y112.572
G1 F1200 X134.925 Y63.649 E204.60918
G0 F6000 X134.36 Y63.649
G1 F1200 X183.849 Y113.138 E206.93699
G0 F6000 X183.849 Y113.704
G1 F1200 X133.794 Y63.649 E209.29142
G0 F6000 X133.228 Y63.649
G1 F1200 X183.849 Y114.269 E211.67246
G0 F6000 X183.849 Y114.835
G1 F1200 X132.663 Y63.649 E214.08009
G0 F6000 X132.097 Y63.649
G1 F1200 X183.849 Y115.401 E216.51434
G0 F6000 X183.849 Y115.966
G1 F1200 X131.531 Y63.649 E218.9752
G0 F6000 X130.966 Y63.649
G1 F1200 X183.849 Y116.532 E221.46265
G0 F6000 X183.849 Y117.098
G1 F1200 X130.4 Y63.649 E223.97673
G0 F6000 X129.834 Y63.649
G1 F1200 X183.849 Y117.663 E226.51741
G0 F6000 X183.849 Y118.229
G1 F1200 X129.269 Y63.649 E229.08468
G0 F6000 X128.703 Y63.649
G1 F1200 X183.849 Y118.795 E231.67858
G0 F6000 X183.849 Y119.361
G1 F1200 X128.137 Y63.649 E234.2991
G0 F6000 X127.571 Y63.649
G1 F1200 X183.849 Y119.926 E236.94622
G0 F6000 X183.849 Y120.492
G1 F1200 X127.006 Y63.649 E239.61995
G0 F6000 X126.44 Y63.649
G1 F1200 X183.849 Y121.058 E242.32029
G0 F6000 X183.849 Y121.623
G1 F1200 X125.874 Y63.649 E245.04723
G0 F6000 X125.309 Y63.649
G1 F1200 X183.849 Y122.189 E247.80077
G0 F6000 X183.849 Y122.755
G1 F1200 X124.743 Y63.649 E250.58094
G0 F6000 X124.177 Y63.649
G1 F1200 X183.849 Y123.32 E253.3877
G0 F6000 X183.849 Y123.886
G1 F1200 X123.612 Y63.649 E256.22107
