;FLAVOR:Marlin
;TIME:15655
;Filament used: 6.70357m
;Layer height: 0.2
;MINX:16.8
;MINY:67.8
;MINZ:0.2
;MAXX:203.2
;MAXY:152.2
;MAXZ:2.2
;Generated with Cura_SteamEngine 4.9.0
M140 S60
M105
M190 S60
M104 S200
M105
M109 S200
M82 ;absolute extrusion mode
; Ender 3 Custom Start G-code
G92 E0 ; Reset Extruder
G28 ; Home all axes
G1 Z2.0 F3000 ; Move Z Axis up little to prevent scratching of Heat Bed
G1 X0.1 Y20 Z0.3 F5000.0 ; Move to start position
G1 X0.1 Y200.0 Z0.3 F1500.0 E15 ; Draw the first line
G1 X0.4 Y200.0 Z0.3 F5000.0 ; Move to side a little
G1 X0.4 Y20 Z0.3 F1500.0 E30 ; Draw the second line
G92 E0 ; Reset Extruder
G1 Z2.0 F3000 ; Move Z Axis up little to prevent scratching of Heat Bed
G1 X5 Y20 Z0.3 F5000.0 ; Move over to prevent blob squish
G92 E0
G92 E0
G1 F1500 E-6.5
;LAYER_COUNT:11
;LAYER:0
M107
G0 F6000 X23.901 Y68.527 Z0.2
;TYPE:SKIRT
G1 F1500 E0
G1 F1200 X24.791 Y68.231 E0.0312
G1 X25.703 Y68.013 E0.06238
G1 X26.63 Y67.872 E0.09357
G1 X27.501 Y67.813 E0.12261
G1 X27.822 Y67.804 E0.13329
G1 X28.13 Y67.8 E0.14353
G1 X191.493 Y67.8 E5.57701
G1 X192.349 Y67.811 E5.60548
G1 X193.285 Y67.865 E5.63666
G1 X194.213 Y67.997 E5.66784
G1 X195.127 Y68.209 E5.69905
G1 X196.019 Y68.498 E5.73023
G1 X196.884 Y68.861 E5.76143
G1 X197.714 Y69.297 E5.79262
G1 X198.505 Y69.802 E5.82383
G1 X199.249 Y70.373 E5.85502
G1 X199.942 Y71.005 E5.88622
G1 X200.579 Y71.693 E5.9174
G1 X201.154 Y72.434 E5.9486
G1 X201.665 Y73.22 E5.97978
G1 X202.107 Y74.048 E6.011
G1 X202.476 Y74.91 E6.04218
G1 X202.771 Y75.8 E6.07337
G1 X202.989 Y76.712 E6.10456
G1 X203.129 Y77.64 E6.13577
G1 X203.187 Y78.501 E6.16447
G1 X203.196 Y78.821 E6.17512
G1 X203.2 Y79.13 E6.1854
G1 X203.199 Y140.6 E8.2299
G1 X203.19 Y141.327 E8.25408
G1 X203.139 Y142.264 E8.28529
G1 X203.007 Y143.192 E8.31647
G1 X202.798 Y144.106 E8.34765
G1 X202.511 Y144.999 E8.37885
G1 X202.149 Y145.865 E8.41007
G1 X201.715 Y146.696 E8.44125
G1 X201.211 Y147.487 E8.47245
G1 X200.642 Y148.232 E8.50363
G1 X200.011 Y148.927 E8.53485
G1 X199.324 Y149.565 E8.56603
G1 X198.585 Y150.142 E8.59721
G1 X197.799 Y150.654 E8.62841
G1 X196.973 Y151.097 E8.65959
G1 X196.111 Y151.469 E8.69082
G1 X195.222 Y151.765 E8.72198
G1 X194.31 Y151.985 E8.75318
G1 X193.383 Y152.126 E8.78437
G1 X192.499 Y152.187 E8.81384
G1 X192.178 Y152.196 E8.82452
G1 X191.87 Y152.2 E8.83477
G1 X28.365 Y152.199 E14.27297
G1 X27.667 Y152.19 E14.29618
G1 X26.731 Y152.138 E14.32736
G1 X25.802 Y152.006 E14.35857
G1 X24.888 Y151.796 E14.38976
G1 X23.995 Y151.509 E14.42096
G1 X23.13 Y151.146 E14.45216
G1 X22.299 Y150.712 E14.48334
G1 X21.508 Y150.208 E14.51454
G1 X20.763 Y149.638 E14.54574
G1 X20.069 Y149.007 E14.57694
G1 X19.432 Y148.32 E14.6081
G1 X18.855 Y147.58 E14.63931
G1 X18.343 Y146.794 E14.67051
G1 X17.9 Y145.967 E14.70171
G1 X17.529 Y145.106 E14.73289
G1 X17.233 Y144.216 E14.76409
G1 X17.014 Y143.304 E14.79528
G1 X16.873 Y142.377 E14.82647
G1 X16.813 Y141.488 E14.85611
G1 X16.804 Y141.155 E14.86719
G1 X16.8 Y140.858 E14.87706
G1 X16.801 Y79.325 E16.92366
G1 X16.81 Y78.66 E16.94578
G1 X16.863 Y77.724 E16.97696
G1 X16.995 Y76.795 E17.00817
G1 X17.206 Y75.881 E17.03937
G1 X17.494 Y74.989 E17.07055
G1 X17.857 Y74.124 E17.10175
G1 X18.292 Y73.293 E17.13294
G1 X18.796 Y72.503 E17.16411
G1 X19.366 Y71.758 E17.19531
G1 X19.998 Y71.064 E17.22653
G1 X20.686 Y70.427 E17.25771
G1 X21.426 Y69.851 E17.2889
G1 X22.212 Y69.339 E17.3201
G1 X23.039 Y68.897 E17.35129
G1 X23.901 Y68.527 E17.38249
G0 F6000 X24.265 Y68.819
G1 F1200 X25.145 Y68.549 E17.41311
G1 X26.045 Y68.357 E17.44372
G1 X26.959 Y68.243 E17.47435
G1 X27.512 Y68.213 E17.49277
G1 X27.833 Y68.204 E17.50345
G1 X28.13 Y68.2 E17.51333
G1 X191.493 Y68.2 E22.94681
G1 X192.343 Y68.211 E22.97508
G1 X193.262 Y68.264 E23.0057
G1 X194.173 Y68.397 E23.03632
G1 X195.069 Y68.608 E23.06693
G1 X195.943 Y68.896 E23.09754
G1 X196.79 Y69.259 E23.12819
G1 X197.601 Y69.694 E23.1588
G1 X198.371 Y70.198 E23.18941
G1 X199.095 Y70.767 E23.22004
G1 X199.767 Y71.397 E23.25067
G1 X200.382 Y72.082 E23.28129
G1 X200.935 Y72.818 E23.31191
G1 X201.422 Y73.599 E23.34252
G1 X201.839 Y74.42 E23.37315
G1 X202.184 Y75.274 E23.40378
G1 X202.453 Y76.154 E23.43439
G1 X202.645 Y77.055 E23.46503
G1 X202.758 Y77.968 E23.49563
G1 X202.787 Y78.512 E23.51375
G1 X202.796 Y78.832 E23.52439
G1 X202.8 Y79.13 E23.53431
G1 X202.799 Y140.595 E25.57864
G1 X202.79 Y141.322 E25.60282
G1 X202.739 Y142.241 E25.63344
G1 X202.608 Y143.153 E25.66408
G1 X202.398 Y144.049 E25.69469
G1 X202.112 Y144.924 E25.72531
G1 X201.751 Y145.771 E25.75593
G1 X201.317 Y146.583 E25.78655
G1 X200.815 Y147.355 E25.81718
G1 X200.247 Y148.08 E25.84781
G1 X199.619 Y148.753 E25.87843
G1 X198.935 Y149.369 E25.90905
G1 X198.2 Y149.923 E25.93966
G1 X197.42 Y150.412 E25.97028
G1 X196.6 Y150.831 E26.00091
G1 X195.747 Y151.177 E26.03152
G1 X194.867 Y151.448 E26.06215
G1 X193.967 Y151.641 E26.09276
G1 X193.053 Y151.756 E26.1234
G1 X192.488 Y151.787 E26.14222
G1 X192.167 Y151.796 E26.1529
G1 X191.87 Y151.8 E26.16278
G1 X28.37 Y151.799 E31.60081
G1 X27.672 Y151.79 E31.62403
G1 X26.753 Y151.738 E31.65465
G1 X25.842 Y151.607 E31.68526
G1 X24.946 Y151.397 E31.71587
G1 X24.071 Y151.11 E31.74649
G1 X23.224 Y150.748 E31.77713
G1 X22.412 Y150.314 E31.80775
G1 X21.641 Y149.812 E31.83835
G1 X20.916 Y149.244 E31.86899
G1 X20.243 Y148.615 E31.89962
G1 X19.628 Y147.931 E31.93022
G1 X19.074 Y147.196 E31.96083
G1 X18.586 Y146.415 E31.99146
G1 X18.167 Y145.595 E32.02209
G1 X17.821 Y144.742 E32.0527
G1 X17.551 Y143.862 E32.08332
G1 X17.358 Y142.961 E32.11397
G1 X17.244 Y142.048 E32.14457
G1 X17.213 Y141.477 E32.16359
G1 X17.204 Y141.144 E32.17467
G1 X17.2 Y140.858 E32.18418
G1 X17.201 Y79.331 E34.23058
G1 X17.21 Y78.666 E34.2527
G1 X17.262 Y77.746 E34.28335
G1 X17.394 Y76.835 E34.31396
G1 X17.605 Y75.939 E34.34458
G1 X17.892 Y75.064 E34.37521
G1 X18.255 Y74.218 E34.40583
G1 X18.689 Y73.406 E34.43645
G1 X19.192 Y72.635 E34.46707
G1 X19.761 Y71.911 E34.49769
G1 X20.389 Y71.239 E34.52829
G1 X21.074 Y70.623 E34.55893
G1 X21.81 Y70.07 E34.58955
G1 X22.591 Y69.582 E34.62018
G1 X23.411 Y69.164 E34.65079
G1 X24.265 Y68.819 E34.68142
G0 F6000 X23.782 Y69.438
G1 F1200 X24.627 Y69.118 E34.71148
G1 X25.496 Y68.875 E34.74149
G1 X26.384 Y68.709 E34.77153
G1 X27.523 Y68.613 E34.80955
G1 X27.844 Y68.604 E34.82023
G1 X28.13 Y68.6 E34.82975
G1 X191.493 Y68.6 E40.26322
G1 X192.337 Y68.611 E40.2913
G1 X193.239 Y68.664 E40.32135
G1 X194.132 Y68.796 E40.35137
G1 X195.01 Y69.007 E40.38141
G1 X195.866 Y69.295 E40.41144
G1 X196.693 Y69.657 E40.44147
G1 X197.485 Y70.092 E40.47152
G1 X198.236 Y70.594 E40.50157
G1 X198.939 Y71.161 E40.53161
G1 X199.589 Y71.788 E40.56165
G1 X200.181 Y72.47 E40.59168
G1 X200.711 Y73.201 E40.62171
G1 X201.173 Y73.977 E40.65175
G1 X201.566 Y74.79 E40.68179
G1 X201.884 Y75.635 E40.71182
G1 X202.127 Y76.505 E40.74186
G1 X202.292 Y77.393 E40.7719
G1 X202.387 Y78.523 E40.80962
G1 X202.396 Y78.843 E40.82026
G1 X202.4 Y79.13 E40.82981
G1 X202.399 Y140.59 E42.87398
G1 X202.39 Y141.317 E42.89816
G1 X202.339 Y142.219 E42.92821
G1 X202.208 Y143.113 E42.95826
G1 X201.999 Y143.991 E42.98828
G1 X201.713 Y144.848 E43.01833
G1 X201.352 Y145.676 E43.04837
G1 X200.92 Y146.468 E43.07838
G1 X200.419 Y147.22 E43.10843
G1 X199.853 Y147.924 E43.13848
G1 X199.228 Y148.575 E43.16849
G1 X198.547 Y149.169 E43.19855
G1 X197.816 Y149.7 E43.2286
G1 X197.042 Y150.164 E43.25861
G1 X196.229 Y150.558 E43.28866
G1 X195.385 Y150.878 E43.31868
G1 X194.515 Y151.123 E43.34874
G1 X193.628 Y151.289 E43.37876
G1 X192.477 Y151.387 E43.41718
G1 X192.156 Y151.396 E43.42786
G1 X191.87 Y151.4 E43.43737
G1 X28.375 Y151.399 E48.87524
G1 X27.677 Y151.39 E48.89846
G1 X26.776 Y151.339 E48.92847
G1 X25.882 Y151.207 E48.95853
G1 X25.004 Y150.998 E48.98855
G1 X24.147 Y150.711 E49.01861
G1 X23.32 Y150.35 E49.04862
G1 X22.527 Y149.917 E49.07867
G1 X21.776 Y149.416 E49.1087
G1 X21.072 Y148.85 E49.13874
G1 X20.421 Y148.224 E49.16878
G1 X19.828 Y147.543 E49.19881
G1 X19.298 Y146.812 E49.22885
G1 X18.834 Y146.037 E49.25889
G1 X18.44 Y145.224 E49.28894
G1 X18.12 Y144.38 E49.31896
G1 X17.876 Y143.51 E49.34901
G1 X17.71 Y142.622 E49.37906
G1 X17.613 Y141.467 E49.41761
G1 X17.604 Y141.134 E49.42869
G1 X17.6 Y140.858 E49.43787
G1 X17.601 Y79.336 E51.4841
G1 X17.61 Y78.671 E51.50622
G1 X17.662 Y77.769 E51.53627
G1 X17.794 Y76.876 E51.56629
G1 X18.004 Y75.998 E51.59632
G1 X18.291 Y75.141 E51.62638
G1 X18.653 Y74.314 E51.65641
G1 X19.086 Y73.522 E51.68643
G1 X19.588 Y72.771 E51.71647
G1 X20.155 Y72.067 E51.74654
G1 X20.781 Y71.417 E51.77655
G1 X21.462 Y70.824 E51.80659
G1 X22.194 Y70.294 E51.83664
G1 X22.969 Y69.831 E51.86667
G1 X23.782 Y69.438 E51.8967
G1 F1500 E45.3967
;MESH:SpeakerCover-BodyChamfer.stl
G0 F6000 X42.155 Y114.387
G0 X42.547 Y114.453
G0 X42.547 Y115.147
G0 X45.01 Y121.37
G0 X45.108 Y121.61
G0 X49.726 Y132.91
G0 X49.269 Y131.525
G0 X50.838 Y132.062
G0 X51.35 Y132.449
G0 X51.695 Y132.984
G0 X51.835 Y133.565
G0 X51.794 Y134.04
G0 X51.31 Y135.343
;TYPE:WALL-INNER
G1 F1500 E51.8967
G1 F1200 X51.575 Y135.091 E51.90887
G1 X51.792 Y134.798 E51.92099
G1 X51.935 Y134.518 E51.93145
G1 X52.038 Y134.215 E51.9421
G1 X52.094 Y133.865 E51.95389
G1 X52.096 Y133.545 E51.96453
G1 X52.048 Y133.232 E51.97506
G1 X51.937 Y132.884 E51.98721
G1 X51.791 Y132.6 E51.99783
G1 X51.542 Y132.271 E52.01155
G1 X51.231 Y131.997 E52.02534
G1 X50.957 Y131.829 E52.03603
G1 X50.664 Y131.706 E52.0466
G1 X50.324 Y131.626 E52.05822
G1 X50.053 Y131.599 E52.06727
G1 X49.732 Y131.616 E52.07797
G1 X49.33 Y131.707 E52.09167
G1 X48.954 Y131.878 E52.10541
G1 X48.688 Y132.058 E52.1161
G1 X48.395 Y132.344 E52.12971
G1 X48.207 Y132.604 E52.14038
G1 X48.066 Y132.881 E52.15072
G1 X47.962 Y133.184 E52.16138
G1 X47.906 Y133.537 E52.17327
G1 X47.908 Y133.909 E52.18564
G1 X47.99 Y134.315 E52.19941
G1 X48.129 Y134.655 E52.21163
G1 X48.297 Y134.931 E52.22238
G1 X48.602 Y135.271 E52.23757
G1 X48.867 Y135.471 E52.24861
G1 X49.225 Y135.653 E52.26197
G1 X49.536 Y135.749 E52.2728
G1 X49.941 Y135.801 E52.28638
G1 X50.268 Y135.784 E52.29727
G1 X50.67 Y135.693 E52.31098
G1 X51.046 Y135.522 E52.32471
G1 X51.31 Y135.343 E52.33532
G0 F6000 X51.058 Y135.031
;TYPE:WALL-OUTER
G1 F1200 X51.274 Y134.825 E52.34525
G1 X51.451 Y134.586 E52.35514
G1 X51.566 Y134.362 E52.36352
G1 X51.648 Y134.119 E52.37205
G1 X51.694 Y133.832 E52.38171
G1 X51.696 Y133.574 E52.3903
G1 X51.657 Y133.324 E52.39871
G1 X51.566 Y133.037 E52.40873
G1 X51.451 Y132.814 E52.41707
G1 X51.247 Y132.544 E52.42833
G1 X50.993 Y132.32 E52.43959
G1 X50.774 Y132.186 E52.44813
G1 X50.54 Y132.088 E52.45657
G1 X50.258 Y132.021 E52.46621
G1 X50.044 Y132 E52.47336
G1 X49.787 Y132.014 E52.48192
G1 X49.458 Y132.088 E52.49314
G1 X49.15 Y132.228 E52.50439
G1 X48.942 Y132.369 E52.51275
G1 X48.699 Y132.606 E52.52404
G1 X48.549 Y132.813 E52.53254
G1 X48.435 Y133.037 E52.5409
G1 X48.352 Y133.281 E52.54947
G1 X48.306 Y133.568 E52.55914
G1 X48.308 Y133.868 E52.56912
G1 X48.375 Y134.199 E52.58035
G1 X48.487 Y134.474 E52.59022
G1 X48.619 Y134.691 E52.59867
G1 X48.874 Y134.975 E52.61137
G1 X49.08 Y135.13 E52.61994
G1 X49.376 Y135.281 E52.63099
G1 X49.621 Y135.357 E52.63953
G1 X49.956 Y135.4 E52.65076
G1 X50.213 Y135.386 E52.65932
G1 X50.542 Y135.312 E52.67054
G1 X50.85 Y135.172 E52.68179
G1 X51.058 Y135.031 E52.69015
G0 F6000 X51.334 Y135.373
G1 F1500 E46.19015
G0 F6000 X51.783 Y134.152
G0 X51.835 Y133.565
G0 X51.722 Y133.096
G0 X51.044 Y131.659
G0 X50.377 Y132.955
G0 X50.095 Y87.13
G0 X50.295 Y88.574
G0 X50.67 Y88.293
;TYPE:WALL-INNER
G1 F1500 E52.69015
G1 F1200 X51.046 Y88.122 E52.70388
G1 X51.31 Y87.943 E52.71449
G1 X51.575 Y87.691 E52.72666
G1 X51.792 Y87.398 E52.73878
G1 X51.935 Y87.118 E52.74924
G1 X52.038 Y86.815 E52.75988
G1 X52.094 Y86.465 E52.77167
G1 X52.096 Y86.145 E52.78232
G1 X52.048 Y85.832 E52.79285
G1 X51.937 Y85.484 E52.805
G1 X51.791 Y85.2 E52.81562
G1 X51.542 Y84.871 E52.82934
G1 X51.231 Y84.597 E52.84313
G1 X50.957 Y84.429 E52.85382
G1 X50.664 Y84.306 E52.86439
G1 X50.324 Y84.226 E52.876
G1 X50.053 Y84.199 E52.88506
G1 X49.732 Y84.216 E52.89575
G1 X49.33 Y84.307 E52.90946
G1 X48.954 Y84.478 E52.9232
G1 X48.688 Y84.658 E52.93388
G1 X48.395 Y84.944 E52.9475
G1 X48.207 Y85.204 E52.95817
G1 X48.066 Y85.481 E52.96851
G1 X47.962 Y85.784 E52.97917
G1 X47.906 Y86.137 E52.99105
G1 X47.908 Y86.509 E53.00343
G1 X47.99 Y86.915 E53.0172
G1 X48.129 Y87.255 E53.02942
G1 X48.297 Y87.531 E53.04017
G1 X48.602 Y87.871 E53.05536
G1 X48.867 Y88.071 E53.0664
G1 X49.225 Y88.253 E53.07976
G1 X49.536 Y88.349 E53.09058
G1 X49.941 Y88.401 E53.10416
G1 X50.268 Y88.384 E53.11506
G1 X50.67 Y88.293 E53.12876
G0 F6000 X50.542 Y87.912
;TYPE:WALL-OUTER
G1 F1200 X50.85 Y87.772 E53.14002
G1 X51.058 Y87.631 E53.14838
G1 X51.274 Y87.425 E53.1583
G1 X51.451 Y87.186 E53.16819
G1 X51.566 Y86.962 E53.17657
G1 X51.648 Y86.719 E53.1851
G1 X51.694 Y86.432 E53.19477
G1 X51.696 Y86.174 E53.20335
G1 X51.657 Y85.924 E53.21176
G1 X51.566 Y85.637 E53.22178
G1 X51.451 Y85.414 E53.23012
G1 X51.247 Y85.144 E53.24138
G1 X50.993 Y84.92 E53.25264
G1 X50.774 Y84.786 E53.26118
G1 X50.54 Y84.688 E53.26962
G1 X50.258 Y84.621 E53.27926
G1 X50.044 Y84.6 E53.28641
G1 X49.787 Y84.614 E53.29497
G1 X49.458 Y84.688 E53.30619
G1 X49.15 Y84.828 E53.31744
G1 X48.942 Y84.969 E53.3258
G1 X48.699 Y85.206 E53.33709
G1 X48.549 Y85.413 E53.34559
G1 X48.435 Y85.637 E53.35395
G1 X48.352 Y85.881 E53.36252
G1 X48.306 Y86.168 E53.37219
G1 X48.308 Y86.468 E53.38217
G1 X48.375 Y86.799 E53.3934
G1 X48.487 Y87.074 E53.40328
G1 X48.619 Y87.291 E53.41172
G1 X48.874 Y87.575 E53.42442
G1 X49.08 Y87.73 E53.43299
G1 X49.376 Y87.881 E53.44405
G1 X49.621 Y87.957 E53.45258
G1 X49.956 Y88 E53.46381
G1 X50.213 Y87.986 E53.47237
G1 X50.542 Y87.912 E53.48359
G0 F6000 X50.682 Y88.329
G1 F1500 E46.98359
G0 F6000 X50.295 Y88.574
G0 X50.295 Y90.61
G0 X50.2 Y94
;TYPE:WALL-INNER
G1 F1500 E53.48359
G1 F1200 X47 Y94 E53.59002
G1 X47 Y97.2 E53.69645
G1 X43.8 Y97.2 E53.80288
G1 X43.8 Y100.4 E53.90932
G1 X40.6 Y100.4 E54.01575
G1 X40.6 Y119.6 E54.65434
G1 X43.8 Y119.6 E54.76078
G1 X43.8 Y122.8 E54.86721
G1 X47 Y122.8 E54.97364
G1 X47 Y126 E55.08007
G1 X50.2 Y126 E55.18651
G1 X50.2 Y129.2 E55.29294
G1 X53.4 Y129.2 E55.39937
G1 X53.4 Y90.8 E56.67656
G1 X50.2 Y90.8 E56.78299
G1 X50.2 Y94 E56.88943
G1 F1500 E50.38943
G0 F6000 X53.128 Y93.728
G0 X53 Y93.6
;TYPE:WALL-OUTER
G1 F1500 E56.88943
G1 F1200 X53 Y91.2 E56.96925
G1 X50.6 Y91.2 E57.04907
G1 X50.6 Y93.6 E57.1289
G1 X53 Y93.6 E57.20872
G1 F1500 E50.70872
G0 F6000 X53.2 Y93.6
G0 X53.2 Y96.8
G0 X53 Y96.8
G1 F1500 E57.20872
G1 F1200 X53 Y94.4 E57.28855
G1 X50.6 Y94.4 E57.36837
G1 X50.6 Y96.8 E57.4482
G1 X53 Y96.8 E57.52802
G1 F1500 E51.02802
G0 F6000 X53.2 Y96.8
G0 X50.472 Y96.928
G0 X50 Y96.8
G0 X49.8 Y96.8
G1 F1500 E57.52802
G1 F1200 X49.8 Y94.4 E57.60784
G1 X47.4 Y94.4 E57.68767
G1 X47.4 Y96.8 E57.76749
G1 X49.8 Y96.8 E57.84732
G1 F1500 E51.34732
G0 F6000 X50 Y96.8
G0 X49.328 Y97.471
G0 X47.272 Y97.472
G0 X46.8 Y100
G0 X46.6 Y100
G1 F1500 E57.84732
G1 F1200 X46.6 Y97.6 E57.92714
G1 X44.2 Y97.6 E58.00697
G1 X44.2 Y100 E58.08679
G1 X46.6 Y100 E58.16661
G1 F1500 E51.66661
G0 F6000 X46.8 Y100
G0 X47.272 Y100.128
G0 X49.928 Y100.128
G0 X49.8 Y100
G1 F1500 E58.16661
G1 F1200 X49.8 Y97.6 E58.24644
G1 X47.4 Y97.6 E58.32626
G1 X47.4 Y100 E58.40609
G1 X49.8 Y100 E58.48591
G1 F1500 E51.98591
G0 F6000 X50 Y100
G0 X50.472 Y100.128
G0 X53.128 Y100.128
G0 X53 Y100
G1 F1500 E58.48591
G1 F1200 X53 Y97.6 E58.56574
G1 X50.6 Y97.6 E58.64556
G1 X50.6 Y100 E58.72538
G1 X53 Y100 E58.80521
G1 F1500 E52.30521
G0 F6000 X53.2 Y100
G0 X53.2 Y103.2
G0 X53 Y103.2
G1 F1500 E58.80521
G1 F1200 X53 Y100.8 E58.88503
G1 X50.6 Y100.8 E58.96486
G1 X50.6 Y103.2 E59.04468
G1 X53 Y103.2 E59.12451
G1 F1500 E52.62451
G0 F6000 X53.2 Y103.2
G0 X50.472 Y103.328
G0 X50 Y103.2
G0 X49.8 Y103.2
G1 F1500 E59.12451
G1 F1200 X49.8 Y100.8 E59.20433
G1 X47.4 Y100.8 E59.28416
G1 X47.4 Y103.2 E59.36398
G1 X49.8 Y103.2 E59.4438
G1 F1500 E52.9438
G0 F6000 X50 Y103.2
G0 X47.272 Y103.328
G0 X46.8 Y103.2
G0 X46.6 Y103.2
G1 F1500 E59.4438
G1 F1200 X46.6 Y100.8 E59.52363
G1 X44.2 Y100.8 E59.60345
G1 X44.2 Y103.2 E59.68328
G1 X46.6 Y103.2 E59.7631
