;FLAVOR:Marlin
;TIME:22538
;Filament used: 13.1882m
;Layer height: 0.2
;MINX:65.352
;MINY:79
;MINZ:0.2
;MAXX:153.972
;MAXY:141
;MAXZ:87.8
;Generated with Cura_SteamEngine 4.9.0
M140 S60
M105
M190 S60
M104 S200
M105
M109 S200
M82 ;absolute extrusion mode
; Ender 3 Custom Start G-code
G92 E0 ; Reset Extruder
G28 ; Home all axes
G1 Z2.0 F3000 ; Move Z Axis up little to prevent scratching of Heat Bed
G1 X0.1 Y20 Z0.3 F5000.0 ; Move to start position
G1 X0.1 Y200.0 Z0.3 F1500.0 E15 ; Draw the first line
G1 X0.4 Y200.0 Z0.3 F5000.0 ; Move to side a little
G1 X0.4 Y20 Z0.3 F1500.0 E30 ; Draw the second line
G92 E0 ; Reset Extruder
G1 Z2.0 F3000 ; Move Z Axis up little to prevent scratching of Heat Bed
G1 X5 Y20 Z0.3 F5000.0 ; Move over to prevent blob squish
G92 E0
G92 E0
G1 F1500 E-6.5
;LAYER_COUNT:439
;LAYER:0
M107
G0 F6000 X72.302 Y81.598 Z0.2
;TYPE:SKIRT
G1 F1500 E0
G1 F1200 X73.044 Y81.024 E0.0312
G1 X73.833 Y80.517 E0.06239
G1 X74.661 Y80.078 E0.09357
G1 X75.525 Y79.711 E0.12479
G1 X76.416 Y79.419 E0.15597
G1 X77.329 Y79.205 E0.18716
G1 X78.257 Y79.068 E0.21836
G1 X79.018 Y79.016 E0.24373
G1 X79.403 Y79.006 E0.25654
G1 X79.946 Y79 E0.2746
G1 X104.284 Y79 E1.08409
G1 X106.247 Y79.007 E1.14938
G1 X107.22 Y79 E1.18174
G1 X112.525 Y79.001 E1.35819
G1 X112.857 Y79.006 E1.36923
G1 X115.24 Y79 E1.44849
G1 X140.066 Y79.001 E2.27421
G1 X140.768 Y79.011 E2.29756
G1 X141.704 Y79.064 E2.32874
G1 X142.632 Y79.197 E2.35992
G1 X143.546 Y79.409 E2.39112
G1 X144.439 Y79.697 E2.42233
G1 X145.303 Y80.061 E2.45352
G1 X146.134 Y80.497 E2.48473
G1 X146.924 Y81.002 E2.51591
G1 X147.668 Y81.572 E2.54709
G1 X148.389 Y82.232 E2.5796
G1 X148.501 Y82.344 E2.58487
G1 X149.135 Y83.035 E2.61606
G1 X149.709 Y83.777 E2.64726
G1 X150.216 Y84.566 E2.67845
G1 X150.655 Y85.394 E2.70962
G1 X151.022 Y86.258 E2.74084
G1 X151.314 Y87.149 E2.77203
G1 X151.528 Y88.062 E2.80322
G1 X151.665 Y88.99 E2.83442
G1 X151.716 Y89.721 E2.85879
G1 X151.727 Y90.113 E2.87183
G1 X151.733 Y90.636 E2.88923
G1 X151.732 Y91.707 E2.92485
G1 X151.721 Y92.449 E2.94953
G1 X151.667 Y93.385 E2.98072
G1 X151.591 Y93.979 E3.00063
G1 X151.479 Y94.692 E3.02464
G1 X151.205 Y96.296 E3.07876
G1 X150.854 Y98.773 E3.16197
G1 X150.572 Y101.265 E3.24538
G1 X150.359 Y103.778 E3.32927
G1 X150.219 Y106.291 E3.41298
G1 X150.148 Y108.811 E3.49683
G1 X150.15 Y111.347 E3.58117
G1 X150.221 Y113.825 E3.66363
G1 X150.366 Y116.354 E3.74788
G1 X150.58 Y118.86 E3.83153
G1 X150.865 Y121.354 E3.91502
G1 X151.227 Y123.885 E4.00006
G1 X151.542 Y125.738 E4.06258
G1 X151.628 Y126.346 E4.083
G1 X151.657 Y126.602 E4.09157
G1 X151.726 Y127.711 E4.12853
G1 X151.733 Y128.337 E4.14935
G1 X151.733 Y129.3 E4.18138
G1 X151.723 Y130.029 E4.20563
G1 X151.67 Y130.965 E4.23681
G1 X151.538 Y131.894 E4.26802
G1 X151.327 Y132.808 E4.29922
G1 X151.039 Y133.7 E4.33039
G1 X150.676 Y134.565 E4.36159
G1 X150.24 Y135.396 E4.39281
G1 X149.736 Y136.186 E4.42397
G1 X149.165 Y136.931 E4.45519
G1 X148.502 Y137.656 E4.48787
G1 X148.39 Y137.768 E4.49314
G1 X147.699 Y138.402 E4.52433
G1 X146.957 Y138.976 E4.55553
G1 X146.168 Y139.483 E4.58672
G1 X145.34 Y139.922 E4.61789
G1 X144.476 Y140.289 E4.64911
G1 X143.585 Y140.581 E4.6803
G1 X142.672 Y140.795 E4.71149
G1 X141.744 Y140.932 E4.74269
G1 X140.983 Y140.984 E4.76806
G1 X140.598 Y140.994 E4.78087
G1 X140.055 Y141 E4.79893
G1 X115.788 Y141 E5.60605
G1 X113.648 Y140.993 E5.67723
G1 X112.791 Y141 E5.70574
G1 X107.475 Y140.999 E5.88255
G1 X107.143 Y140.994 E5.89359
G1 X104.76 Y141 E5.97285
G1 X79.995 Y140.999 E6.79654
G1 X79.293 Y140.989 E6.81989
G1 X78.357 Y140.936 E6.85107
G1 X77.429 Y140.803 E6.88225
G1 X76.515 Y140.591 E6.91346
G1 X75.622 Y140.303 E6.94466
G1 X74.758 Y139.939 E6.97585
G1 X73.927 Y139.503 E7.00706
G1 X73.137 Y138.998 E7.03825
G1 X72.393 Y138.428 E7.06942
G1 X71.672 Y137.768 E7.10193
G1 X71.502 Y137.598 E7.10993
G1 X70.868 Y136.907 E7.14112
G1 X70.294 Y136.165 E7.17232
G1 X69.787 Y135.376 E7.20351
G1 X69.348 Y134.548 E7.23468
G1 X68.981 Y133.684 E7.2659
G1 X68.689 Y132.793 E7.29709
G1 X68.475 Y131.88 E7.32828
G1 X68.338 Y130.952 E7.35948
G1 X68.297 Y130.43 E7.37689
G1 X68.288 Y130.268 E7.38229
G1 X68.272 Y129.765 E7.39903
G1 X68.267 Y129.26 E7.41583
G1 X68.267 Y128.215 E7.45058
G1 X68.278 Y127.539 E7.47307
G1 X68.334 Y126.603 E7.50426
G1 X68.408 Y126.026 E7.5236
G1 X68.52 Y125.312 E7.54764
G1 X68.793 Y123.71 E7.60169
G1 X69.146 Y121.21 E7.68567
G1 X69.431 Y118.687 E7.77012
G1 X69.639 Y116.215 E7.85263
G1 X69.78 Y113.684 E7.93694
G1 X69.849 Y111.168 E8.02065
G1 X69.847 Y108.644 E8.1046
G1 X69.774 Y106.15 E8.18759
G1 X69.628 Y103.612 E8.27214
G1 X69.413 Y101.119 E8.35537
G1 X69.125 Y98.602 E8.43963
G1 X68.768 Y96.112 E8.52329
G1 X68.43 Y94.105 E8.59099
G1 X68.314 Y93.174 E8.62219
G1 X68.283 Y92.649 E8.63968
G1 X68.273 Y92.264 E8.65249
G1 X68.267 Y91.721 E8.67055
G1 X68.268 Y90.643 E8.70641
G1 X68.278 Y89.961 E8.72909
G1 X68.332 Y89.024 E8.76031
G1 X68.465 Y88.096 E8.79149
G1 X68.677 Y87.182 E8.8227
G1 X68.966 Y86.29 E8.85389
G1 X69.33 Y85.426 E8.88507
G1 X69.766 Y84.596 E8.91625
G1 X70.271 Y83.805 E8.94746
G1 X70.842 Y83.061 E8.97866
G1 X71.499 Y82.344 E9.011
G1 X71.611 Y82.232 E9.01627
G1 X72.302 Y81.598 E9.04746
G0 F6000 X72.572 Y81.893
G1 F1200 X73.302 Y81.332 E9.07808
G1 X74.078 Y80.836 E9.10871
G1 X74.894 Y80.41 E9.13933
G1 X75.744 Y80.056 E9.16996
G1 X76.622 Y79.778 E9.20059
G1 X77.52 Y79.576 E9.2312
G1 X78.433 Y79.453 E9.26184
G1 X79.031 Y79.416 E9.28177
G1 X79.407 Y79.406 E9.29428
G1 X79.946 Y79.4 E9.31221
G1 X104.282 Y79.4 E10.12163
G1 X106.248 Y79.407 E10.18702
G1 X107.223 Y79.4 E10.21945
G1 X112.519 Y79.401 E10.39559
G1 X112.852 Y79.406 E10.40667
G1 X115.241 Y79.4 E10.48613
G1 X140.06 Y79.401 E11.31161
G1 X140.762 Y79.411 E11.33496
G1 X141.681 Y79.464 E11.36558
G1 X142.592 Y79.597 E11.3962
G1 X143.488 Y79.808 E11.42682
G1 X144.363 Y80.096 E11.45745
G1 X145.209 Y80.459 E11.48807
G1 X146.02 Y80.894 E11.51868
G1 X146.791 Y81.398 E11.54932
G1 X147.515 Y81.966 E11.57993
G1 X148.106 Y82.515 E11.60675
G1 X148.218 Y82.627 E11.61202
G1 X148.84 Y83.305 E11.64263
G1 X149.401 Y84.035 E11.67325
G1 X149.897 Y84.811 E11.70388
G1 X150.323 Y85.627 E11.73449
G1 X150.677 Y86.477 E11.76512
G1 X150.955 Y87.355 E11.79575
G1 X151.157 Y88.253 E11.82636
G1 X151.28 Y89.166 E11.85701
G1 X151.316 Y89.735 E11.87597
G1 X151.327 Y90.118 E11.88871
G1 X151.333 Y90.636 E11.90594
G1 X151.332 Y91.701 E11.94136
G1 X151.321 Y92.443 E11.96605
G1 X151.267 Y93.362 E11.99666
G1 X151.196 Y93.918 E12.01531
G1 X151.11 Y94.47 E12.03389
G1 X150.814 Y96.204 E12.0924
G1 X150.458 Y98.712 E12.17665
G1 X150.17 Y101.257 E12.26184
G1 X149.96 Y103.749 E12.34501
G1 X149.819 Y106.258 E12.42859
G1 X149.748 Y108.799 E12.51314
G1 X149.75 Y111.317 E12.59689
G1 X149.822 Y113.854 E12.68131
G1 X149.969 Y116.415 E12.76663
G1 X150.181 Y118.898 E12.84951
G1 X150.465 Y121.38 E12.9326
G1 X150.83 Y123.936 E13.01848
G1 X151.148 Y125.805 E13.08153
G1 X151.231 Y126.391 E13.10122
G1 X151.26 Y126.647 E13.10979
G1 X151.326 Y127.716 E13.14541
G1 X151.333 Y128.338 E13.1661
G1 X151.333 Y129.294 E13.1979
G1 X151.323 Y130.023 E13.22214
G1 X151.27 Y130.943 E13.25279
G1 X151.138 Y131.854 E13.28341
G1 X150.928 Y132.75 E13.31402
G1 X150.64 Y133.624 E13.34463
G1 X150.277 Y134.471 E13.37528
G1 X149.843 Y135.282 E13.40587
G1 X149.339 Y136.053 E13.43651
G1 X148.771 Y136.778 E13.46714
G1 X148.219 Y137.373 E13.49413
G1 X148.107 Y137.485 E13.4994
G1 X147.429 Y138.107 E13.53
G1 X146.699 Y138.668 E13.56063
G1 X145.923 Y139.164 E13.59126
G1 X145.107 Y139.59 E13.62187
G1 X144.257 Y139.944 E13.6525
G1 X143.379 Y140.222 E13.68313
G1 X142.481 Y140.424 E13.71374
G1 X141.568 Y140.547 E13.74438
G1 X140.97 Y140.584 E13.76431
G1 X140.594 Y140.594 E13.77682
G1 X140.055 Y140.6 E13.79475
G1 X115.79 Y140.6 E14.60181
G1 X113.647 Y140.593 E14.67308
G1 X112.788 Y140.6 E14.70166
G1 X107.481 Y140.599 E14.87817
G1 X107.148 Y140.594 E14.88924
G1 X104.759 Y140.6 E14.9687
G1 X80.001 Y140.599 E15.79216
G1 X79.299 Y140.589 E15.81551
G1 X78.38 Y140.536 E15.84613
G1 X77.469 Y140.403 E15.87675
G1 X76.573 Y140.192 E15.90736
G1 X75.698 Y139.904 E15.938
G1 X74.852 Y139.541 E15.96862
G1 X74.041 Y139.106 E15.99923
G1 X73.27 Y138.602 E16.02987
G1 X72.546 Y138.034 E16.06047
G1 X71.955 Y137.485 E16.0873
G1 X71.785 Y137.315 E16.0953
G1 X71.163 Y136.637 E16.1259
G1 X70.602 Y135.907 E16.15652
G1 X70.106 Y135.131 E16.18715
G1 X69.68 Y134.315 E16.21777
G1 X69.326 Y133.465 E16.24839
G1 X69.048 Y132.587 E16.27903
G1 X68.846 Y131.689 E16.30964
G1 X68.696 Y130.408 E16.35254
G1 X68.687 Y130.246 E16.35793
G1 X68.672 Y129.761 E16.37407
G1 X68.667 Y129.259 E16.39077
G1 X68.667 Y128.222 E16.42526
G1 X68.678 Y127.546 E16.44775
G1 X68.733 Y126.627 E16.47837
G1 X68.803 Y126.088 E16.49645
G1 X68.915 Y125.379 E16.52032
G1 X69.186 Y123.79 E16.57393
G1 X69.546 Y121.24 E16.65959
G1 X69.826 Y118.756 E16.74273
G1 X70.041 Y116.202 E16.82798
G1 X70.18 Y113.71 E16.91099
G1 X70.249 Y111.179 E16.9952
G1 X70.247 Y108.632 E17.07991
G1 X70.174 Y106.151 E17.16247
G1 X70.027 Y103.591 E17.24776
G1 X69.811 Y101.085 E17.33141
G1 X69.52 Y98.532 E17.41688
G1 X69.166 Y96.068 E17.49967
G1 X68.824 Y94.038 E17.56814
G1 X68.711 Y93.124 E17.59877
G1 X68.683 Y92.636 E17.61503
G1 X68.673 Y92.26 E17.62754
G1 X68.667 Y91.721 E17.64547
G1 X68.668 Y90.649 E17.68112
G1 X68.678 Y89.967 E17.70381
G1 X68.732 Y89.047 E17.73446
G1 X68.865 Y88.137 E17.76505
G1 X69.076 Y87.24 E17.7957
G1 X69.365 Y86.366 E17.82632
G1 X69.728 Y85.52 E17.85693
G1 X70.163 Y84.709 E17.88754
G1 X70.667 Y83.939 E17.91815
G1 X71.236 Y83.215 E17.94878
G1 X71.782 Y82.627 E17.97547
G1 X71.894 Y82.515 E17.98074
G1 X72.572 Y81.893 E18.01134
G0 F6000 X72.843 Y82.188
G1 F1200 X73.56 Y81.639 E18.04137
G1 X74.324 Y81.157 E18.07142
G1 X75.127 Y80.743 E18.10147
G1 X75.963 Y80.403 E18.13148
G1 X76.826 Y80.137 E18.16152
G1 X77.709 Y79.949 E18.19155
G1 X79.045 Y79.816 E18.2362
G1 X79.412 Y79.806 E18.24841
G1 X79.946 Y79.8 E18.26618
G1 X104.281 Y79.8 E19.07556
G1 X106.249 Y79.807 E19.14102
G1 X107.225 Y79.8 E19.17348
G1 X112.513 Y79.801 E19.34936
G1 X112.847 Y79.806 E19.36047
G1 X115.242 Y79.8 E19.44013
G1 X140.054 Y79.801 E20.26538
G1 X140.756 Y79.811 E20.28873
G1 X141.658 Y79.864 E20.31878
G1 X142.551 Y79.996 E20.34881
G1 X143.429 Y80.207 E20.37884
G1 X144.285 Y80.495 E20.40888
G1 X145.113 Y80.857 E20.43893
G1 X145.905 Y81.291 E20.46897
G1 X146.655 Y81.794 E20.49901
G1 X147.358 Y82.36 E20.52903
G1 X147.823 Y82.798 E20.55027
G1 X147.935 Y82.91 E20.55554
G1 X148.545 Y83.576 E20.58558
G1 X149.094 Y84.293 E20.61562
G1 X149.576 Y85.057 E20.64566
G1 X149.99 Y85.86 E20.67571
G1 X150.33 Y86.696 E20.70573
G1 X150.596 Y87.559 E20.73576
G1 X150.784 Y88.442 E20.76579
G1 X150.916 Y89.75 E20.80951
G1 X150.927 Y90.124 E20.82196
G1 X150.933 Y90.636 E20.83899
G1 X150.932 Y91.695 E20.87421
G1 X150.921 Y92.437 E20.89889
G1 X150.868 Y93.339 E20.92895
G1 X150.8 Y93.856 E20.94629
G1 X150.69 Y94.557 E20.96989
G1 X150.416 Y96.157 E21.02388
G1 X150.059 Y98.678 E21.10857
G1 X149.776 Y101.178 E21.19225
G1 X149.562 Y103.714 E21.2769
G1 X149.419 Y106.261 E21.36174
G1 X149.348 Y108.787 E21.44579
G1 X149.35 Y111.324 E21.53017
G1 X149.422 Y113.865 E21.61472
G1 X149.567 Y116.398 E21.69911
G1 X149.783 Y118.931 E21.78366
G1 X150.071 Y121.45 E21.86799
G1 X150.438 Y124.019 E21.9543
G1 X150.753 Y125.872 E22.01682
G1 X150.833 Y126.436 E22.03576
G1 X150.862 Y126.692 E22.04433
G1 X150.926 Y127.72 E22.07859
G1 X150.933 Y128.338 E22.09914
G1 X150.933 Y129.289 E22.13077
G1 X150.923 Y130.018 E22.15502
G1 X150.871 Y130.919 E22.18504
G1 X150.739 Y131.813 E22.2151
G1 X150.528 Y132.691 E22.24513
G1 X150.241 Y133.547 E22.27516
G1 X149.879 Y134.375 E22.30522
G1 X149.446 Y135.167 E22.33524
G1 X148.944 Y135.918 E22.36528
G1 X148.377 Y136.621 E22.39532
G1 X147.936 Y137.09 E22.41673
G1 X147.824 Y137.202 E22.422
G1 X147.158 Y137.812 E22.45204
G1 X146.441 Y138.361 E22.48208
G1 X145.677 Y138.843 E22.51212
G1 X144.874 Y139.257 E22.54217
G1 X144.038 Y139.597 E22.57219
G1 X143.175 Y139.863 E22.60222
G1 X142.292 Y140.051 E22.63225
G1 X140.956 Y140.184 E22.67691
G1 X140.589 Y140.194 E22.68912
G1 X140.055 Y140.2 E22.70688
G1 X115.791 Y140.2 E23.5139
G1 X113.645 Y140.193 E23.58528
G1 X112.785 Y140.2 E23.61388
G1 X107.487 Y140.199 E23.7901
G1 X107.153 Y140.194 E23.80121
G1 X104.758 Y140.2 E23.88086
G1 X80.007 Y140.199 E24.70409
G1 X79.305 Y140.189 E24.72744
G1 X78.403 Y140.136 E24.75749
G1 X77.51 Y140.004 E24.78751
G1 X76.632 Y139.793 E24.81755
G1 X75.776 Y139.505 E24.84759
G1 X74.948 Y139.143 E24.87764
G1 X74.156 Y138.709 E24.90768
G1 X73.406 Y138.206 E24.93772
G1 X72.703 Y137.64 E24.96773
G1 X72.238 Y137.202 E24.98898
G1 X72.068 Y137.032 E24.99698
G1 X71.458 Y136.366 E25.02702
G1 X70.909 Y135.649 E25.05705
G1 X70.427 Y134.885 E25.0871
G1 X70.013 Y134.082 E25.11714
G1 X69.673 Y133.246 E25.14716
G1 X69.407 Y132.383 E25.1772
G1 X69.219 Y131.5 E25.20722
G1 X69.096 Y130.386 E25.2445
G1 X69.087 Y130.224 E25.2499
G1 X69.071 Y129.757 E25.26544
G1 X69.067 Y129.259 E25.282
G1 X69.067 Y128.228 E25.31629
G1 X69.078 Y127.552 E25.33878
G1 X69.133 Y126.651 E25.3688
G1 X69.198 Y126.149 E25.38564
G1 X69.309 Y125.446 E25.40931
G1 X69.581 Y123.847 E25.46326
G1 X69.941 Y121.304 E25.54868
G1 X70.226 Y118.775 E25.63333
G1 X70.438 Y116.257 E25.71738
G1 X70.58 Y113.714 E25.80209
G1 X70.649 Y111.189 E25.8861
G1 X70.647 Y108.655 E25.97038
G1 X70.572 Y106.081 E26.05603
G1 X70.427 Y103.567 E26.13979
G1 X70.21 Y101.046 E26.22394
G1 X69.919 Y98.502 E26.30911
G1 X69.558 Y95.984 E26.39372
G1 X69.219 Y93.972 E26.46158
G1 X69.108 Y93.075 E26.49164
G1 X69.083 Y92.622 E26.50673
G1 X69.073 Y92.255 E26.51894
G1 X69.067 Y91.721 E26.5367
G1 X69.068 Y90.654 E26.57219
G1 X69.078 Y89.972 E26.59488
G1 X69.131 Y89.071 E26.6249
G1 X69.264 Y88.178 E26.65492
G1 X69.475 Y87.3 E26.68496
G1 X69.763 Y86.444 E26.715
G1 X70.126 Y85.617 E26.74504
G1 X70.56 Y84.825 E26.77507
G1 X71.063 Y84.075 E26.80511
G1 X71.63 Y83.372 E26.83515
G1 X72.065 Y82.91 E26.85626
G1 X72.177 Y82.798 E26.86152
G1 X72.843 Y82.188 E26.89156
G1 F1500 E20.39156
G0 F6000 X106.729 Y97
G0 X107.195 Y97
G1 F1500 E26.89156
G1 F1200 X113.002 Y97 E27.0847
G1 X113.002 Y99.162 E27.15661
G1 X112.902 Y99.487 E27.16792
G1 X112.817 Y100.032 E27.18627
G1 X112.805 Y100.339 E27.19649
G1 X112.807 Y123 E27.95019
G1 X107.194 Y123 E28.13688
G1 X107.195 Y97 E29.00165
G0 F6000 X106.795 Y96.6
G1 F1200 X113.321 Y96.6 E29.2187
G1 X113.402 Y96.594 E29.2214
G1 X113.402 Y99.214 E29.30855
G1 X113.279 Y99.632 E29.32304
G1 X113.205 Y100.339 E29.34668
G1 X113.206 Y123.4 E30.11369
G1 X106.794 Y123.4 E30.32696
G1 X106.795 Y96.6 E31.21833
G0 F6000 X106.679 Y96.2
G1 F1200 X113.321 Y96.2 E31.43924
G1 X113.802 Y96.161 E31.45529
G1 X113.802 Y99.276 E31.5589
G1 X113.79 Y99.302 E31.55985
G1 X113.659 Y99.773 E31.57611
G1 X113.605 Y100.339 E31.59502
G1 X113.606 Y123.819 E32.37597
G1 X113.321 Y123.8 E32.38547
G1 X106.678 Y123.8 E32.60642
G1 X106.394 Y123.823 E32.61589
G1 X106.395 Y96.181 E33.53527
G1 X106.679 Y96.2 E33.54474
G0 F6000 X106.679 Y95.8
G1 F1200 X113.321 Y95.8 E33.76565
G1 X113.775 Y95.76 E33.78081
G1 X114.202 Y95.645 E33.79552
G1 X114.202 Y99.367 E33.91931
G1 X114.155 Y99.47 E33.92308
G1 X114.04 Y99.911 E33.93824
G1 X114.005 Y100.339 E33.95252
G1 X114.006 Y124.294 E34.74927
G1 X113.985 Y124.286 E34.75001
G1 X113.321 Y124.2 E34.77228
G1 X106.678 Y124.2 E34.99323
G1 X106.224 Y124.24 E35.00839
G1 X105.994 Y124.302 E35.01631
G1 X105.995 Y95.706 E35.96742
G1 X106.013 Y95.713 E35.96806
G1 X106.679 Y95.8 E35.9904
G0 F6000 X106.679 Y95.4
G1 F1200 X113.321 Y95.4 E36.21131
G1 X113.738 Y95.36 E36.22525
G1 X114.14 Y95.242 E36.23918
G1 X114.512 Y95.049 E36.25312
G1 X114.602 Y94.977 E36.25695
G1 X114.602 Y99.454 E36.40586
G1 X114.521 Y99.635 E36.41245
G1 X114.425 Y100.043 E36.42639
G1 X114.405 Y100.339 E36.43626
G1 X114.406 Y124.897 E37.25306
G1 X114.184 Y124.776 E37.26147
G1 X113.784 Y124.649 E37.27543
G1 X113.321 Y124.6 E37.29092
G1 X106.678 Y124.6 E37.51186
G1 X106.261 Y124.64 E37.5258
G1 X105.859 Y124.758 E37.53973
G1 X105.594 Y124.895 E37.54965
G1 X105.595 Y95.103 E38.54054
G1 X105.814 Y95.223 E38.54885
G1 X106.214 Y95.35 E38.56281
