;FLAVOR:Marlin
;TIME:24641
;Filament used: 13.8344m
;Layer height: 0.2
;MINX:84.739
;MINY:11.92
;MINZ:0.2
;MAXX:140.339
;MAXY:101.208
;MAXZ:87.8
;Generated with Cura_SteamEngine 4.9.0
M140 S60
M105
M190 S60
M104 S210
M105
M109 S210
M82 ;absolute extrusion mode
; Ender 3 Custom Start G-code
G92 E0 ; Reset Extruder
G28 ; Home all axes
G1 Z2.0 F3000 ; Move Z Axis up little to prevent scratching of Heat Bed
G1 X0.1 Y20 Z0.3 F5000.0 ; Move to start position
G1 X0.1 Y200.0 Z0.3 F1500.0 E15 ; Draw the first line
G1 X0.4 Y200.0 Z0.3 F5000.0 ; Move to side a little
G1 X0.4 Y20 Z0.3 F1500.0 E30 ; Draw the second line
G92 E0 ; Reset Extruder
G1 Z2.0 F3000 ; Move Z Axis up little to prevent scratching of Heat Bed
G1 X5 Y20 Z0.3 F5000.0 ; Move over to prevent blob squish
G92 E0
G92 E0
G1 F1500 E-6.5
;LAYER_COUNT:439
;LAYER:0
M107
G0 F6000 X85.096 Y23.608 Z0.2
;TYPE:SKIRT
G1 F1500 E0
G1 F1200 X85.37 Y22.868 E0.02625
G1 X85.718 Y22.159 E0.05251
G1 X86.136 Y21.488 E0.07881
G1 X86.619 Y20.864 E0.10505
G1 X87.024 Y20.427 E0.12487
G1 X87.141 Y20.31 E0.13037
G1 X87.727 Y19.78 E0.15665
G1 X88.363 Y19.313 E0.1829
G1 X89.043 Y18.912 E0.20915
G1 X89.761 Y18.582 E0.23544
G1 X90.508 Y18.327 E0.26169
G1 X91.277 Y18.148 E0.28795
G1 X92.061 Y18.048 E0.31424
G1 X92.656 Y18.025 E0.33404
G1 X94.822 Y18.025 E0.40608
G1 X95.611 Y18.065 E0.43236
G1 X96.391 Y18.184 E0.4586
G1 X97.156 Y18.382 E0.48488
G1 X97.896 Y18.656 E0.51113
G1 X98.605 Y19.004 E0.5374
G1 X99.276 Y19.422 E0.56369
G1 X99.9 Y19.905 E0.58994
G1 X100.337 Y20.31 E0.60975
G1 X100.454 Y20.427 E0.61526
G1 X100.984 Y21.013 E0.64154
G1 X101.451 Y21.649 E0.66778
G1 X101.852 Y22.329 E0.69404
G1 X102.182 Y23.047 E0.72032
G1 X102.437 Y23.794 E0.74657
G1 X102.616 Y24.563 E0.77283
G1 X102.716 Y25.347 E0.79912
G1 X102.739 Y25.942 E0.81893
G1 X102.739 Y41.967 E1.35192
G1 X103.32 Y41.996 E1.37127
G1 X104.1 Y42.115 E1.39751
G1 X104.247 Y42.153 E1.40256
G1 X122.339 Y42.152 E2.0043
G1 X122.339 Y26.003 E2.54142
G1 X122.379 Y25.214 E2.5677
G1 X122.498 Y24.434 E2.59394
G1 X122.696 Y23.669 E2.62022
G1 X122.97 Y22.929 E2.64647
G1 X123.318 Y22.22 E2.67274
G1 X123.736 Y21.549 E2.69903
G1 X124.219 Y20.925 E2.72528
G1 X124.624 Y20.488 E2.74509
G1 X124.802 Y20.31 E2.75347
G1 X125.388 Y19.78 E2.77974
G1 X126.024 Y19.313 E2.80599
G1 X126.704 Y18.912 E2.83224
G1 X127.422 Y18.582 E2.85853
G1 X128.169 Y18.327 E2.88478
G1 X128.938 Y18.148 E2.91104
G1 X129.722 Y18.048 E2.93733
G1 X130.313 Y18.025 E2.957
G1 X132.418 Y18.024 E3.02701
G1 X133.207 Y18.064 E3.05329
G1 X133.988 Y18.183 E3.07956
G1 X134.752 Y18.38 E3.10581
G1 X135.493 Y18.654 E3.13208
G1 X136.202 Y19.001 E3.15834
G1 X136.873 Y19.418 E3.18461
G1 X137.498 Y19.901 E3.21088
G1 X137.937 Y20.309 E3.23082
G1 X138.054 Y20.426 E3.23632
G1 X138.584 Y21.012 E3.2626
G1 X139.051 Y21.648 E3.28884
G1 X139.452 Y22.328 E3.3151
G1 X139.782 Y23.046 E3.34138
G1 X140.037 Y23.793 E3.36764
G1 X140.216 Y24.562 E3.3939
G1 X140.316 Y25.346 E3.42018
G1 X140.339 Y25.941 E3.43999
G1 X140.339 Y51.482 E4.28949
G1 X140.299 Y52.271 E4.31576
G1 X140.26 Y52.53 E4.32447
G1 X140.316 Y52.972 E4.33929
G1 X140.339 Y53.567 E4.3591
G1 X140.339 Y59.548 E4.55803
G1 X140.299 Y60.337 E4.5843
G1 X140.275 Y60.638 E4.59434
G1 X140.339 Y61.633 E4.62751
G1 X140.339 Y87.113 E5.47498
G1 X140.299 Y87.902 E5.50125
G1 X140.18 Y88.682 E5.52749
G1 X139.982 Y89.447 E5.55378
G1 X139.708 Y90.187 E5.58002
G1 X139.36 Y90.896 E5.60629
G1 X138.942 Y91.567 E5.63259
G1 X138.459 Y92.191 E5.65883
G1 X138.054 Y92.628 E5.67865
G1 X137.876 Y92.806 E5.68702
G1 X137.29 Y93.336 E5.7133
G1 X136.654 Y93.803 E5.73954
G1 X135.974 Y94.204 E5.7658
G1 X135.256 Y94.534 E5.79208
G1 X134.509 Y94.789 E5.81833
G1 X133.74 Y94.968 E5.8446
G1 X132.956 Y95.068 E5.87088
G1 X132.365 Y95.091 E5.89055
G1 X130.26 Y95.092 E5.96057
G1 X129.471 Y95.052 E5.98684
G1 X128.69 Y94.933 E6.01312
G1 X127.926 Y94.736 E6.03936
G1 X127.185 Y94.462 E6.06564
G1 X126.476 Y94.115 E6.09189
G1 X125.805 Y93.698 E6.11817
G1 X125.18 Y93.215 E6.14444
G1 X124.741 Y92.807 E6.16437
G1 X124.624 Y92.69 E6.16988
G1 X124.094 Y92.104 E6.19616
G1 X123.627 Y91.468 E6.2224
G1 X123.226 Y90.788 E6.24866
G1 X122.896 Y90.07 E6.27494
G1 X122.641 Y89.323 E6.30119
G1 X122.462 Y88.554 E6.32745
G1 X122.362 Y87.77 E6.35374
G1 X122.339 Y87.175 E6.37354
G1 X122.339 Y70.964 E6.91272
G1 X102.739 Y70.963 E7.56462
G1 X102.739 Y87.174 E8.1038
G1 X102.699 Y87.963 E8.13008
G1 X102.58 Y88.743 E8.15632
G1 X102.382 Y89.508 E8.1826
G1 X102.108 Y90.248 E8.20885
G1 X101.76 Y90.957 E8.23512
G1 X101.342 Y91.628 E8.26141
G1 X100.859 Y92.252 E8.28766
G1 X100.454 Y92.689 E8.30747
G1 X100.337 Y92.806 E8.31298
G1 X99.751 Y93.336 E8.33926
G1 X99.115 Y93.803 E8.3655
G1 X98.435 Y94.204 E8.39176
G1 X97.717 Y94.534 E8.41804
G1 X96.97 Y94.789 E8.44429
G1 X96.201 Y94.968 E8.47055
G1 X95.417 Y95.068 E8.49684
G1 X94.822 Y95.091 E8.51665
G1 X92.656 Y95.091 E8.58869
G1 X91.867 Y95.051 E8.61496
G1 X91.087 Y94.932 E8.64121
G1 X90.322 Y94.734 E8.66749
G1 X89.582 Y94.46 E8.69373
G1 X88.873 Y94.112 E8.72
G1 X88.202 Y93.694 E8.7463
G1 X87.578 Y93.211 E8.77254
G1 X87.141 Y92.806 E8.79236
G1 X87.024 Y92.689 E8.79786
G1 X86.494 Y92.103 E8.82414
G1 X86.027 Y91.467 E8.85039
G1 X85.626 Y90.787 E8.87664
G1 X85.296 Y90.069 E8.90292
G1 X85.041 Y89.322 E8.92918
G1 X84.862 Y88.553 E8.95544
G1 X84.762 Y87.769 E8.98173
G1 X84.739 Y87.174 E9.00153
G1 X84.739 Y61.633 E9.85103
G1 X84.779 Y60.844 E9.8773
G1 X84.818 Y60.585 E9.88601
G1 X84.762 Y60.143 E9.90083
G1 X84.739 Y59.548 E9.92064
G1 X84.739 Y53.568 E10.11953
G1 X84.779 Y52.779 E10.14581
G1 X84.803 Y52.478 E10.15585
G1 X84.739 Y51.483 E10.18901
G1 X84.739 Y25.942 E11.03851
G1 X84.779 Y25.153 E11.06479
G1 X84.898 Y24.373 E11.09103
G1 X85.096 Y23.608 E11.11731
G0 F6000 X85.496 Y23.671
G1 F1200 X85.77 Y22.952 E11.1429
G1 X86.117 Y22.266 E11.16847
G1 X86.533 Y21.619 E11.19406
G1 X87.014 Y21.019 E11.21963
G1 X87.306 Y20.709 E11.2338
G1 X87.423 Y20.592 E11.2393
G1 X87.995 Y20.078 E11.26488
G1 X88.617 Y19.625 E11.29047
G1 X89.282 Y19.239 E11.31605
G1 X89.984 Y18.924 E11.34164
G1 X90.715 Y18.684 E11.36723
G1 X91.466 Y18.521 E11.39279
G1 X92.231 Y18.437 E11.41839
G1 X92.656 Y18.425 E11.43253
G1 X94.822 Y18.425 E11.50457
G1 X95.59 Y18.465 E11.53015
G1 X96.35 Y18.584 E11.55573
G1 X97.093 Y18.782 E11.58131
G1 X97.812 Y19.056 E11.6069
G1 X98.498 Y19.403 E11.63247
G1 X99.145 Y19.819 E11.65805
G1 X99.745 Y20.3 E11.68363
G1 X100.055 Y20.592 E11.69779
G1 X100.172 Y20.709 E11.7033
G1 X100.686 Y21.281 E11.72887
G1 X101.139 Y21.903 E11.75447
G1 X101.525 Y22.568 E11.78004
G1 X101.84 Y23.27 E11.80563
G1 X102.08 Y24.001 E11.83122
G1 X102.243 Y24.752 E11.85678
G1 X102.327 Y25.517 E11.88238
G1 X102.339 Y25.942 E11.89652
G1 X102.339 Y42.356 E12.44245
G1 X102.531 Y42.356 E12.44884
G1 X103.299 Y42.396 E12.47442
G1 X104.059 Y42.515 E12.5
G1 X104.201 Y42.553 E12.50489
G1 X122.739 Y42.552 E13.12147
G1 X122.739 Y26.003 E13.67189
G1 X122.779 Y25.235 E13.69747
G1 X122.898 Y24.475 E13.72305
G1 X123.096 Y23.732 E13.74863
G1 X123.37 Y23.013 E13.77422
G1 X123.717 Y22.327 E13.79979
G1 X124.133 Y21.68 E13.82537
G1 X124.614 Y21.08 E13.85095
G1 X124.906 Y20.77 E13.86511
G1 X125.084 Y20.592 E13.87349
G1 X125.656 Y20.078 E13.89906
G1 X126.278 Y19.625 E13.92466
G1 X126.943 Y19.239 E13.95023
G1 X127.645 Y18.924 E13.97582
G1 X128.376 Y18.684 E14.00141
G1 X129.127 Y18.521 E14.02697
G1 X129.892 Y18.437 E14.05257
G1 X130.313 Y18.425 E14.06658
G1 X132.418 Y18.424 E14.13659
G1 X133.187 Y18.464 E14.1622
G1 X133.946 Y18.583 E14.18775
G1 X134.69 Y18.78 E14.21335
G1 X135.409 Y19.054 E14.23894
G1 X136.095 Y19.4 E14.2645
G1 X136.742 Y19.816 E14.29008
G1 X137.343 Y20.297 E14.31569
G1 X137.655 Y20.591 E14.32994
G1 X137.772 Y20.708 E14.33545
G1 X138.286 Y21.28 E14.36102
G1 X138.739 Y21.902 E14.38662
G1 X139.125 Y22.567 E14.41219
G1 X139.44 Y23.269 E14.43778
G1 X139.68 Y24 E14.46337
G1 X139.843 Y24.751 E14.48893
G1 X139.927 Y25.516 E14.51453
G1 X139.939 Y25.941 E14.52867
G1 X139.939 Y51.482 E15.37817
G1 X139.899 Y52.25 E15.40375
G1 X139.858 Y52.513 E15.4126
G1 X139.927 Y53.142 E15.43365
G1 X139.939 Y53.567 E15.44779
G1 X139.939 Y59.548 E15.64672
G1 X139.899 Y60.316 E15.67229
G1 X139.856 Y60.588 E15.68145
G1 X139.922 Y61.127 E15.69951
G1 X139.939 Y61.633 E15.71635
G1 X139.939 Y87.113 E16.56382
G1 X139.899 Y87.881 E16.5894
G1 X139.78 Y88.641 E16.61499
G1 X139.582 Y89.384 E16.64056
G1 X139.308 Y90.103 E16.66615
G1 X138.961 Y90.789 E16.69172
G1 X138.545 Y91.436 E16.71731
G1 X138.064 Y92.036 E16.74288
G1 X137.772 Y92.346 E16.75705
G1 X137.594 Y92.524 E16.76542
G1 X137.022 Y93.038 E16.791
G1 X136.4 Y93.491 E16.81659
G1 X135.735 Y93.877 E16.84216
G1 X135.033 Y94.192 E16.86776
G1 X134.302 Y94.432 E16.89335
G1 X133.551 Y94.595 E16.91891
G1 X132.786 Y94.679 E16.9445
G1 X132.365 Y94.691 E16.95851
G1 X130.26 Y94.692 E17.02852
G1 X129.491 Y94.652 E17.05413
G1 X128.732 Y94.533 E17.07969
G1 X127.988 Y94.336 E17.10529
G1 X127.269 Y94.062 E17.13088
G1 X126.583 Y93.716 E17.15643
G1 X125.936 Y93.3 E17.18202
G1 X125.335 Y92.819 E17.20762
G1 X125.023 Y92.525 E17.22188
G1 X124.906 Y92.408 E17.22738
G1 X124.392 Y91.836 E17.25296
G1 X123.939 Y91.214 E17.27855
G1 X123.553 Y90.549 E17.30412
G1 X123.238 Y89.847 E17.32972
G1 X122.998 Y89.116 E17.35531
G1 X122.835 Y88.365 E17.38087
G1 X122.751 Y87.6 E17.40646
G1 X122.739 Y87.175 E17.4206
G1 X122.739 Y70.564 E17.97309
G1 X102.339 Y70.563 E18.6516
G1 X102.339 Y87.174 E19.20408
G1 X102.299 Y87.942 E19.22966
G1 X102.18 Y88.702 E19.25524
G1 X101.982 Y89.445 E19.28082
G1 X101.708 Y90.164 E19.30641
G1 X101.361 Y90.85 E19.33198
G1 X100.945 Y91.497 E19.35756
G1 X100.464 Y92.097 E19.38314
G1 X100.172 Y92.407 E19.3973
G1 X100.055 Y92.524 E19.40281
G1 X99.483 Y93.038 E19.42838
G1 X98.861 Y93.491 E19.45398
G1 X98.196 Y93.877 E19.47955
G1 X97.494 Y94.192 E19.50514
G1 X96.763 Y94.432 E19.53073
G1 X96.012 Y94.595 E19.55629
G1 X95.247 Y94.679 E19.58189
G1 X94.822 Y94.691 E19.59603
G1 X92.656 Y94.691 E19.66807
G1 X91.888 Y94.651 E19.69365
G1 X91.128 Y94.532 E19.71924
G1 X90.385 Y94.334 E19.74481
G1 X89.666 Y94.06 E19.7704
G1 X88.98 Y93.713 E19.79597
G1 X88.333 Y93.297 E19.82156
G1 X87.733 Y92.816 E19.84713
G1 X87.423 Y92.524 E19.8613
G1 X87.306 Y92.407 E19.8668
G1 X86.792 Y91.835 E19.89238
G1 X86.339 Y91.213 E19.91797
G1 X85.953 Y90.548 E19.94355
G1 X85.638 Y89.846 E19.96914
G1 X85.398 Y89.115 E19.99473
G1 X85.235 Y88.364 E20.02029
G1 X85.151 Y87.599 E20.04588
G1 X85.139 Y87.174 E20.06002
G1 X85.139 Y61.633 E20.90952
G1 X85.179 Y60.865 E20.9351
G1 X85.22 Y60.602 E20.94395
G1 X85.151 Y59.973 E20.965
G1 X85.139 Y59.548 E20.97914
G1 X85.139 Y53.568 E21.17804
G1 X85.179 Y52.8 E21.20361
G1 X85.222 Y52.528 E21.21277
G1 X85.156 Y51.989 E21.23084
G1 X85.139 Y51.483 E21.24767
G1 X85.139 Y25.942 E22.09717
G1 X85.179 Y25.174 E22.12275
G1 X85.298 Y24.414 E22.14834
G1 X85.496 Y23.671 E22.17391
G0 F6000 X85.896 Y23.735
G1 F1200 X86.169 Y23.039 E22.19878
G1 X86.516 Y22.376 E22.22367
G1 X86.931 Y21.753 E22.24856
G1 X87.589 Y20.992 E22.28202
G1 X87.706 Y20.875 E22.28753
G1 X88.263 Y20.375 E22.31242
G1 X88.869 Y19.938 E22.33727
G1 X89.519 Y19.567 E22.36216
G1 X90.205 Y19.268 E22.38705
G1 X90.919 Y19.044 E22.41194
G1 X91.652 Y18.897 E22.43681
G1 X92.656 Y18.825 E22.47029
G1 X94.822 Y18.825 E22.54233
G1 X95.569 Y18.865 E22.56721
G1 X96.307 Y18.984 E22.59207
G1 X97.029 Y19.182 E22.61697
G1 X97.725 Y19.455 E22.64184
G1 X98.388 Y19.802 E22.66673
G1 X99.011 Y20.217 E22.69163
G1 X99.772 Y20.875 E22.72509
G1 X99.889 Y20.992 E22.73059
G1 X100.389 Y21.549 E22.75548
G1 X100.826 Y22.155 E22.78033
G1 X101.197 Y22.805 E22.80523
G1 X101.496 Y23.491 E22.83012
G1 X101.72 Y24.205 E22.85501
G1 X101.867 Y24.938 E22.87987
G1 X101.939 Y25.942 E22.91335
G1 X101.939 Y42.756 E23.47259
G1 X102.531 Y42.756 E23.49228
G1 X103.278 Y42.796 E23.51716
G1 X104.016 Y42.915 E23.54202
G1 X104.154 Y42.953 E23.54678
G1 X123.139 Y42.952 E24.17822
G1 X123.139 Y26.003 E24.74195
G1 X123.179 Y25.256 E24.76683
G1 X123.298 Y24.518 E24.79169
G1 X123.496 Y23.796 E24.81659
G1 X123.769 Y23.1 E24.84146
G1 X124.116 Y22.437 E24.86635
G1 X124.531 Y21.814 E24.89125
G1 X125.189 Y21.053 E24.92471
G1 X125.367 Y20.875 E24.93308
G1 X125.924 Y20.375 E24.95797
G1 X126.53 Y19.938 E24.98282
G1 X127.18 Y19.567 E25.00772
G1 X127.866 Y19.268 E25.03261
G1 X128.58 Y19.044 E25.0575
G1 X129.313 Y18.897 E25.08236
G1 X130.314 Y18.825 E25.11574
G1 X132.419 Y18.824 E25.18575
G1 X133.166 Y18.864 E25.21063
G1 X133.904 Y18.983 E25.2355
G1 X134.626 Y19.18 E25.26039
G1 X135.322 Y19.453 E25.28525
G1 X135.986 Y19.799 E25.31016
G1 X136.608 Y20.214 E25.33503
G1 X137.372 Y20.874 E25.36861
G1 X137.489 Y20.991 E25.37411
G1 X137.989 Y21.548 E25.39901
G1 X138.426 Y22.154 E25.42386
G1 X138.797 Y22.804 E25.44875
G1 X139.096 Y23.49 E25.47364
G1 X139.32 Y24.204 E25.49853
G1 X139.467 Y24.937 E25.52339
G1 X139.539 Y25.941 E25.55687
G1 X139.539 Y51.482 E26.40637
G1 X139.499 Y52.229 E26.43125
G1 X139.455 Y52.503 E26.44048
G1 X139.467 Y52.563 E26.44251
G1 X139.539 Y53.567 E26.47599
G1 X139.539 Y59.548 E26.67492
G1 X139.499 Y60.295 E26.6998
G1 X139.452 Y60.589 E26.70971
G1 X139.496 Y60.858 E26.71877
G1 X139.539 Y61.633 E26.74459
G1 X139.539 Y87.113 E27.59206
G1 X139.499 Y87.86 E27.61694
G1 X139.38 Y88.598 E27.6418
G1 X139.182 Y89.32 E27.6667
G1 X138.909 Y90.016 E27.69157
G1 X138.562 Y90.679 E27.71646
G1 X138.147 Y91.302 E27.74135
G1 X137.489 Y92.063 E27.77481
G1 X137.311 Y92.241 E27.78319
G1 X136.754 Y92.741 E27.80808
G1 X136.148 Y93.178 E27.83293
G1 X135.498 Y93.549 E27.85782
G1 X134.812 Y93.848 E27.88271
G1 X134.098 Y94.072 E27.9076
G1 X133.365 Y94.219 E27.93247
G1 X132.364 Y94.291 E27.96585
G1 X130.259 Y94.292 E28.03586
G1 X129.512 Y94.252 E28.06074
G1 X128.774 Y94.133 E28.0856
G1 X128.052 Y93.936 E28.11049
G1 X127.356 Y93.663 E28.13536
G1 X126.692 Y93.317 E28.16026
G1 X126.07 Y92.902 E28.18513
G1 X125.306 Y92.242 E28.21871
G1 X125.189 Y92.125 E28.22422
G1 X124.689 Y91.568 E28.24911
G1 X124.252 Y90.962 E28.27396
G1 X123.881 Y90.312 E28.29885
G1 X123.582 Y89.626 E28.32374
G1 X123.358 Y88.912 E28.34863
G1 X123.211 Y88.179 E28.3735
G1 X123.139 Y87.175 E28.40698
G1 X123.139 Y70.164 E28.97276
G1 X101.939 Y70.163 E29.67788
G1 X101.939 Y87.174 E30.24367
G1 X101.899 Y87.921 E30.26855
G1 X101.78 Y88.659 E30.29341
G1 X101.582 Y89.381 E30.31831
G1 X101.309 Y90.077 E30.34318
G1 X100.962 Y90.74 E30.36807
G1 X100.547 Y91.363 E30.39297
G1 X99.889 Y92.124 E30.42643
G1 X99.772 Y92.241 E30.43193
G1 X99.215 Y92.741 E30.45682
G1 X98.609 Y93.178 E30.48167
G1 X97.959 Y93.549 E30.50657
G1 X97.273 Y93.848 E30.53146
G1 X96.559 Y94.072 E30.55634
G1 X95.826 Y94.219 E30.58121
G1 X94.822 Y94.291 E30.61469
G1 X92.656 Y94.291 E30.68673
G1 X91.909 Y94.251 E30.71161
G1 X91.171 Y94.132 E30.73647
G1 X90.449 Y93.934 E30.76137
G1 X89.753 Y93.661 E30.78624
G1 X89.09 Y93.314 E30.81113
G1 X88.467 Y92.899 E30.83603
G1 X87.706 Y92.241 E30.86949
G1 X87.589 Y92.124 E30.87499
G1 X87.089 Y91.567 E30.89989
G1 X86.652 Y90.961 E30.92474
G1 X86.281 Y90.311 E30.94963
G1 X85.982 Y89.625 E30.97452
G1 X85.758 Y88.911 E30.99941
G1 X85.611 Y88.178 E31.02427
G1 X85.539 Y87.174 E31.05775
G1 X85.539 Y61.633 E31.90725
G1 X85.579 Y60.886 E31.93213
G1 X85.623 Y60.612 E31.94136
G1 X85.611 Y60.552 E31.94339
G1 X85.539 Y59.548 E31.97687
G1 X85.539 Y53.568 E32.17577
G1 X85.579 Y52.821 E32.20065
G1 X85.626 Y52.527 E32.21055
G1 X85.582 Y52.258 E32.21962
G1 X85.539 Y51.483 E32.24543
G1 X85.539 Y25.942 E33.09493
G1 X85.579 Y25.195 E33.11981
G1 X85.698 Y24.457 E33.14468
G1 X85.896 Y23.735 E33.16958
G0 F6000 X86.296 Y23.801
G1 F1200 X86.569 Y23.128 E33.19373
G1 X86.914 Y22.489 E33.21789
G1 X87.328 Y21.892 E33.24205
G1 X87.872 Y21.275 E33.26941
G1 X87.989 Y21.158 E33.27491
G1 X88.53 Y20.674 E33.29905
G1 X89.121 Y20.251 E33.32323
G1 X89.755 Y19.897 E33.34738
G1 X90.424 Y19.614 E33.37154
G1 X91.12 Y19.406 E33.3957
G1 X91.835 Y19.276 E33.41987
G1 X92.656 Y19.225 E33.44723
G1 X94.822 Y19.225 E33.51927
G1 X95.547 Y19.265 E33.54342
G1 X96.264 Y19.384 E33.56759
G1 X96.963 Y19.582 E33.59176
G1 X97.636 Y19.855 E33.61591
G1 X98.275 Y20.2 E33.64007
G1 X98.872 Y20.614 E33.66423
G1 X99.489 Y21.158 E33.69159
