;FLAVOR:Marlin
;TIME:22046
;Filament used: 12.4313m
;Layer height: 0.2
;MINX:68.36
;MINY:79
;MINZ:0.2
;MAXX:150.799
;MAXY:141
;MAXZ:81.8
;Generated with Cura_SteamEngine 4.9.0
M140 S60
M105
M190 S60
M104 S200
M105
M109 S200
M82 ;absolute extrusion mode
; Ender 3 Custom Start G-code
G92 E0 ; Reset Extruder
G28 ; Home all axes
G1 Z2.0 F3000 ; Move Z Axis up little to prevent scratching of Heat Bed
G1 X0.1 Y20 Z0.3 F5000.0 ; Move to start position
G1 X0.1 Y200.0 Z0.3 F1500.0 E15 ; Draw the first line
G1 X0.4 Y200.0 Z0.3 F5000.0 ; Move to side a little
G1 X0.4 Y20 Z0.3 F1500.0 E30 ; Draw the second line
G92 E0 ; Reset Extruder
G1 Z2.0 F3000 ; Move Z Axis up little to prevent scratching of Heat Bed
G1 X5 Y20 Z0.3 F5000.0 ; Move over to prevent blob squish
G92 E0
G92 E0
G1 F1500 E-6.5
;LAYER_COUNT:409
;LAYER:0
M107
G0 F6000 X74.346 Y81.598 Z0.2
;TYPE:SKIRT
G1 F1500 E0
G1 F1200 X75.088 Y81.024 E0.0312
G1 X75.877 Y80.517 E0.06239
G1 X76.705 Y80.078 E0.09357
G1 X77.569 Y79.711 E0.12479
G1 X78.46 Y79.419 E0.15597
G1 X79.373 Y79.205 E0.18716
G1 X80.301 Y79.068 E0.21836
G1 X81.062 Y79.016 E0.24373
G1 X81.447 Y79.006 E0.25654
G1 X81.99 Y79 E0.2746
G1 X104.663 Y79 E1.02871
G1 X106.388 Y79.006 E1.08608
G1 X107.191 Y79 E1.11279
G1 X112.506 Y79.001 E1.28957
G1 X112.782 Y79.005 E1.29875
G1 X115.36 Y79 E1.3845
G1 X138.022 Y79.001 E2.13824
G1 X138.724 Y79.011 E2.16159
G1 X139.66 Y79.064 E2.19277
G1 X140.588 Y79.197 E2.22395
G1 X141.502 Y79.409 E2.25516
G1 X142.395 Y79.697 E2.28636
G1 X143.259 Y80.061 E2.31755
G1 X144.09 Y80.497 E2.34876
G1 X144.88 Y81.002 E2.37995
G1 X145.624 Y81.572 E2.41112
G1 X146.345 Y82.232 E2.44363
G1 X146.457 Y82.344 E2.4489
G1 X147.091 Y83.035 E2.48009
G1 X147.665 Y83.777 E2.51129
G1 X148.172 Y84.566 E2.54248
G1 X148.611 Y85.394 E2.57365
G1 X148.978 Y86.258 E2.60488
G1 X149.27 Y87.149 E2.63606
G1 X149.484 Y88.062 E2.66725
G1 X149.621 Y88.99 E2.69845
G1 X149.672 Y89.721 E2.72282
G1 X149.683 Y90.113 E2.73587
G1 X149.689 Y90.636 E2.75326
G1 X149.688 Y91.707 E2.78888
G1 X149.677 Y92.449 E2.81357
G1 X149.623 Y93.385 E2.84475
G1 X149.547 Y93.979 E2.86467
G1 X149.435 Y94.692 E2.88867
G1 X149.161 Y96.296 E2.94279
G1 X148.81 Y98.773 E3.026
G1 X148.528 Y101.265 E3.10941
G1 X148.315 Y103.778 E3.1933
G1 X148.175 Y106.291 E3.27701
G1 X148.104 Y108.811 E3.36086
G1 X148.106 Y111.347 E3.44521
G1 X148.177 Y113.825 E3.52766
G1 X148.322 Y116.354 E3.61191
G1 X148.536 Y118.86 E3.69556
G1 X148.821 Y121.354 E3.77906
G1 X149.183 Y123.885 E3.86409
G1 X149.498 Y125.738 E3.92661
G1 X149.584 Y126.346 E3.94703
G1 X149.613 Y126.602 E3.9556
G1 X149.682 Y127.711 E3.99256
G1 X149.689 Y128.337 E4.01338
G1 X149.689 Y129.297 E4.04531
G1 X149.679 Y130.028 E4.06963
G1 X149.626 Y130.965 E4.10084
G1 X149.494 Y131.893 E4.13202
G1 X149.283 Y132.807 E4.16322
G1 X148.995 Y133.7 E4.19442
G1 X148.632 Y134.564 E4.22559
G1 X148.196 Y135.395 E4.25681
G1 X147.692 Y136.186 E4.288
G1 X147.122 Y136.93 E4.31917
G1 X146.458 Y137.656 E4.3519
G1 X146.346 Y137.768 E4.35717
G1 X145.655 Y138.402 E4.38836
G1 X144.913 Y138.976 E4.41956
G1 X144.124 Y139.483 E4.45075
G1 X143.296 Y139.922 E4.48192
G1 X142.432 Y140.289 E4.51314
G1 X141.541 Y140.581 E4.54433
G1 X140.628 Y140.795 E4.57552
G1 X139.7 Y140.932 E4.60672
G1 X138.939 Y140.984 E4.63209
G1 X138.554 Y140.994 E4.6449
G1 X138.011 Y141 E4.66296
G1 X115.42 Y141 E5.41434
G1 X113.5 Y140.993 E5.4782
G1 X112.674 Y141 E5.50567
G1 X107.494 Y140.999 E5.67796
G1 X107.218 Y140.995 E5.68714
G1 X104.641 Y141 E5.77285
G1 X82.035 Y140.999 E6.52473
G1 X81.333 Y140.989 E6.54808
G1 X80.397 Y140.936 E6.57926
G1 X79.469 Y140.803 E6.61044
G1 X78.555 Y140.591 E6.64165
G1 X77.662 Y140.303 E6.67286
G1 X76.798 Y139.939 E6.70404
G1 X75.967 Y139.503 E6.73525
G1 X75.177 Y138.998 E6.76644
G1 X74.433 Y138.428 E6.79761
G1 X73.735 Y137.791 E6.82904
G1 X73.566 Y137.623 E6.83697
G1 X72.93 Y136.934 E6.86815
G1 X72.354 Y136.194 E6.89934
G1 X71.844 Y135.407 E6.93054
G1 X71.403 Y134.579 E6.96174
G1 X71.034 Y133.717 E6.99292
G1 X70.739 Y132.826 E7.02414
G1 X70.522 Y131.914 E7.05532
G1 X70.383 Y130.987 E7.0865
G1 X70.328 Y130.224 E7.11194
G1 X70.322 Y130.06 E7.1174
G1 X70.316 Y129.766 E7.12718
G1 X70.311 Y129.262 E7.14394
G1 X70.311 Y128.231 E7.17824
G1 X70.321 Y127.561 E7.20052
G1 X70.375 Y126.625 E7.23171
G1 X70.451 Y126.035 E7.25149
G1 X70.564 Y125.312 E7.27583
G1 X70.837 Y123.71 E7.32988
G1 X71.19 Y121.21 E7.41386
G1 X71.475 Y118.687 E7.49831
G1 X71.683 Y116.215 E7.58081
G1 X71.824 Y113.684 E7.66513
G1 X71.893 Y111.168 E7.74884
G1 X71.891 Y108.644 E7.83279
G1 X71.818 Y106.15 E7.91578
G1 X71.672 Y103.612 E8.00033
G1 X71.457 Y101.119 E8.08355
G1 X71.169 Y98.602 E8.16782
G1 X70.812 Y96.112 E8.25148
G1 X70.474 Y94.105 E8.31917
G1 X70.358 Y93.174 E8.35038
G1 X70.327 Y92.649 E8.36787
G1 X70.317 Y92.264 E8.38068
G1 X70.311 Y91.721 E8.39874
G1 X70.312 Y90.643 E8.4346
G1 X70.322 Y89.961 E8.45728
G1 X70.376 Y89.024 E8.4885
G1 X70.509 Y88.096 E8.51968
G1 X70.721 Y87.182 E8.55089
G1 X71.01 Y86.29 E8.58207
G1 X71.374 Y85.426 E8.61326
G1 X71.81 Y84.596 E8.64444
G1 X72.315 Y83.805 E8.67565
G1 X72.886 Y83.061 E8.70684
G1 X73.543 Y82.344 E8.73919
G1 X73.655 Y82.232 E8.74446
G1 X74.346 Y81.598 E8.77565
G0 F6000 X74.616 Y81.893
G1 F1200 X75.346 Y81.332 E8.80627
G1 X76.122 Y80.836 E8.8369
G1 X76.938 Y80.41 E8.86752
G1 X77.788 Y80.056 E8.89814
G1 X78.666 Y79.778 E8.92877
G1 X79.564 Y79.576 E8.95939
G1 X80.477 Y79.453 E8.99003
G1 X81.075 Y79.416 E9.00996
G1 X81.451 Y79.406 E9.02247
G1 X81.99 Y79.4 E9.0404
G1 X104.661 Y79.4 E9.79444
G1 X106.389 Y79.406 E9.85191
G1 X107.194 Y79.4 E9.87868
G1 X112.5 Y79.401 E10.05516
G1 X112.777 Y79.405 E10.06438
G1 X115.361 Y79.4 E10.15032
G1 X138.016 Y79.401 E10.90383
G1 X138.718 Y79.411 E10.92718
G1 X139.637 Y79.464 E10.9578
G1 X140.548 Y79.597 E10.98842
G1 X141.444 Y79.808 E11.01903
G1 X142.319 Y80.096 E11.04967
G1 X143.165 Y80.459 E11.08029
G1 X143.976 Y80.894 E11.1109
G1 X144.747 Y81.398 E11.14154
G1 X145.471 Y81.966 E11.17214
G1 X146.062 Y82.515 E11.19897
G1 X146.174 Y82.627 E11.20424
G1 X146.796 Y83.305 E11.23484
G1 X147.357 Y84.035 E11.26547
G1 X147.853 Y84.811 E11.2961
G1 X148.279 Y85.627 E11.32671
G1 X148.633 Y86.477 E11.35734
G1 X148.911 Y87.355 E11.38797
G1 X149.113 Y88.253 E11.41858
G1 X149.236 Y89.166 E11.44922
G1 X149.272 Y89.735 E11.46819
G1 X149.283 Y90.118 E11.48093
G1 X149.289 Y90.636 E11.49816
G1 X149.288 Y91.701 E11.53358
G1 X149.277 Y92.443 E11.55827
G1 X149.223 Y93.362 E11.58888
G1 X149.152 Y93.918 E11.60753
G1 X149.066 Y94.47 E11.62611
G1 X148.77 Y96.204 E11.68462
G1 X148.414 Y98.712 E11.76887
G1 X148.126 Y101.257 E11.85405
G1 X147.916 Y103.749 E11.93723
G1 X147.775 Y106.258 E12.02081
G1 X147.704 Y108.799 E12.10536
G1 X147.706 Y111.317 E12.18911
G1 X147.778 Y113.854 E12.27353
G1 X147.925 Y116.415 E12.35884
G1 X148.137 Y118.898 E12.44173
G1 X148.421 Y121.38 E12.52482
G1 X148.786 Y123.936 E12.6107
G1 X149.104 Y125.805 E12.67375
G1 X149.187 Y126.391 E12.69344
G1 X149.216 Y126.647 E12.70201
G1 X149.282 Y127.716 E12.73763
G1 X149.289 Y128.338 E12.75832
G1 X149.289 Y129.292 E12.79005
G1 X149.279 Y130.023 E12.81436
G1 X149.226 Y130.942 E12.84498
G1 X149.094 Y131.853 E12.8756
G1 X148.884 Y132.749 E12.90621
G1 X148.596 Y133.624 E12.93684
G1 X148.234 Y134.47 E12.96745
G1 X147.799 Y135.282 E12.99809
G1 X147.296 Y136.053 E13.02871
G1 X146.727 Y136.777 E13.05933
G1 X146.175 Y137.373 E13.08635
G1 X146.063 Y137.485 E13.09162
G1 X145.385 Y138.107 E13.12222
G1 X144.655 Y138.668 E13.15284
G1 X143.879 Y139.164 E13.18348
G1 X143.063 Y139.59 E13.21409
G1 X142.213 Y139.944 E13.24472
G1 X141.335 Y140.222 E13.27535
G1 X140.437 Y140.424 E13.30596
G1 X139.524 Y140.547 E13.3366
G1 X138.926 Y140.584 E13.35653
G1 X138.55 Y140.594 E13.36904
G1 X138.011 Y140.6 E13.38697
G1 X115.421 Y140.6 E14.13832
G1 X113.498 Y140.593 E14.20228
G1 X112.671 Y140.6 E14.22978
G1 X107.5 Y140.599 E14.40177
G1 X107.223 Y140.595 E14.41099
G1 X104.64 Y140.6 E14.4969
G1 X82.041 Y140.599 E15.24854
G1 X81.339 Y140.589 E15.27189
G1 X80.42 Y140.536 E15.30251
G1 X79.509 Y140.403 E15.33313
G1 X78.613 Y140.192 E15.36375
G1 X77.738 Y139.904 E15.39439
G1 X76.892 Y139.541 E15.425
G1 X76.081 Y139.106 E15.45561
G1 X75.31 Y138.602 E15.48625
G1 X74.586 Y138.034 E15.51686
G1 X74.017 Y137.508 E15.54263
G1 X73.848 Y137.34 E15.55056
G1 X73.224 Y136.663 E15.58118
G1 X72.661 Y135.934 E15.61181
G1 X72.163 Y135.16 E15.64243
G1 X71.734 Y134.345 E15.67306
G1 X71.378 Y133.496 E15.70368
G1 X71.097 Y132.619 E15.73431
G1 X70.893 Y131.722 E15.7649
G1 X70.767 Y130.81 E15.79553
G1 X70.728 Y130.21 E15.81552
G1 X70.722 Y130.046 E15.82098
G1 X70.716 Y129.762 E15.83043
G1 X70.711 Y129.261 E15.84709
G1 X70.711 Y128.237 E15.88115
G1 X70.721 Y127.567 E15.90344
G1 X70.775 Y126.648 E15.93406
G1 X70.846 Y126.097 E15.95254
G1 X70.959 Y125.379 E15.97671
G1 X71.23 Y123.79 E16.03032
G1 X71.59 Y121.24 E16.11598
G1 X71.87 Y118.756 E16.19912
G1 X72.085 Y116.202 E16.28437
G1 X72.224 Y113.71 E16.36738
G1 X72.293 Y111.179 E16.45159
G1 X72.291 Y108.632 E16.53631
G1 X72.218 Y106.151 E16.61886
G1 X72.071 Y103.591 E16.70415
G1 X71.855 Y101.085 E16.78781
G1 X71.564 Y98.532 E16.87327
G1 X71.21 Y96.068 E16.95606
G1 X70.868 Y94.038 E17.02453
G1 X70.755 Y93.124 E17.05516
G1 X70.727 Y92.636 E17.07142
G1 X70.717 Y92.26 E17.08393
G1 X70.711 Y91.721 E17.10186
G1 X70.712 Y90.649 E17.13751
G1 X70.722 Y89.967 E17.1602
G1 X70.776 Y89.047 E17.19085
G1 X70.909 Y88.137 E17.22144
G1 X71.12 Y87.24 E17.25209
G1 X71.409 Y86.366 E17.28271
G1 X71.772 Y85.52 E17.31333
G1 X72.207 Y84.709 E17.34394
G1 X72.711 Y83.939 E17.37454
G1 X73.28 Y83.215 E17.40517
G1 X73.826 Y82.627 E17.43186
G1 X73.938 Y82.515 E17.43713
G1 X74.616 Y81.893 E17.46773
G0 F6000 X74.887 Y82.188
G1 F1200 X75.604 Y81.639 E17.49776
G1 X76.368 Y81.157 E17.52781
G1 X77.171 Y80.743 E17.55786
G1 X78.007 Y80.403 E17.58788
G1 X78.87 Y80.137 E17.61791
G1 X79.753 Y79.949 E17.64794
G1 X81.089 Y79.816 E17.69259
G1 X81.456 Y79.806 E17.7048
G1 X81.99 Y79.8 E17.72257
G1 X104.66 Y79.8 E18.47657
G1 X106.391 Y79.806 E18.53415
G1 X107.197 Y79.8 E18.56096
G1 X112.495 Y79.801 E18.73717
G1 X112.772 Y79.805 E18.74638
G1 X115.362 Y79.8 E18.83253
G1 X138.01 Y79.801 E19.5858
G1 X138.712 Y79.811 E19.60915
G1 X139.614 Y79.864 E19.63921
G1 X140.507 Y79.996 E19.66923
G1 X141.385 Y80.207 E19.69926
G1 X142.241 Y80.495 E19.7293
G1 X143.069 Y80.857 E19.75936
G1 X143.861 Y81.291 E19.7894
G1 X144.611 Y81.794 E19.81943
G1 X145.314 Y82.36 E19.84945
G1 X145.779 Y82.798 E19.8707
G1 X145.891 Y82.91 E19.87597
G1 X146.501 Y83.576 E19.906
G1 X147.05 Y84.293 E19.93604
G1 X147.532 Y85.057 E19.96608
G1 X147.946 Y85.86 E19.99613
G1 X148.286 Y86.696 E20.02615
G1 X148.552 Y87.559 E20.05619
G1 X148.74 Y88.442 E20.08621
G1 X148.872 Y89.75 E20.12994
G1 X148.883 Y90.124 E20.14238
G1 X148.889 Y90.636 E20.15941
G1 X148.888 Y91.695 E20.19464
G1 X148.877 Y92.437 E20.21932
G1 X148.824 Y93.339 E20.24937
G1 X148.756 Y93.856 E20.26671
G1 X148.646 Y94.557 E20.29031
G1 X148.372 Y96.157 E20.3443
G1 X148.015 Y98.678 E20.42899
G1 X147.732 Y101.178 E20.51267
G1 X147.518 Y103.714 E20.59732
G1 X147.375 Y106.261 E20.68217
G1 X147.304 Y108.787 E20.76621
G1 X147.306 Y111.324 E20.8506
G1 X147.378 Y113.865 E20.93514
G1 X147.523 Y116.398 E21.01953
G1 X147.739 Y118.931 E21.10408
G1 X148.027 Y121.45 E21.18841
G1 X148.394 Y124.019 E21.27472
G1 X148.709 Y125.872 E21.33724
G1 X148.789 Y126.436 E21.35619
G1 X148.818 Y126.692 E21.36475
G1 X148.882 Y127.72 E21.39901
G1 X148.889 Y128.338 E21.41957
G1 X148.889 Y129.287 E21.45113
G1 X148.879 Y130.018 E21.47545
G1 X148.827 Y130.919 E21.50546
G1 X148.695 Y131.813 E21.53552
G1 X148.484 Y132.691 E21.56556
G1 X148.197 Y133.547 E21.59558
G1 X147.835 Y134.374 E21.62561
G1 X147.402 Y135.167 E21.65566
G1 X146.9 Y135.917 E21.68568
G1 X146.333 Y136.621 E21.71574
G1 X145.892 Y137.09 E21.73715
G1 X145.78 Y137.202 E21.74242
G1 X145.114 Y137.812 E21.77246
G1 X144.397 Y138.361 E21.8025
G1 X143.633 Y138.843 E21.83254
G1 X142.83 Y139.257 E21.86259
G1 X141.994 Y139.597 E21.89261
G1 X141.131 Y139.863 E21.92264
G1 X140.248 Y140.051 E21.95267
G1 X138.912 Y140.184 E21.99733
G1 X138.545 Y140.194 E22.00954
G1 X138.011 Y140.2 E22.0273
G1 X115.422 Y140.2 E22.77861
G1 X113.496 Y140.193 E22.84267
G1 X112.668 Y140.2 E22.87021
G1 X107.505 Y140.199 E23.04193
G1 X107.228 Y140.195 E23.05115
G1 X104.639 Y140.2 E23.13726
G1 X82.047 Y140.199 E23.88867
G1 X81.345 Y140.189 E23.91202
G1 X80.443 Y140.136 E23.94207
G1 X79.55 Y140.004 E23.9721
G1 X78.672 Y139.793 E24.00213
G1 X77.816 Y139.505 E24.03217
G1 X76.988 Y139.143 E24.06223
G1 X76.196 Y138.709 E24.09227
G1 X75.446 Y138.206 E24.1223
G1 X74.743 Y137.64 E24.15232
G1 X74.299 Y137.224 E24.17256
G1 X74.13 Y137.056 E24.18048
G1 X73.518 Y136.391 E24.21054
G1 X72.968 Y135.676 E24.24054
G1 X72.483 Y134.914 E24.27059
G1 X72.067 Y134.112 E24.30064
G1 X71.724 Y133.277 E24.33066
G1 X71.456 Y132.414 E24.36072
G1 X71.265 Y131.531 E24.39076
G1 X71.128 Y130.195 E24.43543
G1 X71.115 Y129.758 E24.44997
G1 X71.111 Y129.261 E24.4665
G1 X71.111 Y128.243 E24.50036
G1 X71.121 Y127.573 E24.52265
G1 X71.175 Y126.671 E24.5527
G1 X71.241 Y126.158 E24.56991
G1 X71.353 Y125.446 E24.59388
G1 X71.625 Y123.847 E24.64783
G1 X71.985 Y121.304 E24.73325
G1 X72.27 Y118.775 E24.8179
G1 X72.482 Y116.257 E24.90194
G1 X72.624 Y113.714 E24.98666
G1 X72.693 Y111.189 E25.07067
G1 X72.691 Y108.655 E25.15495
G1 X72.616 Y106.081 E25.2406
G1 X72.471 Y103.567 E25.32435
G1 X72.254 Y101.046 E25.40851
G1 X71.963 Y98.502 E25.49368
G1 X71.602 Y95.984 E25.57828
G1 X71.263 Y93.972 E25.64614
G1 X71.152 Y93.075 E25.67621
G1 X71.127 Y92.622 E25.6913
G1 X71.117 Y92.255 E25.70351
G1 X71.111 Y91.721 E25.72127
G1 X71.112 Y90.654 E25.75676
G1 X71.122 Y89.972 E25.77944
G1 X71.175 Y89.071 E25.80946
G1 X71.308 Y88.178 E25.83949
G1 X71.519 Y87.3 E25.86953
G1 X71.807 Y86.444 E25.89956
G1 X72.17 Y85.617 E25.9296
G1 X72.604 Y84.825 E25.95964
G1 X73.107 Y84.075 E25.98968
G1 X73.674 Y83.372 E26.01972
G1 X74.109 Y82.91 E26.04082
G1 X74.221 Y82.798 E26.04609
G1 X74.887 Y82.188 E26.07613
G1 F1500 E19.57613
G0 F6000 X103.959 Y96.6
G0 X104.425 Y96.6
G1 F1500 E26.07613
G1 F1200 X105.081 Y96.6 E26.09795
G1 X105.459 Y96.77 E26.11173
G1 X105.989 Y96.921 E26.13006
G1 X106.762 Y97 E26.15591
G1 X113.238 Y97 E26.3713
G1 X113.788 Y96.96 E26.38964
G1 X114.326 Y96.841 E26.40797
G1 X114.841 Y96.645 E26.42629
G1 X114.922 Y96.6 E26.42938
G1 X115.576 Y96.6 E26.45113
G1 X115.575 Y123.4 E27.3425
G1 X114.919 Y123.4 E27.36432
G1 X114.538 Y123.229 E27.37821
G1 X114.008 Y123.079 E27.39653
G1 X113.238 Y123 E27.42227
G1 X106.761 Y123 E27.6377
G1 X106.211 Y123.04 E27.65604
G1 X105.673 Y123.159 E27.67437
G1 X105.158 Y123.355 E27.69269
G1 X105.077 Y123.4 E27.69578
G1 X104.424 Y123.4 E27.7175
G1 X104.425 Y96.6 E28.60887
G0 F6000 X104.025 Y96.2
G1 F1200 X105.167 Y96.2 E28.64685
G1 X105.196 Y96.218 E28.64799
G1 X105.676 Y96.422 E28.66533
G1 X106.181 Y96.55 E28.68266
G1 X106.762 Y96.6 E28.70206
G1 X113.238 Y96.6 E28.91745
G1 X113.758 Y96.56 E28.93479
G1 X114.265 Y96.441 E28.95212
G1 X114.748 Y96.246 E28.96944
G1 X114.825 Y96.2 E28.97242
G1 X115.976 Y96.2 E29.01071
G1 X115.975 Y123.8 E29.92869
G1 X114.832 Y123.8 E29.9667
G1 X114.801 Y123.781 E29.96791
G1 X114.321 Y123.577 E29.98526
G1 X113.816 Y123.449 E30.00259
G1 X113.238 Y123.4 E30.02188
G1 X106.761 Y123.4 E30.2373
G1 X106.241 Y123.44 E30.25465
G1 X105.734 Y123.559 E30.27197
G1 X105.251 Y123.754 E30.2893
G1 X105.174 Y123.8 E30.29228
G1 X104.024 Y123.8 E30.33053
G1 X104.025 Y96.2 E31.24851
G0 F6000 X103.625 Y95.8
G1 F1200 X105.284 Y95.8 E31.30369
G1 X105.434 Y95.89 E31.30951
G1 X105.889 Y96.07 E31.32578
G1 X106.367 Y96.174 E31.34205
G1 X106.762 Y96.2 E31.35522
G1 X113.238 Y96.2 E31.57061
G1 X113.726 Y96.16 E31.58689
G1 X114.201 Y96.041 E31.60318
G1 X114.65 Y95.847 E31.61945
G1 X114.723 Y95.8 E31.62234
G1 X116.376 Y95.8 E31.67732
G1 X116.375 Y124.2 E32.6219
G1 X114.716 Y124.2 E32.67708
G1 X114.564 Y124.109 E32.68297
G1 X114.109 Y123.929 E32.69925
G1 X113.63 Y123.826 E32.71555
G1 X113.238 Y123.8 E32.72861
G1 X106.761 Y123.8 E32.94404
G1 X106.273 Y123.84 E32.96032
G1 X105.798 Y123.959 E32.97661
G1 X105.349 Y124.153 E32.99288
