;FLAVOR:Marlin
;TIME:4211
;Filament used: 2.77893m
;Layer height: 0.2
;MINX:77.894
;MINY:80.395
;MINZ:0.2
;MAXX:143.5
;MAXY:141
;MAXZ:30
;Generated with Cura_SteamEngine 4.9.0
M140 S60
M105
M190 S60
M104 S200
M105
M109 S200
M82 ;absolute extrusion mode
; Ender 3 Custom Start G-code
G92 E0 ; Reset Extruder
G28 ; Home all axes
G1 Z2.0 F3000 ; Move Z Axis up little to prevent scratching of Heat Bed
G1 X0.1 Y20 Z0.3 F5000.0 ; Move to start position
G1 X0.1 Y200.0 Z0.3 F1500.0 E15 ; Draw the first line
G1 X0.4 Y200.0 Z0.3 F5000.0 ; Move to side a little
G1 X0.4 Y20 Z0.3 F1500.0 E30 ; Draw the second line
G92 E0 ; Reset Extruder
G1 Z2.0 F3000 ; Move Z Axis up little to prevent scratching of Heat Bed
G1 X5 Y20 Z0.3 F5000.0 ; Move over to prevent blob squish
G92 E0
G92 E0
G1 F1500 E-6.5
;LAYER_COUNT:150
;LAYER:0
M107
G0 F6000 X81.147 Y83.94 Z0.2
;TYPE:SKIRT
G1 F1500 E0
G1 F1200 X81.823 Y83.29 E0.03119
G1 X82.77 Y82.544 E0.07129
G1 X82.898 Y82.454 E0.07649
G1 X83.688 Y81.947 E0.10771
G1 X84.517 Y81.51 E0.13888
G1 X85.381 Y81.145 E0.17008
G1 X86.273 Y80.855 E0.20127
G1 X87.039 Y80.671 E0.22748
G1 X87.325 Y80.613 E0.23718
G1 X88.251 Y80.466 E0.26837
G1 X89.621 Y80.395 E0.31399
G1 X91.226 Y80.411 E0.36738
G1 X131.952 Y80.413 E1.72193
G1 X132.649 Y80.423 E1.74512
G1 X133.585 Y80.477 E1.7763
G1 X134.514 Y80.61 E1.80751
G1 X135.427 Y80.821 E1.83868
G1 X136.32 Y81.11 E1.8699
G1 X137.184 Y81.473 E1.90107
G1 X138.014 Y81.909 E1.93225
G1 X138.805 Y82.414 E1.96347
G1 X139.549 Y82.985 E1.99466
G1 X140.242 Y83.617 E2.02585
G1 X140.879 Y84.306 E2.05706
G1 X141.455 Y85.046 E2.08825
G1 X141.965 Y85.833 E2.11944
G1 X142.407 Y86.66 E2.15063
G1 X142.776 Y87.522 E2.18182
G1 X143.071 Y88.412 E2.213
G1 X143.289 Y89.324 E2.24419
G1 X143.429 Y90.252 E2.27541
G1 X143.486 Y91.103 E2.30377
G1 X143.495 Y91.413 E2.31409
G1 X143.5 Y91.732 E2.3247
G1 X143.499 Y129.4 E3.57754
G1 X143.49 Y130.127 E3.60173
G1 X143.439 Y131.064 E3.63294
G1 X143.307 Y131.992 E3.66411
G1 X143.098 Y132.906 E3.6953
G1 X142.811 Y133.799 E3.72649
G1 X142.449 Y134.665 E3.75771
G1 X142.015 Y135.496 E3.78889
G1 X141.511 Y136.287 E3.82009
G1 X140.942 Y137.032 E3.85127
G1 X140.311 Y137.727 E3.88249
G1 X139.624 Y138.365 E3.91367
G1 X138.885 Y138.942 E3.94486
G1 X138.099 Y139.454 E3.97606
G1 X137.273 Y139.897 E4.00723
G1 X136.411 Y140.269 E4.03846
G1 X135.522 Y140.565 E4.06962
G1 X134.61 Y140.785 E4.10083
G1 X133.683 Y140.926 E4.13201
G1 X132.799 Y140.987 E4.16148
G1 X132.478 Y140.996 E4.17217
G1 X132.17 Y141 E4.18241
G1 X128.05 Y140.999 E4.31944
G1 X127.348 Y140.989 E4.34279
G1 X126.412 Y140.936 E4.37397
G1 X125.484 Y140.803 E4.40516
G1 X124.57 Y140.591 E4.43636
G1 X123.677 Y140.303 E4.46757
G1 X122.813 Y139.939 E4.49875
G1 X121.982 Y139.503 E4.52996
G1 X121.192 Y138.998 E4.56115
G1 X120.448 Y138.428 E4.59232
G1 X119.755 Y137.796 E4.62352
G1 X119.355 Y137.377 E4.64278
G1 X119.135 Y137.134 E4.65369
G1 X117.332 Y135.201 E4.74161
G1 X115.571 Y133.414 E4.82505
G1 X113.744 Y131.665 E4.90917
G1 X111.87 Y129.968 E4.99326
G1 X109.985 Y128.357 E5.07573
G1 X108.005 Y126.757 E5.1604
G1 X106.015 Y125.243 E5.24357
G1 X103.975 Y123.779 E5.32708
G1 X101.877 Y122.361 E5.41131
G1 X99.759 Y121.015 E5.49477
G1 X97.582 Y119.717 E5.57907
G1 X95.399 Y118.498 E5.66223
G1 X93.171 Y117.334 E5.74584
G1 X90.893 Y116.226 E5.83009
G1 X88.614 Y115.196 E5.91328
G1 X86.284 Y114.22 E5.9973
G1 X85.912 Y114.075 E6.01058
G1 X85.053 Y113.724 E6.04144
G1 X84.201 Y113.332 E6.07263
G1 X83.385 Y112.87 E6.10382
G1 X82.439 Y112.207 E6.14224
G1 X82.274 Y112.078 E6.14921
G1 X81.56 Y111.469 E6.18042
G1 X80.901 Y110.802 E6.21161
G1 X80.301 Y110.081 E6.24281
G1 X79.745 Y109.28 E6.27524
G1 X79.634 Y109.104 E6.28216
G1 X79.168 Y108.29 E6.31335
G1 X78.773 Y107.439 E6.34456
G1 X78.452 Y106.558 E6.37575
G1 X78.207 Y105.653 E6.40693
G1 X78.079 Y104.993 E6.42929
G1 X78.035 Y104.721 E6.43845
G1 X77.925 Y103.789 E6.46967
G1 X77.895 Y102.852 E6.50085
G1 X77.911 Y101.276 E6.55327
G1 X77.912 Y93.822 E6.80119
G1 X77.894 Y92.052 E6.86006
G1 X77.924 Y91.115 E6.89124
G1 X78.034 Y90.183 E6.92246
G1 X78.224 Y89.265 E6.95364
G1 X78.376 Y88.719 E6.97249
G1 X78.448 Y88.484 E6.98066
G1 X78.76 Y87.599 E7.01187
G1 X79.147 Y86.745 E7.04306
G1 X79.605 Y85.927 E7.07424
G1 X80.396 Y84.809 E7.11979
G1 X80.528 Y84.645 E7.12679
G1 X81.147 Y83.94 E7.158
G0 F6000 X81.447 Y84.204
G1 F1200 X82.113 Y83.568 E7.18863
G1 X83 Y82.871 E7.22615
G1 X83.128 Y82.781 E7.23135
G1 X83.904 Y82.285 E7.26198
G1 X84.719 Y81.857 E7.2926
G1 X85.569 Y81.503 E7.32322
G1 X86.446 Y81.223 E7.35384
G1 X87.118 Y81.063 E7.37682
G1 X87.404 Y81.005 E7.38653
G1 X88.314 Y80.862 E7.41716
G1 X89.617 Y80.795 E7.46056
G1 X91.222 Y80.811 E7.51394
G1 X131.946 Y80.813 E8.86843
G1 X132.643 Y80.823 E8.89161
G1 X133.562 Y80.876 E8.92223
G1 X134.473 Y81.009 E8.95285
G1 X135.369 Y81.22 E8.98347
G1 X136.244 Y81.508 E9.01411
G1 X137.09 Y81.872 E9.04474
G1 X137.901 Y82.307 E9.07535
G1 X138.672 Y82.81 E9.10597
G1 X139.396 Y83.379 E9.13659
G1 X140.067 Y84.009 E9.16721
G1 X140.682 Y84.694 E9.19783
G1 X141.235 Y85.43 E9.22844
G1 X141.722 Y86.212 E9.25909
G1 X142.139 Y87.032 E9.28968
G1 X142.484 Y87.886 E9.32032
G1 X142.753 Y88.766 E9.35092
G1 X142.945 Y89.667 E9.38156
G1 X143.058 Y90.581 E9.41219
G1 X143.087 Y91.114 E9.42995
G1 X143.096 Y91.424 E9.44026
G1 X143.1 Y91.732 E9.45051
G1 X143.099 Y129.395 E10.70318
G1 X143.09 Y130.122 E10.72737
G1 X143.039 Y131.041 E10.75798
G1 X142.908 Y131.953 E10.78862
G1 X142.698 Y132.849 E10.81923
G1 X142.412 Y133.724 E10.84985
G1 X142.051 Y134.571 E10.88047
G1 X141.617 Y135.383 E10.9111
G1 X141.115 Y136.155 E10.94172
G1 X140.547 Y136.88 E10.97236
G1 X139.919 Y137.553 E11.00297
G1 X139.235 Y138.169 E11.03359
G1 X138.5 Y138.723 E11.0642
G1 X137.72 Y139.212 E11.09482
G1 X136.9 Y139.631 E11.12545
G1 X136.047 Y139.977 E11.15607
G1 X135.167 Y140.248 E11.18669
G1 X134.267 Y140.441 E11.21731
G1 X133.353 Y140.556 E11.24794
G1 X132.788 Y140.587 E11.26676
G1 X132.467 Y140.596 E11.27745
G1 X132.17 Y140.6 E11.28732
G1 X128.056 Y140.599 E11.42416
G1 X127.354 Y140.589 E11.44751
G1 X126.435 Y140.536 E11.47812
G1 X125.524 Y140.403 E11.50875
G1 X124.628 Y140.192 E11.53936
G1 X123.753 Y139.904 E11.57
G1 X122.907 Y139.541 E11.60062
G1 X122.096 Y139.106 E11.63123
G1 X121.325 Y138.602 E11.66187
G1 X120.601 Y138.034 E11.69247
G1 X119.651 Y137.109 E11.73657
G1 X119.373 Y136.802 E11.75035
G1 X117.645 Y134.948 E11.83464
G1 X115.832 Y133.11 E11.92051
G1 X114.026 Y131.38 E12.00369
G1 X112.15 Y129.682 E12.08785
G1 X110.233 Y128.043 E12.17174
G1 X108.253 Y126.444 E12.25639
G1 X106.245 Y124.915 E12.34033
G1 X104.186 Y123.438 E12.42461
G1 X102.109 Y122.035 E12.50798
G1 X99.957 Y120.667 E12.59279
G1 X97.802 Y119.382 E12.67624
G1 X95.6 Y118.153 E12.76011
G1 X93.324 Y116.964 E12.84552
G1 X91.054 Y115.86 E12.92948
G1 X88.785 Y114.834 E13.0123
G1 X86.446 Y113.854 E13.09665
G1 X86.063 Y113.704 E13.11033
G1 X85.204 Y113.353 E13.14119
G1 X84.368 Y112.969 E13.17179
G1 X83.568 Y112.512 E13.20244
G1 X82.685 Y111.892 E13.23832
G1 X82.52 Y111.763 E13.24529
G1 X81.82 Y111.165 E13.27591
G1 X81.175 Y110.508 E13.30653
G1 X80.589 Y109.798 E13.33715
G1 X80.083 Y109.067 E13.36672
G1 X79.972 Y108.891 E13.37364
G1 X79.515 Y108.091 E13.40428
G1 X79.13 Y107.255 E13.4349
G1 X78.818 Y106.389 E13.46551
G1 X78.582 Y105.499 E13.49614
G1 X78.474 Y104.929 E13.51543
G1 X78.43 Y104.657 E13.5246
G1 X78.323 Y103.742 E13.55524
G1 X78.295 Y102.856 E13.58472
G1 X78.311 Y101.28 E13.63714
G1 X78.312 Y93.822 E13.88519
G1 X78.294 Y92.048 E13.9442
G1 X78.324 Y91.128 E13.97482
G1 X78.435 Y90.214 E14.00544
G1 X78.624 Y89.313 E14.03606
G1 X78.758 Y88.836 E14.05254
G1 X78.83 Y88.601 E14.06071
G1 X79.138 Y87.733 E14.09135
G1 X79.519 Y86.895 E14.12196
G1 X79.973 Y86.094 E14.15259
G1 X80.707 Y85.06 E14.19476
G1 X80.839 Y84.896 E14.20176
G1 X81.447 Y84.204 E14.2324
G0 F6000 X81.748 Y84.469
G1 F1200 X82.402 Y83.846 E14.26244
G1 X83.23 Y83.198 E14.29741
G1 X83.358 Y83.108 E14.30262
G1 X84.119 Y82.622 E14.33265
G1 X84.92 Y82.205 E14.36269
G1 X85.755 Y81.86 E14.39274
G1 X86.617 Y81.591 E14.42277
G1 X87.198 Y81.455 E14.44262
G1 X87.484 Y81.397 E14.45232
G1 X88.376 Y81.257 E14.48235
G1 X89.613 Y81.195 E14.52355
G1 X91.218 Y81.211 E14.57693
G1 X131.94 Y81.213 E15.93135
G1 X132.637 Y81.223 E15.95454
G1 X133.539 Y81.276 E15.98459
G1 X134.432 Y81.408 E16.01461
G1 X135.31 Y81.619 E16.04465
G1 X136.166 Y81.907 E16.07469
G1 X136.994 Y82.27 E16.10476
G1 X137.785 Y82.704 E16.13476
G1 X138.536 Y83.206 E16.16481
G1 X139.239 Y83.773 E16.19485
G1 X139.889 Y84.4 E16.22489
G1 X140.481 Y85.082 E16.25492
G1 X141.011 Y85.813 E16.28495
G1 X141.473 Y86.589 E16.31499
G1 X141.866 Y87.402 E16.34503
G1 X142.184 Y88.247 E16.37506
G1 X142.427 Y89.117 E16.4051
G1 X142.592 Y90.005 E16.43514
G1 X142.687 Y91.126 E16.47256
G1 X142.696 Y91.436 E16.48287
G1 X142.7 Y91.732 E16.49272
G1 X142.699 Y129.39 E17.74523
G1 X142.69 Y130.117 E17.76941
G1 X142.639 Y131.019 E17.79946
G1 X142.508 Y131.913 E17.82951
G1 X142.299 Y132.791 E17.85953
G1 X142.013 Y133.648 E17.88958
G1 X141.652 Y134.476 E17.91962
G1 X141.22 Y135.268 E17.94963
G1 X140.719 Y136.02 E17.97968
G1 X140.153 Y136.724 E18.00973
G1 X139.528 Y137.375 E18.03974
G1 X138.847 Y137.969 E18.0698
G1 X138.116 Y138.5 E18.09985
G1 X137.342 Y138.964 E18.12986
G1 X136.529 Y139.358 E18.15991
G1 X135.685 Y139.678 E18.18993
G1 X134.815 Y139.923 E18.22
G1 X133.928 Y140.089 E18.25001
G1 X132.777 Y140.187 E18.28843
G1 X132.456 Y140.196 E18.29911
G1 X132.17 Y140.2 E18.30862
G1 X128.062 Y140.199 E18.44526
G1 X127.36 Y140.189 E18.46861
G1 X126.458 Y140.136 E18.49866
G1 X125.565 Y140.004 E18.52868
G1 X124.687 Y139.793 E18.55872
G1 X123.831 Y139.505 E18.58876
G1 X123.003 Y139.143 E18.61881
G1 X122.211 Y138.709 E18.64885
G1 X121.461 Y138.206 E18.67889
G1 X120.758 Y137.64 E18.70891
G1 X119.947 Y136.84 E18.74679
G1 X119.676 Y136.541 E18.76022
G1 X117.922 Y134.66 E18.84576
G1 X116.128 Y132.84 E18.93076
G1 X114.287 Y131.077 E19.01554
G1 X112.414 Y129.382 E19.09955
G1 X110.498 Y127.744 E19.18339
G1 X108.5 Y126.13 E19.26882
G1 X106.474 Y124.588 E19.3535
G1 X104.421 Y123.114 E19.43756
G1 X102.326 Y121.699 E19.52165
G1 X100.171 Y120.329 E19.60658
G1 X97.996 Y119.032 E19.69081
G1 X95.759 Y117.783 E19.77602
G1 X93.52 Y116.614 E19.86003
G1 X91.244 Y115.507 E19.94421
G1 X88.925 Y114.459 E20.02885
G1 X86.575 Y113.474 E20.1136
G1 X86.215 Y113.334 E20.12645
G1 X85.356 Y112.983 E20.15731
G1 X84.536 Y112.605 E20.18734
G1 X83.752 Y112.156 E20.21739
G1 X82.932 Y111.577 E20.25078
G1 X82.767 Y111.448 E20.25775
G1 X82.08 Y110.86 E20.28782
G1 X81.449 Y110.215 E20.31783
G1 X80.877 Y109.516 E20.34788
G1 X80.422 Y108.853 E20.37462
G1 X80.311 Y108.677 E20.38154
G1 X79.863 Y107.893 E20.41157
G1 X79.487 Y107.072 E20.44161
G1 X79.184 Y106.221 E20.47165
G1 X78.959 Y105.346 E20.5017
G1 X78.869 Y104.865 E20.51798
G1 X78.825 Y104.593 E20.52714
G1 X78.72 Y103.696 E20.55718
G1 X78.695 Y102.86 E20.585
G1 X78.711 Y101.284 E20.63742
G1 X78.712 Y93.822 E20.88561
G1 X78.694 Y92.044 E20.94475
G1 X78.724 Y91.141 E20.9748
G1 X78.835 Y90.245 E21.00482
G1 X79.14 Y88.953 E21.04898
G1 X79.212 Y88.718 E21.05715
G1 X79.515 Y87.867 E21.0872
G1 X79.892 Y87.046 E21.11725
G1 X80.339 Y86.262 E21.14726
G1 X81.019 Y85.311 E21.18615
G1 X81.151 Y85.147 E21.19315
G1 X81.748 Y84.469 E21.2232
G1 F1500 E14.7232
;MESH:kulaklik_aski-Body.stl
G0 F6000 X88.808 Y90.92
G0 X89.482 Y91.831
G0 X89.693 Y102.806
G0 X90.306 Y102.807
G0 X90.623 Y92.84
G0 X127.928 Y93.161
G0 X128.282 Y129.218
G0 X131.9 Y129.4
;TYPE:WALL-INNER
G1 F1500 E21.2232
G1 F1200 X128.1 Y129.4 E21.34958
G1 X128.1 Y93.188 E22.554
G1 X128.1 Y92.989 E22.56062
G1 X127.901 Y92.989 E22.5649
G1 X90.54 Y93.025 E23.80753
G1 X90.489 Y94.992 E23.87298
G1 X90.488 Y102.79 E24.13234
G1 X90.488 Y102.989 E24.13896
G1 X90.289 Y102.989 E24.14324
G1 X89.511 Y102.988 E24.16912
G1 X89.512 Y92.011 E24.53421
G1 X131.9 Y92.012 E25.94405
G1 X131.9 Y129.4 E27.18758
G0 F6000 X132.3 Y129.8
;TYPE:WALL-OUTER
G1 F1200 X127.7 Y129.8 E27.34057
G1 X127.7 Y93.389 E28.55161
G1 X90.93 Y93.425 E29.77458
G1 X90.889 Y94.997 E29.82688
G1 X90.888 Y103.029 E30.09403
G1 X90.874 Y103.192 E30.09947
G1 X90.693 Y103.374 E30.10801
G1 X90.527 Y103.389 E30.11355
G1 X89.471 Y103.388 E30.14868
G1 X89.308 Y103.374 E30.15412
G1 X89.126 Y103.193 E30.16265
G1 X89.111 Y103.027 E30.1682
G1 X89.112 Y91.971 E30.53592
G1 X89.126 Y91.808 E30.54136
G1 X89.307 Y91.626 E30.5499
G1 X89.473 Y91.611 E30.55544
G1 X132.3 Y91.612 E31.97988
G1 X132.3 Y129.8 E33.25001
G0 F6000 X132.03 Y129.53
G0 X131.79 Y129.01
G0 X131.51 Y129.01
;TYPE:SKIN
G1 F1200 X128.49 Y129.01 E33.35046
G1 X128.49 Y92.599 E34.56149
G1 X90.16 Y92.635 E35.83636
G1 X90.099 Y94.987 E35.91461
G1 X90.098 Y102.599 E36.16779
G1 X89.901 Y102.598 E36.17434
G1 X89.902 Y92.401 E36.51349
G1 X131.51 Y92.402 E37.89738
G1 X131.51 Y129.01 E39.11497
G0 F6000 X131.79 Y129.01
G0 X128.848 Y129.29
G0 X128.848 Y128.848
G1 F1200 X128.649 Y128.649 E39.12433
G0 F6000 X128.649 Y128.083
G1 F1200 X129.414 Y128.848 E39.16031
G0 F6000 X129.98 Y128.848
G1 F1200 X128.649 Y127.518 E39.22289
G0 F6000 X128.649 Y126.952
G1 F1200 X130.546 Y128.849 E39.31212
G0 F6000 X131.112 Y128.849
G1 F1200 X128.649 Y126.386 E39.42797
G0 F6000 X128.649 Y125.821
G1 F1200 X131.349 Y128.52 E39.55495
G0 F6000 X131.349 Y127.955
G1 F1200 X128.649 Y125.255 E39.68195
G0 F6000 X128.649 Y124.689
G1 F1200 X131.349 Y127.389 E39.80895
G0 F6000 X131.349 Y126.823
G1 F1200 X128.649 Y124.124 E39.93593
G0 F6000 X128.649 Y123.558
G1 F1200 X131.349 Y126.258 E40.06293
G0 F6000 X131.349 Y125.692
G1 F1200 X128.649 Y122.992 E40.18993
G0 F6000 X128.649 Y122.427
G1 F1200 X131.349 Y125.126 E40.3169
G0 F6000 X131.349 Y124.561
G1 F1200 X128.649 Y121.861 E40.4439
G0 F6000 X128.649 Y121.295
G1 F1200 X131.349 Y123.995 E40.5709
G0 F6000 X131.349 Y123.429
G1 F1200 X128.649 Y120.729 E40.6979
G0 F6000 X128.649 Y120.164
G1 F1200 X131.349 Y122.864 E40.8249
G0 F6000 X131.349 Y122.298
G1 F1200 X128.649 Y119.598 E40.9519
G0 F6000 X128.649 Y119.032
G1 F1200 X131.349 Y121.732 E41.0789
G0 F6000 X131.349 Y121.166
G1 F1200 X128.649 Y118.467 E41.20588
G0 F6000 X128.649 Y117.901
G1 F1200 X131.349 Y120.601 E41.33288
G0 F6000 X131.349 Y120.035
G1 F1200 X128.649 Y117.335 E41.45988
G0 F6000 X128.649 Y116.77
G1 F1200 X131.349 Y119.469 E41.58685
G0 F6000 X131.349 Y118.904
G1 F1200 X128.649 Y116.204 E41.71385
G0 F6000 X128.649 Y115.638
G1 F1200 X131.349 Y118.338 E41.84085
G0 F6000 X131.349 Y117.772
G1 F1200 X128.649 Y115.073 E41.96783
G0 F6000 X128.649 Y114.507
G1 F1200 X131.349 Y117.207 E42.09483
G0 F6000 X131.349 Y116.641
G1 F1200 X128.649 Y113.941 E42.22183
G0 F6000 X128.649 Y113.376
G1 F1200 X131.349 Y116.075 E42.3488
G0 F6000 X131.349 Y115.51
G1 F1200 X128.649 Y112.81 E42.4758
G0 F6000 X128.649 Y112.244
G1 F1200 X131.349 Y114.944 E42.6028
G0 F6000 X131.349 Y114.378
G1 F1200 X128.649 Y111.679 E42.72978
G0 F6000 X128.649 Y111.113
G1 F1200 X131.349 Y113.813 E42.85678
G0 F6000 X131.349 Y113.247
G1 F1200 X128.649 Y110.547 E42.98378
G0 F6000 X128.649 Y109.981
G1 F1200 X131.349 Y112.681 E43.11078
G0 F6000 X131.349 Y112.116
G1 F1200 X128.649 Y109.416 E43.23778
G0 F6000 X128.649 Y108.85
G1 F1200 X131.349 Y111.55 E43.36478
G0 F6000 X131.349 Y110.984
G1 F1200 X128.649 Y108.284 E43.49178
G0 F6000 X128.649 Y107.719
G1 F1200 X131.349 Y110.418 E43.61875
G0 F6000 X131.349 Y109.853
G1 F1200 X128.649 Y107.153 E43.74575
G0 F6000 X128.649 Y106.587
G1 F1200 X131.349 Y109.287 E43.87275
G0 F6000 X131.349 Y108.721
G1 F1200 X128.649 Y106.022 E43.99973
G0 F6000 X128.649 Y105.456
G1 F1200 X131.349 Y108.156 E44.12673
G0 F6000 X131.349 Y107.59
G1 F1200 X128.649 Y104.89 E44.25373
G0 F6000 X128.649 Y104.325
G1 F1200 X131.349 Y107.024 E44.3807
G0 F6000 X131.349 Y106.459
G1 F1200 X128.649 Y103.759 E44.5077
G0 F6000 X128.649 Y103.193
G1 F1200 X131.349 Y105.893 E44.6347
G0 F6000 X131.349 Y105.327
G1 F1200 X128.649 Y102.628 E44.76168
G0 F6000 X128.649 Y102.062
G1 F1200 X131.349 Y104.762 E44.88868
G0 F6000 X131.349 Y104.196
G1 F1200 X128.649 Y101.496 E45.01568
G0 F6000 X128.649 Y100.931
G1 F1200 X131.349 Y103.63 E45.14266
G0 F6000 X131.349 Y103.065
G1 F1200 X128.649 Y100.365 E45.26966
