;FLAVOR:Marlin
;TIME:2517
;Filament used: 2.17766m
;Layer height: 0.16
;MINX:66.5
;MINY:66.52
;MINZ:0.2
;MAXX:153.488
;MAXY:153.5
;MAXZ:1.8
;Generated with Cura_SteamEngine 4.9.0
M140 S60
M105
M190 S60
M104 S200
M105
M109 S200
M82 ;absolute extrusion mode
; Ender 3 Custom Start G-code
G92 E0 ; Reset Extruder
G28 ; Home all axes
G1 Z2.0 F3000 ; Move Z Axis up little to prevent scratching of Heat Bed
G1 X0.1 Y20 Z0.3 F5000.0 ; Move to start position
G1 X0.1 Y200.0 Z0.3 F1500.0 E15 ; Draw the first line
G1 X0.4 Y200.0 Z0.3 F5000.0 ; Move to side a little
G1 X0.4 Y20 Z0.3 F1500.0 E30 ; Draw the second line
G92 E0 ; Reset Extruder
G1 Z2.0 F3000 ; Move Z Axis up little to prevent scratching of Heat Bed
G1 X5 Y20 Z0.3 F5000.0 ; Move over to prevent blob squish
G92 E0
G92 E0
G1 F1500 E-6.5
;LAYER_COUNT:11
;LAYER:0
M107
G0 F6000 X69.708 Y69.766 Z0.2
;TYPE:SKIRT
G1 F1500 E0
G1 F1200 X70.397 Y69.129 E0.03121
G1 X71.137 Y68.554 E0.06238
G1 X71.924 Y68.044 E0.09357
G1 X72.752 Y67.602 E0.12479
G1 X73.614 Y67.233 E0.15597
G1 X74.504 Y66.939 E0.18715
G1 X75.417 Y66.721 E0.21837
G1 X76.344 Y66.582 E0.24955
G1 X77.555 Y66.52 E0.28988
G1 X78.54 Y66.524 E0.32264
G1 X78.766 Y66.527 E0.33016
G1 X80.377 Y66.568 E0.38376
G1 X81.291 Y66.603 E0.41418
G1 X81.586 Y66.618 E0.424
G1 X82.062 Y66.65 E0.43987
G1 X84.099 Y66.801 E0.50781
G1 X85.01 Y66.881 E0.53822
G1 X85.272 Y66.907 E0.54698
G1 X85.783 Y66.965 E0.56408
G1 X87.875 Y67.225 E0.6342
G1 X88.709 Y67.34 E0.6622
G1 X88.955 Y67.377 E0.67048
G1 X89.417 Y67.452 E0.68604
G1 X91.528 Y67.82 E0.75731
G1 X92.418 Y67.987 E0.78743
G1 X92.714 Y68.046 E0.79747
G1 X95.02 Y68.562 E0.87607
G1 X96.009 Y68.796 E0.90987
G1 X96.314 Y68.874 E0.92034
G1 X96.769 Y68.996 E0.93601
G1 X98.763 Y69.549 E1.00483
G1 X99.634 Y69.804 E1.03502
G1 X99.88 Y69.879 E1.04357
G1 X100.324 Y70.021 E1.05907
G1 X102.328 Y70.684 E1.12928
G1 X103.173 Y70.977 E1.15903
G1 X103.749 Y71.189 E1.17944
G1 X105.78 Y71.973 E1.25185
G1 X106.664 Y72.328 E1.28353
G1 X106.938 Y72.442 E1.29341
G1 X107.296 Y72.598 E1.30639
G1 X109.229 Y73.455 E1.37672
G1 X110.063 Y73.839 E1.40726
G1 X110.58 Y74.089 E1.42636
G1 X112.458 Y75.033 E1.49627
G1 X113.396 Y75.521 E1.53144
G1 X113.629 Y75.646 E1.54023
G1 X114.004 Y75.855 E1.55451
G1 X115.819 Y76.885 E1.62392
G1 X116.668 Y77.382 E1.65664
G1 X117.097 Y77.643 E1.67334
G1 X117.217 Y77.717 E1.67803
G1 X118.91 Y78.789 E1.74468
G1 X119.76 Y79.343 E1.77843
G1 X119.988 Y79.495 E1.78754
G1 X120.385 Y79.769 E1.80358
G1 X121.978 Y80.892 E1.86841
G1 X122.861 Y81.533 E1.9047
G1 X123.074 Y81.692 E1.91354
G1 X123.349 Y81.902 E1.92505
G1 X125.091 Y83.262 E1.99856
G1 X125.739 Y83.782 E2.02619
G1 X125.939 Y83.947 E2.03481
G1 X126.329 Y84.276 E2.05178
G1 X127.91 Y85.643 E2.1213
G1 X128.608 Y86.263 E2.15235
G1 X128.81 Y86.447 E2.16144
G1 X129.079 Y86.699 E2.1737
G1 X130.568 Y88.115 E2.24204
G1 X131.288 Y88.821 E2.27558
G1 X131.426 Y88.958 E2.28205
G1 X131.762 Y89.303 E2.29806
G1 X133.233 Y90.849 E2.36904
G1 X133.88 Y91.548 E2.40072
G1 X134.083 Y91.773 E2.4108
G1 X134.303 Y92.025 E2.42193
G1 X135.616 Y93.546 E2.48876
G1 X136.299 Y94.36 E2.5241
G1 X136.458 Y94.553 E2.53242
G1 X136.691 Y94.846 E2.54487
G1 X138.053 Y96.595 E2.6186
G1 X138.606 Y97.326 E2.64908
G1 X138.904 Y97.735 E2.66591
G1 X140.139 Y99.485 E2.73715
G1 X140.727 Y100.343 E2.77175
G1 X140.878 Y100.57 E2.78082
G1 X141.09 Y100.899 E2.79383
G1 X142.267 Y102.761 E2.8671
G1 X142.709 Y103.481 E2.8952
G1 X142.854 Y103.723 E2.90458
G1 X143.08 Y104.114 E2.9196
G1 X144.145 Y105.998 E2.99159
G1 X144.547 Y106.732 E3.01942
G1 X144.789 Y107.191 E3.03668
G1 X145.773 Y109.145 E3.10944
G1 X146.221 Y110.063 E3.14342
G1 X146.337 Y110.309 E3.15246
G1 X146.536 Y110.747 E3.16847
G1 X147.394 Y112.687 E3.23902
G1 X147.73 Y113.475 E3.26751
G1 X147.956 Y114.036 E3.28763
G1 X148.755 Y116.105 E3.3614
G1 X149.093 Y117.023 E3.39393
G1 X149.243 Y117.451 E3.40902
G1 X149.921 Y119.497 E3.48071
G1 X150.241 Y120.514 E3.51617
G1 X150.316 Y120.763 E3.52482
G1 X150.451 Y121.234 E3.54111
G1 X151.001 Y123.225 E3.60981
G1 X151.237 Y124.125 E3.64076
G1 X151.308 Y124.411 E3.65056
G1 X151.383 Y124.732 E3.66152
G1 X151.843 Y126.777 E3.73124
G1 X152.046 Y127.743 E3.76407
G1 X152.103 Y128.034 E3.77393
G1 X152.168 Y128.392 E3.78604
G1 X152.522 Y130.437 E3.85507
G1 X152.679 Y131.424 E3.88831
G1 X152.714 Y131.657 E3.89614
G1 X152.773 Y132.1 E3.91101
G1 X153.037 Y134.25 E3.98305
G1 X153.129 Y135.088 E4.01109
G1 X153.158 Y135.381 E4.02089
G1 X153.198 Y135.876 E4.0374
G1 X153.35 Y137.946 E4.10644
G1 X153.404 Y138.843 E4.13632
G1 X153.418 Y139.143 E4.14631
G1 X153.43 Y139.505 E4.15836
G1 X153.479 Y141.477 E4.22397
G1 X153.488 Y142.375 E4.25384
G1 X153.457 Y143.312 E4.28502
G1 X153.347 Y144.243 E4.3162
G1 X153.157 Y145.162 E4.34741
G1 X152.89 Y146.061 E4.37861
G1 X152.547 Y146.934 E4.4098
G1 X152.131 Y147.774 E4.44098
G1 X151.645 Y148.576 E4.47217
G1 X151.093 Y149.334 E4.50336
G1 X150.477 Y150.042 E4.53457
G1 X149.804 Y150.695 E4.56576
G1 X149.078 Y151.288 E4.59694
G1 X148.304 Y151.818 E4.62814
G1 X147.487 Y152.279 E4.65934
G1 X146.634 Y152.669 E4.69053
G1 X145.751 Y152.985 E4.72173
G1 X144.844 Y153.225 E4.75293
G1 X143.921 Y153.386 E4.7841
G1 X142.71 Y153.478 E4.82449
G1 X141.715 Y153.498 E4.85759
G1 X141.494 Y153.5 E4.86494
G1 X108.051 Y153.499 E5.97726
G1 X107.348 Y153.489 E6.00064
G1 X106.411 Y153.436 E6.03186
G1 X105.483 Y153.303 E6.06304
G1 X104.569 Y153.091 E6.09425
G1 X103.677 Y152.803 E6.12542
G1 X102.812 Y152.439 E6.15664
G1 X101.982 Y152.003 E6.18782
G1 X101.191 Y151.498 E6.21903
G1 X100.447 Y150.928 E6.2502
G1 X99.997 Y150.53 E6.27019
G1 X99.846 Y150.389 E6.27706
G1 X99.656 Y150.207 E6.28581
G1 X99.38 Y149.936 E6.29867
G1 X70.082 Y120.636 E7.67681
G1 X69.611 Y120.15 E7.69932
G1 X68.987 Y119.45 E7.73051
G1 X68.426 Y118.698 E7.76171
G1 X67.931 Y117.902 E7.79289
G1 X67.505 Y117.066 E7.8241
G1 X67.152 Y116.197 E7.85529
G1 X66.874 Y115.302 E7.88646
G1 X66.674 Y114.385 E7.91768
G1 X66.552 Y113.456 E7.94884
G1 X66.516 Y112.866 E7.9685
G1 X66.506 Y112.481 E7.98131
G1 X66.5 Y111.938 E7.99938
G1 X66.501 Y78.036 E9.12696
G1 X66.511 Y77.358 E9.14951
G1 X66.565 Y76.421 E9.18073
G1 X66.698 Y75.493 E9.21191
G1 X66.91 Y74.58 E9.24309
G1 X67.199 Y73.687 E9.2743
G1 X67.563 Y72.823 E9.30549
G1 X68 Y71.993 E9.33668
G1 X68.505 Y71.203 E9.36787
G1 X69.076 Y70.459 E9.39906
G1 X69.708 Y69.766 E9.43026
G0 F6000 X70.1 Y69.941
G1 F1200 X70.785 Y69.326 E9.46088
G1 X71.522 Y68.774 E9.4915
G1 X72.303 Y68.287 E9.52211
G1 X73.124 Y67.87 E9.55274
G1 X73.978 Y67.526 E9.58336
G1 X74.858 Y67.257 E9.61397
G1 X75.759 Y67.066 E9.6446
G1 X76.673 Y66.953 E9.67523
G1 X77.553 Y66.92 E9.70452
G1 X78.538 Y66.924 E9.73728
G1 X78.756 Y66.927 E9.74454
G1 X80.362 Y66.968 E9.79797
G1 X81.276 Y67.003 E9.82839
G1 X81.56 Y67.018 E9.83785
G1 X82.033 Y67.049 E9.85362
G1 X84.064 Y67.2 E9.92135
G1 X84.975 Y67.28 E9.95177
G1 X85.228 Y67.305 E9.96023
G1 X85.733 Y67.362 E9.97713
G1 X87.82 Y67.621 E10.04708
G1 X88.654 Y67.736 E10.07508
G1 X89.221 Y67.825 E10.09417
G1 X91.312 Y68.187 E10.16475
G1 X92.344 Y68.38 E10.19967
G1 X92.629 Y68.437 E10.20933
G1 X92.932 Y68.503 E10.21965
G1 X94.933 Y68.952 E10.28786
G1 X95.916 Y69.186 E10.32147
G1 X96.21 Y69.26 E10.33155
G1 X96.663 Y69.382 E10.34715
G1 X98.65 Y69.933 E10.41573
G1 X99.521 Y70.188 E10.44592
G1 X99.758 Y70.26 E10.45416
G1 X100.199 Y70.401 E10.46956
G1 X102.197 Y71.062 E10.53955
G1 X103.042 Y71.355 E10.5693
G1 X103.269 Y71.437 E10.57733
G1 X103.729 Y71.609 E10.59366
G1 X105.631 Y72.345 E10.66149
G1 X106.515 Y72.7 E10.69318
G1 X106.779 Y72.809 E10.70268
G1 X107.134 Y72.964 E10.71556
G1 X109.061 Y73.819 E10.78568
G1 X109.895 Y74.203 E10.81622
G1 X110.111 Y74.305 E10.82416
G1 X110.519 Y74.505 E10.83927
G1 X112.42 Y75.463 E10.91008
G1 X113.211 Y75.876 E10.93976
G1 X113.435 Y75.996 E10.94821
G1 X113.807 Y76.202 E10.96235
G1 X115.617 Y77.23 E11.03158
G1 X116.466 Y77.727 E11.0643
G1 X116.887 Y77.983 E11.08069
G1 X118.696 Y79.127 E11.15188
G1 X119.541 Y79.678 E11.18543
G1 X119.761 Y79.825 E11.19423
G1 X120.155 Y80.096 E11.21014
G1 X121.872 Y81.308 E11.28004
G1 X122.626 Y81.856 E11.31104
G1 X123.103 Y82.218 E11.33096
G1 X124.84 Y83.574 E11.40425
G1 X125.488 Y84.094 E11.43189
G1 X125.682 Y84.253 E11.44023
G1 X126.067 Y84.578 E11.45699
G1 X127.533 Y85.844 E11.52141
G1 X128.342 Y86.562 E11.55739
G1 X128.537 Y86.739 E11.56615
G1 X128.804 Y86.989 E11.57831
G1 X130.293 Y88.405 E11.64666
G1 X131.008 Y89.106 E11.67996
G1 X131.358 Y89.46 E11.69652
G1 X132.838 Y91.013 E11.76787
G1 X133.586 Y91.82 E11.80447
G1 X133.782 Y92.037 E11.81419
G1 X134 Y92.286 E11.8252
G1 X135.414 Y93.926 E11.89722
G1 X135.993 Y94.617 E11.9272
G1 X136.293 Y94.988 E11.94307
G1 X137.734 Y96.836 E12.02102
G1 X138.287 Y97.567 E12.0515
G1 X138.579 Y97.968 E12.068
G1 X139.812 Y99.715 E12.13912
G1 X140.397 Y100.569 E12.17355
G1 X140.691 Y101.018 E12.1914
G1 X141.927 Y102.97 E12.26825
G1 X142.369 Y103.69 E12.29635
G1 X142.508 Y103.924 E12.3054
G1 X142.732 Y104.311 E12.32027
G1 X143.794 Y106.19 E12.39206
G1 X144.196 Y106.924 E12.41989
G1 X144.434 Y107.376 E12.43688
G1 X145.476 Y109.447 E12.51399
G1 X145.861 Y110.238 E12.54325
G1 X145.973 Y110.475 E12.55197
G1 X146.17 Y110.909 E12.56782
G1 X147.026 Y112.844 E12.6382
G1 X147.362 Y113.632 E12.66669
G1 X147.584 Y114.183 E12.68645
G1 X148.32 Y116.087 E12.75434
G1 X148.717 Y117.162 E12.79245
G1 X148.865 Y117.582 E12.80727
G1 X149.541 Y119.623 E12.87878
G1 X149.859 Y120.634 E12.91403
G1 X149.932 Y120.874 E12.92237
G1 X150.066 Y121.341 E12.93853
G1 X150.614 Y123.326 E13.00702
G1 X150.85 Y124.226 E13.03797
G1 X150.919 Y124.502 E13.04743
G1 X150.993 Y124.82 E13.05829
G1 X151.486 Y127.018 E13.13321
G1 X151.655 Y127.825 E13.16063
G1 X151.71 Y128.105 E13.17012
G1 X151.774 Y128.46 E13.18212
G1 X152.128 Y130.505 E13.25115
G1 X152.284 Y131.487 E13.28422
G1 X152.358 Y132.011 E13.30182
G1 X152.64 Y134.293 E13.3783
G1 X152.732 Y135.131 E13.40634
G1 X152.759 Y135.414 E13.41579
G1 X152.799 Y135.905 E13.43218
G1 X152.951 Y137.97 E13.50105
G1 X153.005 Y138.867 E13.53094
G1 X153.018 Y139.156 E13.54056
G1 X153.03 Y139.515 E13.5525
G1 X153.082 Y141.648 E13.62347
G1 X153.089 Y142.378 E13.64775
G1 X153.057 Y143.298 E13.67837
G1 X152.946 Y144.212 E13.70899
G1 X152.757 Y145.113 E13.73961
G1 X152.489 Y145.994 E13.77024
G1 X152.147 Y146.849 E13.80087
G1 X151.731 Y147.67 E13.83148
G1 X151.246 Y148.453 E13.86211
G1 X150.695 Y149.19 E13.89272
G1 X150.082 Y149.877 E13.92334
G1 X149.411 Y150.508 E13.95398
G1 X148.688 Y151.078 E13.9846
G1 X147.919 Y151.584 E14.01522
G1 X147.108 Y152.02 E14.04584
G1 X146.263 Y152.385 E14.07646
G1 X145.389 Y152.675 E14.10708
G1 X144.494 Y152.889 E14.13769
G1 X143.583 Y153.023 E14.16832
G1 X142.702 Y153.078 E14.19768
G1 X141.707 Y153.098 E14.23078
G1 X141.494 Y153.1 E14.23786
G1 X108.056 Y153.099 E15.35001
G1 X107.353 Y153.089 E15.3734
G1 X106.434 Y153.036 E15.40402
G1 X105.523 Y152.903 E15.43464
G1 X104.627 Y152.692 E15.46525
G1 X103.753 Y152.404 E15.49586
G1 X102.906 Y152.041 E15.52651
G1 X102.095 Y151.606 E15.55712
G1 X101.324 Y151.102 E15.58776
G1 X100.27 Y150.237 E15.63311
G1 X99.936 Y149.922 E15.64838
G1 X99.741 Y149.731 E15.65745
G1 X70.369 Y120.358 E17.03905
G1 X69.898 Y119.872 E17.06156
G1 X69.287 Y119.184 E17.09216
G1 X68.737 Y118.445 E17.1228
G1 X68.254 Y117.661 E17.15343
G1 X67.841 Y116.839 E17.18402
G1 X67.5 Y115.983 E17.21467
G1 X67.235 Y115.101 E17.2453
G1 X67.048 Y114.2 E17.27591
G1 X66.916 Y112.853 E17.32092
G1 X66.906 Y112.477 E17.33343
G1 X66.9 Y111.938 E17.35136
G1 X66.901 Y78.042 E18.47875
G1 X66.911 Y77.364 E18.5013
G1 X66.965 Y76.445 E18.53192
G1 X67.098 Y75.534 E18.56254
G1 X67.309 Y74.638 E18.59316
G1 X67.598 Y73.763 E18.62381
G1 X67.961 Y72.917 E18.65442
G1 X68.397 Y72.106 E18.68505
G1 X68.901 Y71.336 E18.71566
G1 X69.47 Y70.612 E18.74628
G1 X70.1 Y69.941 E18.7769
G0 F6000 X70.491 Y70.119
G1 F1200 X71.173 Y69.527 E18.80693
G1 X71.905 Y68.998 E18.83697
G1 X72.681 Y68.536 E18.86701
G1 X73.494 Y68.144 E18.89703
G1 X74.339 Y67.825 E18.92707
G1 X75.209 Y67.583 E18.95711
G1 X76.097 Y67.418 E18.98715
G1 X76.996 Y67.333 E19.01718
G1 X77.551 Y67.32 E19.03565
G1 X78.536 Y67.324 E19.06841
G1 X78.746 Y67.327 E19.07539
G1 X80.346 Y67.367 E19.12863
G1 X81.26 Y67.402 E19.15905
G1 X81.534 Y67.417 E19.16817
G1 X82.004 Y67.448 E19.18384
G1 X84.029 Y67.598 E19.25138
G1 X84.94 Y67.678 E19.28179
G1 X85.183 Y67.702 E19.28992
G1 X85.684 Y67.759 E19.30669
G1 X87.624 Y67.999 E19.3717
G1 X88.599 Y68.133 E19.40444
G1 X88.828 Y68.167 E19.41214
G1 X89.28 Y68.24 E19.42736
G1 X91.38 Y68.606 E19.49826
G1 X92.27 Y68.773 E19.52838
G1 X92.545 Y68.828 E19.53771
G1 X92.844 Y68.893 E19.54789
G1 X94.845 Y69.342 E19.61609
G1 X95.824 Y69.575 E19.64957
G1 X96.106 Y69.646 E19.65924
G1 X96.556 Y69.767 E19.67474
G1 X98.392 Y70.275 E19.7381
G1 X99.409 Y70.572 E19.77334
G1 X99.637 Y70.642 E19.78127
G1 X100.073 Y70.781 E19.79649
G1 X102.066 Y71.44 E19.86631
G1 X102.911 Y71.733 E19.89605
G1 X103.129 Y71.811 E19.90375
G1 X103.585 Y71.982 E19.91995
G1 X105.482 Y72.716 E19.9876
G1 X106.366 Y73.071 E20.01929
G1 X106.62 Y73.177 E20.02844
G1 X106.972 Y73.33 E20.04121
G1 X108.894 Y74.182 E20.11113
G1 X109.728 Y74.566 E20.14167
G1 X109.936 Y74.664 E20.14932
G1 X110.339 Y74.862 E20.16425
G1 X112.235 Y75.817 E20.23486
G1 X113.026 Y76.23 E20.26454
G1 X113.242 Y76.346 E20.2727
G1 X113.61 Y76.55 E20.28669
G1 X115.415 Y77.575 E20.35573
G1 X116.264 Y78.072 E20.38845
G1 X116.678 Y78.324 E20.40457
G1 X118.482 Y79.465 E20.47556
G1 X119.323 Y80.013 E20.50895
G1 X119.534 Y80.154 E20.51739
G1 X119.924 Y80.423 E20.53315
G1 X121.637 Y81.632 E20.60289
G1 X122.391 Y82.18 E20.63389
G1 X122.779 Y82.473 E20.65006
G1 X124.478 Y83.797 E20.7217
G1 X125.238 Y84.406 E20.75409
G1 X125.424 Y84.559 E20.7621
G1 X125.806 Y84.881 E20.77872
G1 X127.379 Y86.241 E20.84788
G1 X128.077 Y86.861 E20.87893
G1 X128.46 Y87.215 E20.89628
G1 X130.017 Y88.695 E20.96773
G1 X130.727 Y89.391 E21.0008
G1 X130.855 Y89.518 E21.00679
G1 X131.183 Y89.854 E21.02241
G1 X132.646 Y91.392 E21.09301
G1 X133.293 Y92.091 E21.12469
G1 X133.481 Y92.3 E21.13404
G1 X135.01 Y94.069 E21.21181
G1 X135.686 Y94.874 E21.24677
G1 X135.981 Y95.238 E21.26236
G1 X137.324 Y96.959 E21.33496
G1 X137.968 Y97.808 E21.37041
G1 X138.255 Y98.202 E21.38662
G1 X139.485 Y99.946 E21.4576
G1 X140.066 Y100.795 E21.49182
G1 X140.207 Y101.005 E21.50023
G1 X140.414 Y101.326 E21.51293
G1 X141.586 Y103.18 E21.58588
G1 X142.028 Y103.9 E21.61398
G1 X142.162 Y104.124 E21.62267
G1 X142.384 Y104.508 E21.63742
G1 X143.374 Y106.257 E21.70426
G1 X143.845 Y107.116 E21.73685
G1 X144.08 Y107.561 E21.75358
G1 X145.058 Y109.504 E21.82593
G1 X145.501 Y110.413 E21.85957
G1 X145.609 Y110.641 E21.86796
G1 X145.804 Y111.071 E21.88366
G1 X146.658 Y113.001 E21.95386
G1 X146.994 Y113.789 E21.98235
G1 X147.088 Y114.017 E21.99055
G1 X147.251 Y114.429 E22.00529
G1 X148.004 Y116.382 E22.07491
G1 X148.342 Y117.3 E22.10744
G1 X148.487 Y117.713 E22.122
G1 X149.161 Y119.748 E22.1933
G1 X149.478 Y120.753 E22.22835
G1 X149.547 Y120.984 E22.23637
G1 X149.68 Y121.448 E22.25242
G1 X150.227 Y123.428 E22.32075
G1 X150.463 Y124.328 E22.35169
G1 X150.529 Y124.593 E22.36077
G1 X150.602 Y124.908 E22.37153
G1 X151.094 Y127.1 E22.44625
G1 X151.263 Y127.907 E22.47367
G1 X151.316 Y128.177 E22.48282
G1 X151.38 Y128.528 E22.49469
G1 X151.734 Y130.573 E22.56372
G1 X151.889 Y131.55 E22.59662
G1 X151.921 Y131.765 E22.60385
G1 X151.979 Y132.198 E22.61838
G1 X152.242 Y134.337 E22.69006
G1 X152.334 Y135.175 E22.7181
G1 X152.36 Y135.447 E22.72719
G1 X152.4 Y135.935 E22.74347
G1 X152.552 Y137.994 E22.81214
G1 X152.606 Y138.891 E22.84203
G1 X152.619 Y139.169 E22.85129
G1 X152.63 Y139.525 E22.86313
G1 X152.682 Y141.652 E22.9339
G1 X152.689 Y142.382 E22.95818
G1 X152.657 Y143.285 E22.98823
G1 X152.546 Y144.181 E23.01826
G1 X152.356 Y145.064 E23.0483
G1 X152.089 Y145.927 E23.07835
G1 X151.747 Y146.762 E23.10836
G1 X151.331 Y147.564 E23.13841
G1 X150.847 Y148.327 E23.16846
G1 X150.297 Y149.043 E23.19849
G1 X149.686 Y149.708 E23.22853
G1 X149.019 Y150.316 E23.25855
G1 X148.3 Y150.863 E23.28859
G1 X147.536 Y151.344 E23.31862
G1 X146.732 Y151.756 E23.34867
