;FLAVOR:Marlin
;TIME:7198
;Filament used: 7.68341m
;Layer height: 0.2
;MINX:73.517
;MINY:73.495
;MINZ:0.2
;MAXX:146.506
;MAXY:146.506
;MAXZ:20.8
;Generated with Cura_SteamEngine 4.9.0
M140 S60
M105
M190 S60
M104 S200
M105
M109 S200
M82 ;absolute extrusion mode
; Ender 3 Custom Start G-code
G92 E0 ; Reset Extruder
G28 ; Home all axes
G1 Z2.0 F3000 ; Move Z Axis up little to prevent scratching of Heat Bed
G1 X0.1 Y20 Z0.3 F5000.0 ; Move to start position
G1 X0.1 Y200.0 Z0.3 F1500.0 E15 ; Draw the first line
G1 X0.4 Y200.0 Z0.3 F5000.0 ; Move to side a little
G1 X0.4 Y20 Z0.3 F1500.0 E30 ; Draw the second line
G92 E0 ; Reset Extruder
G1 Z2.0 F3000 ; Move Z Axis up little to prevent scratching of Heat Bed
G1 X5 Y20 Z0.3 F5000.0 ; Move over to prevent blob squish
G92 E0
G92 E0
G1 F1500 E-6.5
;LAYER_COUNT:104
;LAYER:0
M107
G0 F6000 X84.096 Y84.275 Z0.2
;TYPE:SKIRT
G1 F1500 E0
G1 F1200 X84.899 Y83.516 E0.03675
G1 X86.068 Y82.45 E0.08937
G1 X86.592 Y81.985 E0.11267
G1 X87.324 Y81.39 E0.14405
G1 X88.214 Y80.729 E0.18092
G1 X89.512 Y79.798 E0.23405
G1 X89.992 Y79.464 E0.2535
G1 X90.781 Y78.963 E0.28458
G1 X91.794 Y78.379 E0.32347
G1 X93.071 Y77.672 E0.37202
G1 X93.778 Y77.293 E0.3987
G1 X94.669 Y76.867 E0.43155
G1 X95.659 Y76.448 E0.4673
G1 X97.171 Y75.835 E0.52157
G1 X97.781 Y75.597 E0.54335
G1 X98.693 Y75.287 E0.57539
G1 X99.78 Y74.971 E0.61304
G1 X100.848 Y74.68 E0.64985
G1 X101.057 Y74.625 E0.65704
G1 X102.222 Y74.332 E0.697
G1 X103.154 Y74.14 E0.72865
G1 X103.708 Y74.052 E0.7473
G1 X105.502 Y73.785 E0.80763
G1 X106.117 Y73.702 E0.82827
G1 X107.033 Y73.617 E0.85887
G1 X108.24 Y73.556 E0.89906
G1 X108.462 Y73.547 E0.90645
G1 X109.9 Y73.505 E0.9543
G1 X110.498 Y73.495 E0.97419
G1 X111.463 Y73.521 E1.0063
G1 X112.537 Y73.599 E1.04212
G1 X114.233 Y73.75 E1.09875
G1 X114.843 Y73.813 E1.11914
G1 X115.798 Y73.954 E1.15125
G1 X116.694 Y74.127 E1.1816
G1 X117.96 Y74.393 E1.22463
G1 X118.173 Y74.44 E1.23189
G1 X119.351 Y74.713 E1.2721
G1 X119.966 Y74.874 E1.29325
G1 X120.325 Y74.985 E1.30575
G1 X120.812 Y75.144 E1.32279
G1 X122.556 Y75.734 E1.38402
G1 X123.177 Y75.953 E1.40592
G1 X123.517 Y76.079 E1.41798
G1 X124.013 Y76.282 E1.43581
G1 X124.314 Y76.414 E1.44674
G1 X124.621 Y76.554 E1.45796
G1 X126.366 Y77.384 E1.52223
G1 X127.128 Y77.759 E1.55048
G1 X127.985 Y78.23 E1.583
G1 X128.865 Y78.767 E1.61729
G1 X130.292 Y79.667 E1.6734
G1 X130.844 Y80.027 E1.69532
G1 X131.621 Y80.584 E1.72712
G1 X132.477 Y81.257 E1.76334
G1 X133.605 Y82.172 E1.81165
G1 X134.31 Y82.763 E1.84224
G1 X135.013 Y83.407 E1.87395
G1 X135.64 Y84.035 E1.90347
G1 X136.817 Y85.247 E1.95966
G1 X137.131 Y85.579 E1.97486
G1 X137.395 Y85.869 E1.9879
G1 X137.697 Y86.212 E2.0031
G1 X138.093 Y86.689 E2.02372
G1 X138.51 Y87.22 E2.04618
G1 X139.538 Y88.569 E2.10259
G1 X139.954 Y89.129 E2.12579
G1 X140.497 Y89.931 E2.15801
G1 X140.97 Y90.701 E2.18806
G1 X141.809 Y92.117 E2.24281
G1 X142.224 Y92.84 E2.27053
G1 X142.664 Y93.695 E2.30251
G1 X143.132 Y94.714 E2.33981
G1 X143.786 Y96.207 E2.39402
G1 X144.048 Y96.827 E2.41641
G1 X144.382 Y97.723 E2.44821
G1 X144.689 Y98.676 E2.48151
G1 X145.148 Y100.179 E2.53378
G1 X145.264 Y100.577 E2.54757
G1 X145.369 Y100.963 E2.56088
G1 X145.527 Y101.589 E2.58235
G1 X145.667 Y102.225 E2.60401
G1 X145.738 Y102.6 E2.61671
G1 X146.079 Y104.499 E2.68088
G1 X146.181 Y105.114 E2.70161
G1 X146.297 Y106.074 E2.73377
G1 X146.361 Y106.91 E2.76166
G1 X146.468 Y108.675 E2.82047
G1 X146.504 Y109.421 E2.84531
G1 X146.506 Y110.405 E2.87804
G1 X146.457 Y111.513 E2.91493
G1 X146.381 Y112.807 E2.95804
G1 X146.3 Y113.89 E2.99416
G1 X146.187 Y114.831 E3.02569
G1 X146.047 Y115.68 E3.0543
G1 X145.757 Y117.296 E3.10891
G1 X145.689 Y117.655 E3.12106
G1 X145.593 Y118.11 E3.13653
G1 X145.437 Y118.778 E3.15935
G1 X145.285 Y119.354 E3.17916
G1 X145.172 Y119.739 E3.19251
G1 X144.609 Y121.578 E3.25647
G1 X144.437 Y122.113 E3.27516
G1 X144.213 Y122.743 E3.2974
G1 X144.048 Y123.166 E3.3125
G1 X143.923 Y123.472 E3.3235
G1 X143.712 Y123.967 E3.3414
G1 X143.022 Y125.532 E3.39828
G1 X142.741 Y126.15 E3.42086
G1 X142.29 Y127.034 E3.45387
G1 X141.744 Y127.993 E3.49057
G1 X140.887 Y129.442 E3.54657
G1 X140.606 Y129.903 E3.56452
G1 X140.464 Y130.128 E3.57337
G1 X140.253 Y130.451 E3.5862
G1 X140.058 Y130.731 E3.59755
G1 X139.922 Y130.92 E3.6053
G1 X139.743 Y131.161 E3.61528
G1 X138.472 Y132.827 E3.68498
G1 X138.017 Y133.405 E3.70944
G1 X137.419 Y134.103 E3.74001
G1 X136.728 Y134.844 E3.77371
G1 X136.575 Y135.005 E3.7811
G1 X135.64 Y135.968 E3.82574
G1 X135.005 Y136.604 E3.85564
G1 X134.544 Y137.039 E3.87672
G1 X134.434 Y137.137 E3.88162
G1 X134.111 Y137.414 E3.89577
G1 X133.786 Y137.682 E3.90978
G1 X132.265 Y138.914 E3.97488
G1 X131.737 Y139.331 E3.99726
G1 X130.942 Y139.904 E4.02985
G1 X130.184 Y140.4 E4.05998
G1 X128.79 Y141.28 E4.11481
G1 X128.076 Y141.718 E4.14267
G1 X127.229 Y142.186 E4.17486
G1 X126.302 Y142.645 E4.20926
G1 X124.913 Y143.307 E4.26044
G1 X124.392 Y143.547 E4.27952
G1 X124.067 Y143.69 E4.29133
G1 X123.74 Y143.828 E4.30313
G1 X123.118 Y144.069 E4.32532
G1 X122.454 Y144.302 E4.34873
G1 X120.826 Y144.85 E4.40586
G1 X120.295 Y145.021 E4.42441
G1 X119.632 Y145.212 E4.44736
G1 X118.896 Y145.399 E4.47262
G1 X118.463 Y145.5 E4.48741
G1 X116.545 Y145.904 E4.5526
G1 X115.955 Y146.02 E4.5726
G1 X114.995 Y146.165 E4.60489
G1 X113.887 Y146.281 E4.64194
G1 X112.04 Y146.444 E4.70361
G1 X111.707 Y146.469 E4.71472
G1 X111.378 Y146.488 E4.72568
G1 X110.715 Y146.506 E4.74774
G1 X110.336 Y146.505 E4.76035
G1 X110.043 Y146.5 E4.77009
G1 X107.989 Y146.439 E4.83844
G1 X107.479 Y146.416 E4.85542
G1 X107.145 Y146.396 E4.86655
G1 X106.788 Y146.369 E4.87846
G1 X106.147 Y146.301 E4.8999
G1 X105.375 Y146.196 E4.92581
G1 X103.844 Y145.969 E4.97729
G1 X102.988 Y145.829 E5.00614
G1 X102.34 Y145.702 E5.0281
G1 X102.164 Y145.662 E5.0341
G1 X101.832 Y145.582 E5.04546
G1 X101.339 Y145.453 E5.06241
G1 X99.484 Y144.946 E5.12637
G1 X98.858 Y144.766 E5.14803
G1 X97.942 Y144.458 E5.18018
G1 X96.867 Y144.042 E5.21851
G1 X95.365 Y143.431 E5.27245
G1 X94.752 Y143.171 E5.29459
G1 X93.9 Y142.765 E5.32598
G1 X92.972 Y142.272 E5.36093
G1 X91.608 Y141.519 E5.41276
G1 X90.988 Y141.166 E5.43648
G1 X90.182 Y140.66 E5.46814
G1 X89.391 Y140.114 E5.50011
G1 X87.944 Y139.076 E5.55933
G1 X87.497 Y138.746 E5.57781
G1 X86.978 Y138.338 E5.59977
G1 X86.717 Y138.12 E5.61108
G1 X86.454 Y137.894 E5.62262
G1 X85.953 Y137.446 E5.64497
G1 X84.669 Y136.27 E5.70288
G1 X84.216 Y135.845 E5.72354
G1 X83.536 Y135.148 E5.75593
G1 X82.786 Y134.306 E5.79343
G1 X81.744 Y133.092 E5.84664
G1 X81.294 Y132.554 E5.86997
G1 X80.713 Y131.794 E5.90179
G1 X80.113 Y130.932 E5.93672
G1 X79.515 Y130.044 E5.97233
G1 X79.388 Y129.852 E5.97999
G1 X78.679 Y128.75 E6.02357
G1 X78.215 Y127.957 E6.05413
G1 X77.992 Y127.534 E6.07003
G1 X77.124 Y125.843 E6.13325
G1 X76.869 Y125.331 E6.15228
G1 X76.573 Y124.685 E6.17591
G1 X76.387 Y124.242 E6.19189
G1 X76.263 Y123.935 E6.2029
G1 X76.101 Y123.511 E6.218
G1 X75.483 Y121.847 E6.27704
G1 X75.251 Y121.196 E6.30002
G1 X74.967 Y120.27 E6.33224
G1 X74.694 Y119.215 E6.36848
G1 X74.24 Y117.329 E6.433
G1 X74.112 Y116.723 E6.45361
G1 X74.03 Y116.22 E6.47056
G1 X73.855 Y114.975 E6.51237
G1 X73.826 Y114.752 E6.51985
G1 X73.67 Y113.436 E6.56393
G1 X73.592 Y112.696 E6.58868
G1 X73.547 Y112.132 E6.6075
G1 X73.532 Y111.807 E6.61832
G1 X73.522 Y111.475 E6.62936
G1 X73.517 Y111.15 E6.64017
G1 X73.517 Y109.036 E6.71049
G1 X73.525 Y108.485 E6.72881
G1 X73.554 Y107.84 E6.75029
G1 X73.586 Y107.404 E6.76483
G1 X73.617 Y107.056 E6.77645
G1 X73.676 Y106.501 E6.79501
G1 X73.884 Y104.761 E6.8533
G1 X73.972 Y104.1 E6.87548
G1 X74.141 Y103.153 E6.90747
G1 X74.384 Y102.071 E6.94436
G1 X74.724 Y100.665 E6.99247
G1 X74.933 Y99.849 E7.02048
G1 X75.212 Y98.929 E7.05246
G1 X75.566 Y97.925 E7.08787
G1 X76.073 Y96.559 E7.13633
G1 X76.379 Y95.769 E7.16451
G1 X76.558 Y95.335 E7.18012
G1 X76.707 Y95.006 E7.19213
G1 X76.806 Y94.795 E7.19989
G1 X76.974 Y94.452 E7.21259
G1 X77.97 Y92.509 E7.28521
G1 X78.243 Y91.995 E7.30457
G1 X78.708 Y91.202 E7.33514
G1 X79.367 Y90.178 E7.37564
G1 X79.492 Y89.988 E7.38321
G1 X80.276 Y88.825 E7.42986
G1 X80.652 Y88.284 E7.45177
G1 X81.227 Y87.529 E7.48334
G1 X81.78 Y86.864 E7.5121
G1 X82.904 Y85.558 E7.56941
G1 X83.429 Y84.964 E7.59578
G1 X84.096 Y84.275 E7.62767
G0 F6000 X84.371 Y84.565
G1 F1200 X85.03 Y83.941 E7.65786
G1 X86.22 Y82.852 E7.71151
G1 X86.857 Y82.285 E7.73987
G1 X87.562 Y81.711 E7.77011
G1 X88.447 Y81.054 E7.80677
G1 X89.741 Y80.126 E7.85973
G1 X90.221 Y79.792 E7.87918
G1 X90.981 Y79.31 E7.90912
G1 X91.994 Y78.726 E7.94801
G1 X92.164 Y78.63 E7.9545
G1 X93.391 Y77.953 E8.00111
G1 X93.967 Y77.645 E8.02284
G1 X94.825 Y77.235 E8.05446
G1 X95.657 Y76.882 E8.08452
G1 X97.316 Y76.208 E8.14408
G1 X97.926 Y75.97 E8.16586
G1 X98.805 Y75.671 E8.19674
G1 X99.885 Y75.357 E8.23415
G1 X100.953 Y75.066 E8.27097
G1 X101.155 Y75.013 E8.27791
G1 X102.32 Y74.72 E8.31787
G1 X103.218 Y74.535 E8.34836
G1 X103.767 Y74.447 E8.36685
G1 X105.555 Y74.181 E8.42698
G1 X106.17 Y74.098 E8.44762
G1 X107.053 Y74.017 E8.47711
G1 X108.26 Y73.956 E8.51731
G1 X108.474 Y73.947 E8.52443
G1 X109.907 Y73.904 E8.57211
G1 X110.505 Y73.894 E8.59201
G1 X111.435 Y73.92 E8.62295
G1 X112.502 Y73.997 E8.65853
G1 X114.192 Y74.148 E8.71496
G1 X114.802 Y74.211 E8.73536
G1 X115.723 Y74.347 E8.76633
G1 X116.797 Y74.556 E8.80272
G1 X117.878 Y74.784 E8.83946
G1 X119.261 Y75.103 E8.88667
G1 X119.855 Y75.258 E8.90709
G1 X120.201 Y75.365 E8.91913
G1 X120.684 Y75.523 E8.93604
G1 X122.423 Y76.111 E8.99709
G1 X123.044 Y76.33 E9.01899
G1 X123.374 Y76.452 E9.0307
G1 X123.852 Y76.648 E9.04788
G1 X124.153 Y76.78 E9.05881
G1 X124.449 Y76.916 E9.06964
G1 X126.327 Y77.81 E9.13882
G1 X126.952 Y78.118 E9.162
G1 X127.777 Y78.571 E9.1933
G1 X128.652 Y79.105 E9.2274
G1 X130.073 Y80.002 E9.28329
G1 X130.625 Y80.362 E9.30521
G1 X131.374 Y80.898 E9.33584
G1 X132.091 Y81.46 E9.36614
G1 X133.212 Y82.367 E9.4141
G1 X134.053 Y83.07 E9.45056
G1 X134.731 Y83.69 E9.48111
G1 X135.353 Y84.313 E9.5104
G1 X136.526 Y85.522 E9.56642
G1 X136.84 Y85.854 E9.58162
G1 X137.095 Y86.133 E9.59419
G1 X137.397 Y86.476 E9.60939
G1 X137.779 Y86.936 E9.62928
G1 X138.192 Y87.463 E9.65155
G1 X139.217 Y88.808 E9.70779
G1 X139.633 Y89.368 E9.731
G1 X140.156 Y90.141 E9.76204
G1 X140.721 Y91.063 E9.798
G1 X141.465 Y92.321 E9.84662
G1 X141.876 Y93.039 E9.87413
G1 X142.301 Y93.863 E9.90497
G1 X142.766 Y94.875 E9.94201
G1 X143.418 Y96.363 E9.99605
G1 X143.68 Y96.983 E10.01843
G1 X144.001 Y97.846 E10.04906
G1 X144.306 Y98.793 E10.08215
G1 X144.764 Y100.291 E10.13425
G1 X144.88 Y100.689 E10.14804
G1 X144.981 Y101.061 E10.16086
G1 X145.139 Y101.687 E10.18233
G1 X145.274 Y102.299 E10.20318
G1 X145.344 Y102.671 E10.21577
G1 X145.684 Y104.565 E10.27977
G1 X145.786 Y105.18 E10.3005
G1 X145.898 Y106.105 E10.33149
G1 X145.974 Y107.115 E10.36518
G1 X146.076 Y108.84 E10.42265
G1 X146.104 Y109.44 E10.44263
G1 X146.106 Y110.388 E10.47416
G1 X146.058 Y111.489 E10.51082
G1 X145.982 Y112.783 E10.55393
G1 X145.901 Y113.86 E10.58985
G1 X145.793 Y114.767 E10.62023
G1 X145.654 Y115.609 E10.64862
G1 X145.364 Y117.222 E10.70312
G1 X145.296 Y117.581 E10.71528
G1 X145.203 Y118.019 E10.73017
G1 X145.047 Y118.687 E10.75298
G1 X144.901 Y119.242 E10.77207
G1 X144.79 Y119.622 E10.78524
G1 X144.274 Y121.31 E10.84395
G1 X144.056 Y121.99 E10.8677
G1 X143.84 Y122.598 E10.88916
G1 X143.675 Y123.021 E10.90426
G1 X143.555 Y123.316 E10.91485
G1 X143.346 Y123.805 E10.93254
G1 X142.658 Y125.366 E10.98928
G1 X142.377 Y125.984 E11.01186
G1 X141.943 Y126.836 E11.04366
G1 X141.487 Y127.638 E11.07434
G1 X140.545 Y129.235 E11.13601
G1 X140.379 Y129.51 E11.1467
G1 X140.126 Y129.914 E11.16255
G1 X139.921 Y130.227 E11.175
G1 X139.733 Y130.497 E11.18594
G1 X139.597 Y130.686 E11.19368
G1 X139.425 Y130.918 E11.20329
G1 X138.158 Y132.58 E11.2728
G1 X137.703 Y133.158 E11.29726
G1 X137.126 Y133.83 E11.32672
G1 X136.435 Y134.571 E11.36042
G1 X136.288 Y134.726 E11.36753
G1 X135.353 Y135.689 E11.41217
G1 X134.722 Y136.321 E11.44187
G1 X134.278 Y136.741 E11.4622
G1 X134.168 Y136.839 E11.4671
G1 X133.857 Y137.106 E11.48074
G1 X133.534 Y137.371 E11.49463
G1 X132.017 Y138.601 E11.55959
G1 X131.489 Y139.018 E11.58197
G1 X130.723 Y139.569 E11.61335
G1 X129.813 Y140.163 E11.64949
G1 X128.457 Y141.016 E11.70278
G1 X127.867 Y141.377 E11.72578
G1 X127.051 Y141.828 E11.75679
G1 X126.13 Y142.284 E11.79097
G1 X124.746 Y142.944 E11.84197
G1 X124.225 Y143.184 E11.86105
G1 X123.911 Y143.322 E11.87246
G1 X123.584 Y143.46 E11.88426
G1 X122.985 Y143.692 E11.90563
G1 X122.326 Y143.923 E11.92885
G1 X120.703 Y144.47 E11.98582
G1 X120.172 Y144.641 E12.00437
G1 X119.533 Y144.825 E12.02649
G1 X118.797 Y145.012 E12.05175
G1 X118.38 Y145.109 E12.06599
G1 X116.468 Y145.512 E12.13098
G1 X115.878 Y145.628 E12.15098
G1 X114.953 Y145.768 E12.18209
G1 X114.04 Y145.865 E12.21263
G1 X112.005 Y146.046 E12.28058
G1 X111.684 Y146.069 E12.29128
G1 X111.355 Y146.088 E12.30225
G1 X110.716 Y146.106 E12.32351
G1 X110.337 Y146.105 E12.33611
G1 X110.055 Y146.1 E12.34549
G1 X108.007 Y146.039 E12.41364
G1 X107.497 Y146.016 E12.43062
G1 X107.176 Y145.997 E12.44132
G1 X106.819 Y145.97 E12.45322
G1 X106.201 Y145.905 E12.47389
G1 X105.433 Y145.8 E12.49967
G1 X103.732 Y145.547 E12.55687
G1 X103.053 Y145.435 E12.57976
G1 X102.429 Y145.312 E12.60091
G1 X102.253 Y145.272 E12.60692
G1 X101.933 Y145.195 E12.61786
G1 X101.444 Y145.067 E12.63468
G1 X99.735 Y144.601 E12.69359
G1 X98.969 Y144.381 E12.7201
G1 X98.085 Y144.085 E12.75111
G1 X97.19 Y143.74 E12.78301
G1 X95.674 Y143.126 E12.83741
G1 X94.908 Y142.803 E12.86506
G1 X94.087 Y142.412 E12.8953
G1 X93.165 Y141.922 E12.93003
G1 X91.806 Y141.172 E12.98166
G1 X91.186 Y140.819 E13.00539
G1 X90.409 Y140.331 E13.03591
G1 X89.618 Y139.785 E13.06787
G1 X88.295 Y138.837 E13.12201
G1 X87.734 Y138.424 E13.14518
G1 X87.235 Y138.031 E13.1663
G1 X86.974 Y137.813 E13.17761
G1 X86.72 Y137.595 E13.18875
G1 X86.223 Y137.151 E13.21091
G1 X84.942 Y135.978 E13.26868
G1 X84.489 Y135.553 E13.28934
G1 X83.834 Y134.882 E13.32053
G1 X83.219 Y134.193 E13.35125
G1 X82.145 Y132.946 E13.40599
G1 X81.601 Y132.298 E13.43413
G1 X81.041 Y131.565 E13.46481
G1 X80.445 Y130.709 E13.4995
G1 X79.847 Y129.821 E13.53511
G1 X79.725 Y129.635 E13.5425
G1 X79.016 Y128.533 E13.58609
G1 X78.568 Y127.769 E13.61555
G1 X78.347 Y127.352 E13.63124
G1 X77.482 Y125.665 E13.6943
G1 X77.227 Y125.153 E13.71332
G1 X76.942 Y124.531 E13.73608
G1 X76.756 Y124.088 E13.75206
G1 X76.636 Y123.791 E13.76271
G1 X76.476 Y123.372 E13.77763
G1 X75.86 Y121.712 E13.83652
G1 X75.628 Y121.061 E13.85951
G1 X75.354 Y120.169 E13.89054
G1 X75.083 Y119.122 E13.92651
G1 X74.629 Y117.236 E13.99103
G1 X74.506 Y116.651 E14.01092
G1 X74.426 Y116.164 E14.02733
G1 X74.251 Y114.919 E14.06915
G1 X74.223 Y114.704 E14.07636
G1 X74.067 Y113.394 E14.12024
G1 X73.989 Y112.654 E14.14499
G1 X73.946 Y112.108 E14.1632
G1 X73.932 Y111.795 E14.17362
G1 X73.922 Y111.463 E14.18467
G1 X73.917 Y111.149 E14.19512
G1 X73.917 Y109.042 E14.2652
G1 X73.925 Y108.491 E14.28352
G1 X73.952 Y107.869 E14.30423
G1 X73.984 Y107.433 E14.31877
G1 X74.014 Y107.098 E14.32996
G1 X74.073 Y106.548 E14.34836
G1 X74.262 Y104.96 E14.40155
G1 X74.369 Y104.153 E14.42862
G1 X74.531 Y103.24 E14.45946
G1 X74.731 Y102.345 E14.48996
G1 X75.113 Y100.76 E14.54419
G1 X75.32 Y99.948 E14.57206
G1 X75.589 Y99.062 E14.60286
G1 X75.941 Y98.065 E14.63803
G1 X76.448 Y96.699 E14.68649
G1 X76.752 Y95.914 E14.71449
G1 X76.925 Y95.495 E14.72956
G1 X77.069 Y95.176 E14.7412
G1 X77.168 Y94.965 E14.74896
G1 X77.33 Y94.634 E14.76121
G1 X78.251 Y92.836 E14.8284
G1 X78.597 Y92.183 E14.85298
G1 X79.044 Y91.419 E14.88242
G1 X79.703 Y90.395 E14.92293
G1 X79.824 Y90.212 E14.93022
G1 X80.605 Y89.053 E14.97671
G1 X80.981 Y88.512 E14.99862
G1 X81.535 Y87.784 E15.02905
G1 X82.088 Y87.119 E15.05781
G1 X83.305 Y85.706 E15.11984
G1 X83.728 Y85.229 E15.14104
G1 X84.371 Y84.565 E15.17178
G0 F6000 X84.646 Y84.856
G1 F1200 X85.439 Y84.107 E15.20806
G1 X86.599 Y83.049 E15.26028
G1 X87.123 Y82.584 E15.28358
G1 X87.801 Y82.032 E15.31266
G1 X88.541 Y81.481 E15.34335
G1 X89.843 Y80.544 E15.3967
G1 X89.969 Y80.454 E15.40185
