;FLAVOR:Marlin
;TIME:9582
;Filament used: 7.52025m
;Layer height: 0.2
;MINX:52.2
;MINY:94.2
;MINZ:0.2
;MAXX:167.8
;MAXY:125.8
;MAXZ:67
;Generated with Cura_SteamEngine 4.9.0
M140 S60
M105
M190 S60
M104 S215
M105
M109 S215
M82 ;absolute extrusion mode
; Ender 3 Custom Start G-code
G92 E0 ; Reset Extruder
G28 ; Home all axes
G1 Z2.0 F3000 ; Move Z Axis up little to prevent scratching of Heat Bed
G1 X0.1 Y20 Z0.3 F5000.0 ; Move to start position
G1 X0.1 Y200.0 Z0.3 F1500.0 E15 ; Draw the first line
G1 X0.4 Y200.0 Z0.3 F5000.0 ; Move to side a little
G1 X0.4 Y20 Z0.3 F1500.0 E30 ; Draw the second line
G92 E0 ; Reset Extruder
G1 Z2.0 F3000 ; Move Z Axis up little to prevent scratching of Heat Bed
G1 X5 Y20 Z0.3 F5000.0 ; Move over to prevent blob squish
G92 E0
G92 E0
G1 F1500 E-6.5
;LAYER_COUNT:335
;LAYER:0
M107
G0 F6000 X56.504 Y95.087 Z0.2
;TYPE:SKIRT
G1 F1500 E0
G1 F1200 X57.222 Y94.757 E0.02628
G1 X57.969 Y94.502 E0.05254
G1 X58.738 Y94.323 E0.0788
G1 X59.522 Y94.223 E0.10508
G1 X60.117 Y94.2 E0.12489
G1 X159.883 Y94.2 E3.44312
G1 X160.672 Y94.24 E3.46939
G1 X161.452 Y94.359 E3.49564
G1 X162.217 Y94.557 E3.52192
G1 X162.957 Y94.831 E3.54817
G1 X163.666 Y95.179 E3.57443
G1 X164.337 Y95.597 E3.60073
G1 X164.961 Y96.08 E3.62697
G1 X165.398 Y96.485 E3.64679
G1 X165.515 Y96.602 E3.65229
G1 X166.045 Y97.188 E3.67857
G1 X166.512 Y97.824 E3.70482
G1 X166.913 Y98.504 E3.73107
G1 X167.243 Y99.222 E3.75736
G1 X167.498 Y99.969 E3.78361
G1 X167.677 Y100.738 E3.80987
G1 X167.777 Y101.522 E3.83616
G1 X167.8 Y102.117 E3.85596
G1 X167.8 Y117.883 E4.38034
G1 X167.76 Y118.672 E4.40662
G1 X167.641 Y119.452 E4.43286
G1 X167.443 Y120.217 E4.45914
G1 X167.169 Y120.957 E4.48539
G1 X166.821 Y121.666 E4.51166
G1 X166.403 Y122.337 E4.53795
G1 X165.92 Y122.961 E4.5642
G1 X165.515 Y123.398 E4.58401
G1 X165.398 Y123.515 E4.58952
G1 X164.812 Y124.045 E4.6158
G1 X164.176 Y124.512 E4.64204
G1 X163.496 Y124.913 E4.6683
G1 X162.778 Y125.243 E4.69458
G1 X162.031 Y125.498 E4.72083
G1 X161.262 Y125.677 E4.74709
G1 X160.478 Y125.777 E4.77338
G1 X159.883 Y125.8 E4.79318
G1 X60.117 Y125.8 E8.11141
G1 X59.328 Y125.76 E8.13769
G1 X58.548 Y125.641 E8.16393
G1 X57.783 Y125.443 E8.19022
G1 X57.043 Y125.169 E8.21646
G1 X56.334 Y124.821 E8.24273
G1 X55.663 Y124.403 E8.26902
G1 X55.039 Y123.92 E8.29527
G1 X54.602 Y123.515 E8.31509
G1 X54.485 Y123.398 E8.32059
G1 X53.955 Y122.812 E8.34687
G1 X53.488 Y122.176 E8.37311
G1 X53.087 Y121.496 E8.39937
G1 X52.757 Y120.778 E8.42565
G1 X52.502 Y120.031 E8.4519
G1 X52.323 Y119.262 E8.47817
G1 X52.223 Y118.478 E8.50445
G1 X52.2 Y117.883 E8.52426
G1 X52.2 Y102.117 E9.04864
G1 X52.24 Y101.328 E9.07491
G1 X52.359 Y100.548 E9.10116
G1 X52.557 Y99.783 E9.12744
G1 X52.831 Y99.043 E9.15368
G1 X53.179 Y98.334 E9.17995
G1 X53.597 Y97.663 E9.20625
G1 X54.08 Y97.039 E9.23249
G1 X54.485 Y96.602 E9.25231
G1 X54.602 Y96.485 E9.25781
G1 X55.188 Y95.955 E9.28409
G1 X55.824 Y95.488 E9.31033
G1 X56.504 Y95.087 E9.33659
G0 F6000 X56.743 Y95.414
G1 F1200 X57.445 Y95.099 E9.36218
G1 X58.176 Y94.859 E9.38777
G1 X58.927 Y94.696 E9.41333
G1 X59.692 Y94.612 E9.43893
G1 X60.117 Y94.6 E9.45307
G1 X159.883 Y94.6 E12.7713
G1 X160.651 Y94.64 E12.79688
G1 X161.411 Y94.759 E12.82247
G1 X162.154 Y94.957 E12.84804
G1 X162.873 Y95.231 E12.87363
G1 X163.559 Y95.578 E12.8992
G1 X164.206 Y95.994 E12.92478
G1 X164.806 Y96.475 E12.95036
G1 X165.116 Y96.767 E12.96453
G1 X165.233 Y96.884 E12.97003
G1 X165.747 Y97.456 E12.99561
G1 X166.2 Y98.078 E13.0212
G1 X166.586 Y98.743 E13.04677
G1 X166.901 Y99.445 E13.07237
G1 X167.141 Y100.176 E13.09796
G1 X167.304 Y100.927 E13.12352
G1 X167.388 Y101.692 E13.14911
G1 X167.4 Y102.117 E13.16325
G1 X167.4 Y117.883 E13.68763
G1 X167.36 Y118.651 E13.71321
G1 X167.241 Y119.411 E13.7388
G1 X167.043 Y120.154 E13.76437
G1 X166.769 Y120.873 E13.78996
G1 X166.422 Y121.559 E13.81553
G1 X166.006 Y122.206 E13.84112
G1 X165.525 Y122.806 E13.86669
G1 X165.233 Y123.116 E13.88086
G1 X165.116 Y123.233 E13.88636
G1 X164.544 Y123.747 E13.91194
G1 X163.922 Y124.2 E13.93753
G1 X163.257 Y124.586 E13.96311
G1 X162.555 Y124.901 E13.9887
G1 X161.824 Y125.141 E14.01429
G1 X161.073 Y125.304 E14.03985
G1 X160.308 Y125.388 E14.06544
G1 X159.883 Y125.4 E14.07958
G1 X60.117 Y125.4 E17.39782
G1 X59.349 Y125.36 E17.42339
G1 X58.589 Y125.241 E17.44898
G1 X57.846 Y125.043 E17.47455
G1 X57.127 Y124.769 E17.50015
G1 X56.441 Y124.422 E17.52572
G1 X55.794 Y124.006 E17.5513
G1 X55.194 Y123.525 E17.57688
G1 X54.884 Y123.233 E17.59104
G1 X54.767 Y123.116 E17.59654
G1 X54.253 Y122.544 E17.62212
G1 X53.8 Y121.922 E17.64771
G1 X53.414 Y121.257 E17.67329
G1 X53.099 Y120.555 E17.69888
G1 X52.859 Y119.824 E17.72447
G1 X52.696 Y119.073 E17.75003
G1 X52.612 Y118.308 E17.77563
G1 X52.6 Y117.883 E17.78977
G1 X52.6 Y102.117 E18.31415
G1 X52.64 Y101.349 E18.33973
G1 X52.759 Y100.589 E18.36531
G1 X52.957 Y99.846 E18.39089
G1 X53.231 Y99.127 E18.41648
G1 X53.578 Y98.441 E18.44205
G1 X53.994 Y97.794 E18.46763
G1 X54.475 Y97.194 E18.49321
G1 X54.767 Y96.884 E18.50737
G1 X54.884 Y96.767 E18.51287
G1 X55.456 Y96.253 E18.53845
G1 X56.078 Y95.8 E18.56405
G1 X56.743 Y95.414 E18.58962
G0 F6000 X56.98 Y95.742
G1 F1200 X57.666 Y95.443 E18.61451
G1 X58.38 Y95.219 E18.6394
G1 X59.113 Y95.072 E18.66426
G1 X60.117 Y95 E18.69774
G1 X159.883 Y95 E22.01597
G1 X160.63 Y95.04 E22.04085
G1 X161.368 Y95.159 E22.06572
G1 X162.09 Y95.357 E22.09062
G1 X162.786 Y95.63 E22.11548
G1 X163.449 Y95.977 E22.14037
G1 X164.072 Y96.392 E22.16527
G1 X164.833 Y97.05 E22.19873
G1 X164.95 Y97.167 E22.20423
G1 X165.45 Y97.724 E22.22913
G1 X165.887 Y98.33 E22.25398
G1 X166.258 Y98.98 E22.27887
G1 X166.557 Y99.666 E22.30376
G1 X166.781 Y100.38 E22.32865
G1 X166.928 Y101.113 E22.35351
G1 X167 Y102.117 E22.38699
G1 X167 Y117.883 E22.91137
G1 X166.96 Y118.63 E22.93625
G1 X166.841 Y119.368 E22.96112
G1 X166.643 Y120.09 E22.98602
G1 X166.37 Y120.786 E23.01088
G1 X166.023 Y121.449 E23.03577
G1 X165.608 Y122.072 E23.06067
G1 X164.95 Y122.833 E23.09413
G1 X164.833 Y122.95 E23.09963
G1 X164.276 Y123.45 E23.12453
G1 X163.67 Y123.887 E23.14938
G1 X163.02 Y124.258 E23.17427
G1 X162.334 Y124.557 E23.19916
G1 X161.62 Y124.781 E23.22405
G1 X160.887 Y124.928 E23.24892
G1 X159.883 Y125 E23.28239
G1 X60.117 Y125 E26.60062
G1 X59.37 Y124.96 E26.62551
G1 X58.632 Y124.841 E26.65037
G1 X57.91 Y124.643 E26.67527
G1 X57.214 Y124.37 E26.70014
G1 X56.551 Y124.023 E26.72502
G1 X55.928 Y123.608 E26.74992
G1 X55.167 Y122.95 E26.78338
G1 X55.05 Y122.833 E26.78889
G1 X54.55 Y122.276 E26.81378
G1 X54.113 Y121.67 E26.83863
G1 X53.742 Y121.02 E26.86352
G1 X53.443 Y120.334 E26.88841
G1 X53.219 Y119.62 E26.9133
G1 X53.072 Y118.887 E26.93817
G1 X53 Y117.883 E26.97165
G1 X53 Y102.117 E27.49603
G1 X53.04 Y101.37 E27.52091
G1 X53.159 Y100.632 E27.54577
G1 X53.357 Y99.91 E27.57067
G1 X53.63 Y99.214 E27.59554
G1 X53.977 Y98.551 E27.62042
G1 X54.392 Y97.928 E27.64532
G1 X55.05 Y97.167 E27.67878
G1 X55.167 Y97.05 E27.68429
G1 X55.724 Y96.55 E27.70918
G1 X56.33 Y96.113 E27.73403
G1 X56.98 Y95.742 E27.75892
G0 F6000 X57.216 Y96.072
G1 F1200 X57.885 Y95.789 E27.78308
G1 X58.581 Y95.581 E27.80724
G1 X59.296 Y95.451 E27.83142
G1 X60.117 Y95.4 E27.85877
G1 X159.883 Y95.4 E31.177
G1 X160.608 Y95.44 E31.20116
G1 X161.325 Y95.559 E31.22533
G1 X162.024 Y95.757 E31.24949
G1 X162.697 Y96.03 E31.27365
G1 X163.336 Y96.375 E31.2978
G1 X163.933 Y96.789 E31.32196
G1 X164.55 Y97.333 E31.34932
G1 X164.667 Y97.45 E31.35483
G1 X165.151 Y97.991 E31.37897
G1 X165.574 Y98.582 E31.40314
G1 X165.928 Y99.216 E31.42729
G1 X166.211 Y99.885 E31.45145
G1 X166.419 Y100.581 E31.47562
G1 X166.549 Y101.296 E31.49979
G1 X166.6 Y102.117 E31.52715
G1 X166.6 Y117.883 E32.05152
G1 X166.56 Y118.608 E32.07568
G1 X166.441 Y119.325 E32.09985
G1 X166.243 Y120.024 E32.12401
G1 X165.97 Y120.697 E32.14817
G1 X165.625 Y121.336 E32.17232
G1 X165.211 Y121.933 E32.19648
G1 X164.667 Y122.55 E32.22384
G1 X164.55 Y122.667 E32.22935
G1 X164.009 Y123.151 E32.25349
G1 X163.418 Y123.574 E32.27766
G1 X162.784 Y123.928 E32.30181
G1 X162.115 Y124.211 E32.32597
G1 X161.419 Y124.419 E32.35014
G1 X160.704 Y124.549 E32.37431
G1 X159.883 Y124.6 E32.40167
G1 X60.117 Y124.6 E35.7199
G1 X59.392 Y124.56 E35.74405
G1 X58.675 Y124.441 E35.76822
G1 X57.976 Y124.243 E35.79238
G1 X57.303 Y123.97 E35.81654
G1 X56.664 Y123.625 E35.84069
G1 X56.067 Y123.211 E35.86486
G1 X55.45 Y122.667 E35.89221
G1 X55.333 Y122.55 E35.89772
G1 X54.849 Y122.009 E35.92186
G1 X54.426 Y121.418 E35.94603
G1 X54.072 Y120.784 E35.97019
G1 X53.789 Y120.115 E35.99435
G1 X53.581 Y119.419 E36.01851
G1 X53.451 Y118.704 E36.04268
G1 X53.4 Y117.883 E36.07004
G1 X53.4 Y102.117 E36.59442
G1 X53.44 Y101.392 E36.61857
G1 X53.559 Y100.675 E36.64274
G1 X53.757 Y99.976 E36.6669
G1 X54.03 Y99.303 E36.69106
G1 X54.375 Y98.664 E36.71521
G1 X54.789 Y98.067 E36.73938
G1 X55.333 Y97.45 E36.76673
G1 X55.45 Y97.333 E36.77224
G1 X55.991 Y96.849 E36.79638
G1 X56.582 Y96.426 E36.82055
G1 X57.216 Y96.072 E36.84471
G0 F6000 X57.451 Y96.403
G1 F1200 X58.102 Y96.136 E36.86811
G1 X58.78 Y95.946 E36.89153
G1 X59.475 Y95.833 E36.91495
G1 X60.117 Y95.8 E36.93633
G1 X159.883 Y95.8 E40.25456
G1 X160.586 Y95.84 E40.27798
G1 X161.28 Y95.959 E40.3014
G1 X161.955 Y96.157 E40.32479
G1 X162.604 Y96.429 E40.3482
G1 X163.218 Y96.774 E40.37162
G1 X163.789 Y97.185 E40.39502
G1 X164.267 Y97.616 E40.41643
G1 X164.384 Y97.733 E40.42193
G1 X164.853 Y98.258 E40.44535
G1 X165.259 Y98.833 E40.46876
G1 X165.597 Y99.451 E40.49219
G1 X165.864 Y100.102 E40.51559
G1 X166.054 Y100.78 E40.53901
G1 X166.167 Y101.475 E40.56243
G1 X166.2 Y102.117 E40.58381
G1 X166.2 Y117.883 E41.10819
G1 X166.16 Y118.586 E41.13161
G1 X166.041 Y119.28 E41.15503
G1 X165.843 Y119.955 E41.17843
G1 X165.571 Y120.604 E41.20183
G1 X165.226 Y121.218 E41.22525
G1 X164.815 Y121.789 E41.24865
G1 X164.384 Y122.267 E41.27006
G1 X164.267 Y122.384 E41.27556
G1 X163.742 Y122.853 E41.29898
G1 X163.167 Y123.259 E41.32239
G1 X162.549 Y123.597 E41.34582
G1 X161.898 Y123.864 E41.36922
G1 X161.22 Y124.054 E41.39264
G1 X160.525 Y124.167 E41.41606
G1 X159.883 Y124.2 E41.43744
G1 X60.117 Y124.2 E44.75567
G1 X59.414 Y124.16 E44.77909
G1 X58.72 Y124.041 E44.80251
G1 X58.045 Y123.843 E44.82591
G1 X57.396 Y123.571 E44.84931
G1 X56.782 Y123.226 E44.87274
G1 X56.211 Y122.815 E44.89614
G1 X55.733 Y122.384 E44.91754
G1 X55.616 Y122.267 E44.92305
G1 X55.147 Y121.742 E44.94646
G1 X54.741 Y121.167 E44.96987
G1 X54.403 Y120.549 E44.9933
G1 X54.136 Y119.898 E45.0167
G1 X53.946 Y119.22 E45.04012
G1 X53.833 Y118.525 E45.06354
G1 X53.8 Y117.883 E45.08492
G1 X53.8 Y102.117 E45.6093
G1 X53.84 Y101.414 E45.63272
G1 X53.959 Y100.72 E45.65614
G1 X54.157 Y100.045 E45.67954
G1 X54.429 Y99.396 E45.70294
G1 X54.774 Y98.782 E45.72637
G1 X55.185 Y98.211 E45.74977
G1 X55.616 Y97.733 E45.77117
G1 X55.733 Y97.616 E45.77668
G1 X56.258 Y97.147 E45.80009
G1 X56.833 Y96.741 E45.8235
G1 X57.451 Y96.403 E45.84693
G0 F6000 X57.683 Y96.735
G1 F1200 X58.317 Y96.486 E45.86959
G1 X58.976 Y96.313 E45.89225
G1 X59.65 Y96.219 E45.91488
G1 X60.117 Y96.2 E45.93043
G1 X159.883 Y96.2 E49.24866
G1 X160.563 Y96.24 E49.27131
G1 X161.233 Y96.359 E49.29395
G1 X161.885 Y96.556 E49.3166
G1 X162.509 Y96.828 E49.33924
G1 X163.097 Y97.172 E49.3619
G1 X163.641 Y97.582 E49.38456
G1 X163.984 Y97.899 E49.40009
G1 X164.101 Y98.016 E49.40559
G1 X164.554 Y98.525 E49.42826
G1 X164.943 Y99.083 E49.45088
G1 X165.265 Y99.683 E49.47353
G1 X165.514 Y100.317 E49.49618
G1 X165.687 Y100.976 E49.51884
G1 X165.781 Y101.65 E49.54148
G1 X165.8 Y102.117 E49.55702
G1 X165.8 Y117.883 E50.0814
G1 X165.76 Y118.563 E50.10406
G1 X165.641 Y119.233 E50.12669
G1 X165.444 Y119.885 E50.14935
G1 X165.172 Y120.509 E50.17199
G1 X164.828 Y121.097 E50.19464
G1 X164.418 Y121.641 E50.2173
G1 X164.101 Y121.984 E50.23284
G1 X163.984 Y122.101 E50.23834
G1 X163.475 Y122.554 E50.261
G1 X162.917 Y122.943 E50.28363
G1 X162.317 Y123.265 E50.30627
G1 X161.683 Y123.514 E50.32893
G1 X161.024 Y123.687 E50.35159
G1 X160.35 Y123.781 E50.37422
G1 X159.883 Y123.8 E50.38977
G1 X60.117 Y123.8 E53.708
G1 X59.437 Y123.76 E53.73066
G1 X58.767 Y123.641 E53.75329
G1 X58.115 Y123.444 E53.77594
G1 X57.491 Y123.172 E53.79858
G1 X56.903 Y122.828 E53.82124
G1 X56.359 Y122.418 E53.8439
G1 X56.016 Y122.101 E53.85943
G1 X55.899 Y121.984 E53.86494
G1 X55.446 Y121.475 E53.8876
G1 X55.057 Y120.917 E53.91022
G1 X54.735 Y120.317 E53.93287
G1 X54.486 Y119.683 E53.95553
G1 X54.313 Y119.024 E53.97819
G1 X54.219 Y118.35 E54.00082
G1 X54.2 Y117.883 E54.01637
G1 X54.2 Y102.117 E54.54075
G1 X54.24 Y101.437 E54.5634
G1 X54.359 Y100.767 E54.58604
G1 X54.556 Y100.115 E54.60869
G1 X54.828 Y99.491 E54.63133
G1 X55.172 Y98.903 E54.65399
G1 X55.582 Y98.359 E54.67664
G1 X55.899 Y98.016 E54.69218
G1 X56.016 Y97.899 E54.69768
G1 X56.525 Y97.446 E54.72035
G1 X57.083 Y97.057 E54.74297
G1 X57.683 Y96.735 E54.76562
G0 F6000 X57.332 Y97.374
G1 F1200 X57.914 Y97.07 E54.78746
G1 X58.529 Y96.839 E54.80931
G1 X59.168 Y96.684 E54.83118
G1 X60.117 Y96.6 E54.86286
G1 X159.883 Y96.6 E58.18109
G1 X160.539 Y96.64 E58.20295
G1 X161.185 Y96.759 E58.2248
G1 X161.812 Y96.956 E58.24666
G1 X162.41 Y97.228 E58.26851
G1 X162.971 Y97.57 E58.29036
G1 X163.701 Y98.182 E58.32205
G1 X163.818 Y98.299 E58.32755
G1 X164.254 Y98.791 E58.34942
G1 X164.626 Y99.332 E58.37125
G1 X164.93 Y99.914 E58.39309
G1 X165.161 Y100.529 E58.41494
G1 X165.316 Y101.168 E58.43681
G1 X165.4 Y102.117 E58.4685
G1 X165.4 Y117.883 E58.99288
G1 X165.36 Y118.539 E59.01474
G1 X165.241 Y119.185 E59.03658
G1 X165.044 Y119.812 E59.05844
G1 X164.772 Y120.41 E59.08029
G1 X164.43 Y120.971 E59.10215
G1 X163.818 Y121.701 E59.13383
G1 X163.701 Y121.818 E59.13933
G1 X163.209 Y122.254 E59.1612
G1 X162.668 Y122.626 E59.18304
G1 X162.086 Y122.93 E59.20487
G1 X161.471 Y123.161 E59.22673
G1 X160.832 Y123.316 E59.24859
G1 X159.883 Y123.4 E59.28028
G1 X60.117 Y123.4 E62.59851
G1 X59.461 Y123.36 E62.62037
G1 X58.815 Y123.241 E62.64222
G1 X58.188 Y123.044 E62.66408
G1 X57.59 Y122.772 E62.68593
G1 X57.029 Y122.43 E62.70778
G1 X56.299 Y121.818 E62.73947
G1 X56.182 Y121.701 E62.74497
G1 X55.746 Y121.209 E62.76683
G1 X55.374 Y120.668 E62.78867
G1 X55.07 Y120.086 E62.81051
G1 X54.839 Y119.471 E62.83236
G1 X54.684 Y118.832 E62.85423
G1 X54.6 Y117.883 E62.88592
G1 X54.6 Y102.117 E63.4103
G1 X54.64 Y101.461 E63.43216
G1 X54.759 Y100.815 E63.454
G1 X54.956 Y100.188 E63.47586
G1 X55.228 Y99.59 E63.49771
G1 X55.57 Y99.029 E63.51957
G1 X56.182 Y98.299 E63.55125
G1 X56.299 Y98.182 E63.55675
G1 X56.791 Y97.746 E63.57862
G1 X57.332 Y97.374 E63.60045
G0 F6000 X57.579 Y97.692
G1 F1200 X58.143 Y97.406 E63.62149
G1 X58.738 Y97.194 E63.64249
G1 X59.356 Y97.058 E63.66354
G1 X60.117 Y97 E63.68893
G1 X159.883 Y97 E67.00716
G1 X160.514 Y97.04 E67.02819
G1 X161.135 Y97.159 E67.04922
G1 X161.735 Y97.356 E67.07022
G1 X162.307 Y97.627 E67.09127
G1 X162.839 Y97.967 E67.11227
G1 X163.419 Y98.464 E67.13768
G1 X163.536 Y98.581 E67.14318
G1 X163.953 Y99.056 E67.1642
G1 X164.308 Y99.579 E67.18523
G1 X164.594 Y100.143 E67.20626
G1 X164.806 Y100.738 E67.22727
G1 X164.942 Y101.356 E67.24831
G1 X165 Y102.117 E67.2737
G1 X165 Y117.883 E67.79808
G1 X164.96 Y118.514 E67.81911
G1 X164.841 Y119.135 E67.84014
G1 X164.644 Y119.735 E67.86114
G1 X164.373 Y120.307 E67.88219
G1 X164.033 Y120.839 E67.90319
G1 X163.536 Y121.419 E67.9286
G1 X163.419 Y121.536 E67.9341
G1 X162.944 Y121.953 E67.95512
G1 X162.421 Y122.308 E67.97615
G1 X161.857 Y122.594 E67.99718
G1 X161.262 Y122.806 E68.01819
G1 X160.644 Y122.942 E68.03923
G1 X159.883 Y123 E68.06462
G1 X60.117 Y123 E71.38285
G1 X59.486 Y122.96 E71.40388
G1 X58.865 Y122.841 E71.42491
G1 X58.265 Y122.644 E71.44591
G1 X57.693 Y122.373 E71.46697
G1 X57.161 Y122.033 E71.48797
G1 X56.581 Y121.536 E71.51337
G1 X56.464 Y121.419 E71.51887
G1 X56.047 Y120.944 E71.5399
G1 X55.692 Y120.421 E71.56092
G1 X55.406 Y119.857 E71.58195
G1 X55.194 Y119.262 E71.60296
G1 X55.058 Y118.644 E71.62401
G1 X55 Y117.883 E71.64939
G1 X55 Y102.117 E72.17377
G1 X55.04 Y101.486 E72.1948
G1 X55.159 Y100.865 E72.21583
G1 X55.356 Y100.265 E72.23683
G1 X55.627 Y99.693 E72.25789
G1 X55.967 Y99.161 E72.27889
