;FLAVOR:Marlin
;TIME:6614
;Filament used: 4.33906m
;Layer height: 0.2
;MINX:59.868
;MINY:59.87
;MINZ:0.2
;MAXX:160.132
;MAXY:160.129
;MAXZ:19.2
;Generated with Cura_SteamEngine 4.9.0
M140 S60
M105
M190 S60
M104 S200
M105
M109 S200
M82 ;absolute extrusion mode
; Ender 3 Custom Start G-code
G92 E0 ; Reset Extruder
G28 ; Home all axes
G1 Z2.0 F3000 ; Move Z Axis up little to prevent scratching of Heat Bed
G1 X0.1 Y20 Z0.3 F5000.0 ; Move to start position
G1 X0.1 Y200.0 Z0.3 F1500.0 E15 ; Draw the first line
G1 X0.4 Y200.0 Z0.3 F5000.0 ; Move to side a little
G1 X0.4 Y20 Z0.3 F1500.0 E30 ; Draw the second line
G92 E0 ; Reset Extruder
G1 Z2.0 F3000 ; Move Z Axis up little to prevent scratching of Heat Bed
G1 X5 Y20 Z0.3 F5000.0 ; Move over to prevent blob squish
G92 E0
G92 E0
G1 F1500 E-6.5
;LAYER_COUNT:96
;LAYER:0
M107
G0 F6000 X74.378 Y74.729 Z0.2
;TYPE:SKIRT
G1 F1500 E0
G1 F1200 X75.024 Y74.085 E0.03034
G1 X75.216 Y73.898 E0.03925
G1 X75.61 Y73.525 E0.0573
G1 X76.238 Y72.945 E0.08573
G1 X76.841 Y72.401 E0.11274
G1 X77.05 Y72.216 E0.12203
G1 X77.489 Y71.841 E0.14123
G1 X78.108 Y71.324 E0.16805
G1 X78.788 Y70.769 E0.19725
G1 X79.015 Y70.589 E0.20688
G1 X79.416 Y70.28 E0.22372
G1 X80.056 Y69.796 E0.25041
G1 X80.798 Y69.25 E0.28105
G1 X81.031 Y69.083 E0.29058
G1 X81.384 Y68.838 E0.30488
G1 X82.116 Y68.338 E0.33436
G1 X82.695 Y67.954 E0.35747
G1 X82.953 Y67.788 E0.36767
G1 X83.753 Y67.29 E0.39901
G1 X84.188 Y67.025 E0.41596
G1 X84.933 Y66.584 E0.44475
G1 X85.178 Y66.443 E0.45415
G1 X85.677 Y66.166 E0.47313
G1 X86.412 Y65.766 E0.50097
G1 X87.01 Y65.451 E0.52345
G1 X87.303 Y65.302 E0.53438
G1 X87.775 Y65.071 E0.55186
G1 X88.125 Y64.896 E0.56487
G1 X88.654 Y64.64 E0.58442
G1 X89.274 Y64.352 E0.60716
G1 X89.54 Y64.232 E0.61686
G1 X90.524 Y63.807 E0.65251
G1 X90.903 Y63.649 E0.66617
G1 X91.752 Y63.305 E0.69664
G1 X92.024 Y63.199 E0.70635
G1 X92.479 Y63.029 E0.7225
G1 X93.232 Y62.757 E0.74913
G1 X94.032 Y62.478 E0.77731
G1 X94.313 Y62.384 E0.78717
G1 X94.9 Y62.197 E0.80766
G1 X95.678 Y61.959 E0.83472
G1 X96.519 Y61.714 E0.86385
G1 X96.788 Y61.639 E0.87314
G1 X97.134 Y61.549 E0.88503
G1 X98.005 Y61.328 E0.91492
G1 X98.519 Y61.204 E0.9325
G1 X98.874 Y61.124 E0.94461
G1 X99.852 Y60.922 E0.97782
G1 X100.356 Y60.812 E0.99498
G1 X100.623 Y60.757 E1.00405
G1 X100.815 Y60.72 E1.01055
G1 X101.158 Y60.659 E1.02214
G1 X102.547 Y60.437 E1.06892
G1 X102.665 Y60.416 E1.07291
G1 X103.252 Y60.329 E1.09265
G1 X104.859 Y60.135 E1.14648
G1 X105.307 Y60.088 E1.16146
G1 X106.288 Y60.003 E1.19422
G1 X106.586 Y59.982 E1.20415
G1 X107.043 Y59.955 E1.21938
G1 X107.788 Y59.917 E1.24419
G1 X108.797 Y59.881 E1.27777
G1 X109.041 Y59.875 E1.28589
G1 X109.511 Y59.87 E1.30152
G1 X110.441 Y59.872 E1.33245
G1 X111.26 Y59.884 E1.3597
G1 X111.521 Y59.891 E1.36838
G1 X112.013 Y59.911 E1.38476
G1 X112.968 Y59.959 E1.41656
G1 X113.811 Y60.013 E1.44466
G1 X114.07 Y60.033 E1.4533
G1 X114.618 Y60.082 E1.4716
G1 X115.368 Y60.158 E1.49667
G1 X116.265 Y60.26 E1.5267
G1 X116.536 Y60.295 E1.53578
G1 X116.998 Y60.36 E1.5513
G1 X117.944 Y60.504 E1.58313
G1 X118.768 Y60.641 E1.61091
G1 X119.026 Y60.687 E1.61963
G1 X119.509 Y60.78 E1.63599
G1 X120.388 Y60.96 E1.66583
G1 X121.286 Y61.156 E1.6964
G1 X121.707 Y61.255 E1.71078
G1 X122.769 Y61.524 E1.74722
G1 X123.579 Y61.741 E1.77511
G1 X123.86 Y61.82 E1.78482
G1 X124.383 Y61.976 E1.80297
G1 X125.206 Y62.231 E1.83163
G1 X125.992 Y62.486 E1.85911
G1 X126.247 Y62.572 E1.86806
G1 X126.767 Y62.756 E1.88641
G1 X127.587 Y63.057 E1.91546
G1 X128.395 Y63.366 E1.94424
G1 X128.64 Y63.463 E1.953
G1 X129.05 Y63.631 E1.96774
G1 X129.872 Y63.977 E1.9974
G1 X130.664 Y64.325 E2.02617
G1 X131.193 Y64.568 E2.04553
G1 X131.355 Y64.644 E2.05149
G1 X132.086 Y64.998 E2.0785
G1 X132.874 Y65.391 E2.10779
G1 X133.123 Y65.519 E2.1171
G1 X133.589 Y65.767 E2.13466
G1 X134.307 Y66.158 E2.16185
G1 X135.127 Y66.619 E2.19314
G1 X135.37 Y66.76 E2.20248
G1 X135.794 Y67.014 E2.21892
G1 X136.492 Y67.441 E2.24614
G1 X137.231 Y67.907 E2.27519
G1 X137.472 Y68.064 E2.28476
G1 X137.881 Y68.338 E2.30113
G1 X138.58 Y68.816 E2.3293
G1 X139.368 Y69.371 E2.36136
G1 X139.597 Y69.536 E2.37074
G1 X139.899 Y69.762 E2.38329
G1 X140.618 Y70.306 E2.41328
G1 X141.296 Y70.834 E2.44186
G1 X141.517 Y71.011 E2.45128
G1 X141.887 Y71.316 E2.46723
G1 X142.55 Y71.873 E2.49603
G1 X143.189 Y72.425 E2.52411
G1 X143.383 Y72.597 E2.53273
G1 X143.759 Y72.938 E2.54962
G1 X144.402 Y73.535 E2.5788
G1 X144.999 Y74.104 E2.60623
G1 X145.227 Y74.328 E2.61686
G1 X145.582 Y74.687 E2.63365
G1 X146.231 Y75.355 E2.66463
G1 X146.787 Y75.942 E2.69152
G1 X146.964 Y76.132 E2.70016
G1 X147.322 Y76.53 E2.71796
G1 X147.854 Y77.135 E2.74476
G1 X148.455 Y77.837 E2.7755
G1 X148.614 Y78.027 E2.78374
G1 X148.898 Y78.375 E2.79868
G1 X149.459 Y79.08 E2.82864
G1 X149.953 Y79.716 E2.85543
G1 X150.12 Y79.936 E2.86461
G1 X150.474 Y80.419 E2.88453
G1 X150.799 Y80.873 E2.9031
G1 X150.988 Y81.145 E2.91412
G1 X151.297 Y81.581 E2.93189
G1 X151.483 Y81.853 E2.94285
G1 X151.973 Y82.59 E2.97229
G1 X152.248 Y83.016 E2.98915
G1 X152.818 Y83.926 E3.02487
G1 X152.973 Y84.181 E3.03479
G1 X153.166 Y84.509 E3.04745
G1 X153.639 Y85.329 E3.07893
G1 X154.016 Y86.003 E3.10462
G1 X154.144 Y86.239 E3.11355
G1 X154.397 Y86.72 E3.13163
G1 X154.784 Y87.478 E3.15993
G1 X155.203 Y88.324 E3.19133
G1 X155.322 Y88.571 E3.20045
G1 X155.503 Y88.963 E3.21481
G1 X155.867 Y89.769 E3.24423
G1 X156.196 Y90.526 E3.27168
G1 X156.298 Y90.769 E3.28045
G1 X156.487 Y91.235 E3.29717
G1 X156.847 Y92.157 E3.33009
G1 X157.132 Y92.918 E3.35712
G1 X157.223 Y93.171 E3.36606
G1 X157.393 Y93.661 E3.38331
G1 X157.658 Y94.452 E3.41106
G1 X157.9 Y95.204 E3.43733
G1 X157.982 Y95.469 E3.44656
G1 X158.125 Y95.958 E3.46351
G1 X158.381 Y96.872 E3.49507
G1 X158.606 Y97.721 E3.52429
G1 X158.736 Y98.247 E3.54231
G1 X158.953 Y99.194 E3.57462
G1 X159.128 Y100.007 E3.60228
G1 X159.187 Y100.302 E3.61229
G1 X159.317 Y101.004 E3.63603
G1 X159.434 Y101.676 E3.65872
G1 X159.596 Y102.685 E3.69271
G1 X159.645 Y103.025 E3.70414
G1 X159.794 Y104.196 E3.7434
G1 X159.868 Y104.859 E3.76559
G1 X159.896 Y105.14 E3.77498
G1 X159.981 Y106.14 E3.80836
G1 X160.013 Y106.576 E3.8229
G1 X160.061 Y107.34 E3.84836
G1 X160.077 Y107.662 E3.85908
G1 X160.116 Y108.826 E3.89782
G1 X160.121 Y109.048 E3.9052
G1 X160.132 Y109.877 E3.93278
G1 X160.132 Y110.155 E3.94203
G1 X160.121 Y110.988 E3.96973
G1 X160.093 Y111.957 E4.00198
G1 X160.063 Y112.669 E4.02568
G1 X160.043 Y113.02 E4.03737
G1 X159.964 Y114.085 E4.07289
G1 X159.934 Y114.422 E4.08414
G1 X159.764 Y116.038 E4.13819
G1 X159.692 Y116.617 E4.1576
G1 X159.564 Y117.532 E4.18832
G1 X159.523 Y117.798 E4.19728
G1 X159.458 Y118.191 E4.21053
G1 X159.311 Y119.033 E4.23895
G1 X159.27 Y119.254 E4.24643
G1 X159.085 Y120.199 E4.27846
G1 X159.019 Y120.511 E4.28906
G1 X158.813 Y121.419 E4.32003
G1 X158.595 Y122.322 E4.35093
G1 X158.528 Y122.584 E4.35992
G1 X158.364 Y123.193 E4.3809
G1 X158.158 Y123.917 E4.40594
G1 X157.867 Y124.895 E4.43987
G1 X157.786 Y125.157 E4.44899
G1 X157.677 Y125.49 E4.46065
G1 X157.37 Y126.402 E4.49265
G1 X157.128 Y127.094 E4.51704
G1 X157.024 Y127.379 E4.52713
G1 X156.785 Y128.005 E4.54941
G1 X156.58 Y128.523 E4.56794
G1 X156.179 Y129.508 E4.60332
G1 X156.07 Y129.766 E4.61263
G1 X155.873 Y130.216 E4.62897
G1 X155.537 Y130.963 E4.65621
G1 X155.183 Y131.72 E4.68401
G1 X155.065 Y131.965 E4.69305
G1 X154.731 Y132.632 E4.71786
G1 X154.415 Y133.244 E4.74077
G1 X153.98 Y134.061 E4.77156
G1 X153.856 Y134.287 E4.78013
G1 X153.645 Y134.661 E4.79441
G1 X153.176 Y135.471 E4.82554
G1 X152.742 Y136.198 E4.8537
G1 X152.603 Y136.424 E4.86253
G1 X152.373 Y136.789 E4.87688
G1 X151.92 Y137.494 E4.90475
G1 X151.5 Y138.127 E4.93002
G1 X151.327 Y138.379 E4.94018
G1 X150.732 Y139.223 E4.97453
G1 X150.476 Y139.577 E4.98906
G1 X149.964 Y140.27 E5.01772
G1 X149.799 Y140.488 E5.02681
G1 X149.41 Y140.985 E5.0478
G1 X148.945 Y141.565 E5.07253
G1 X148.177 Y142.496 E5.11267
G1 X147.963 Y142.743 E5.12354
G1 X147.304 Y143.49 E5.15667
G1 X146.771 Y144.078 E5.18307
G1 X146.582 Y144.281 E5.19229
G1 X146.164 Y144.718 E5.2124
G1 X145.605 Y145.289 E5.23898
G1 X144.953 Y145.938 E5.26958
G1 X144.635 Y146.245 E5.28428
G1 X143.87 Y146.958 E5.31906
G1 X143.133 Y147.625 E5.35212
G1 X142.915 Y147.817 E5.36179
G1 X142.578 Y148.105 E5.37653
G1 X141.882 Y148.687 E5.40671
G1 X141.298 Y149.164 E5.43178
G1 X141.069 Y149.347 E5.44153
G1 X140.565 Y149.736 E5.46271
G1 X139.931 Y150.212 E5.48908
G1 X139.157 Y150.78 E5.52101
G1 X138.938 Y150.937 E5.52997
G1 X138.673 Y151.121 E5.5407
G1 X137.859 Y151.677 E5.57349
G1 X137.318 Y152.036 E5.59508
G1 X137.065 Y152.199 E5.60509
G1 X136.324 Y152.662 E5.63416
G1 X136.147 Y152.77 E5.64105
G1 X135.267 Y153.297 E5.67517
G1 X134.969 Y153.469 E5.68661
G1 X133.831 Y154.103 E5.72994
G1 X133.615 Y154.22 E5.73811
G1 X132.924 Y154.585 E5.7641
G1 X132.676 Y154.712 E5.77337
G1 X132.002 Y155.045 E5.79837
G1 X131.331 Y155.366 E5.82311
G1 X130.53 Y155.737 E5.85247
G1 X130.278 Y155.85 E5.86166
G1 X129.876 Y156.023 E5.87622
G1 X129.08 Y156.357 E5.90493
G1 X128.204 Y156.711 E5.93635
G1 X127.95 Y156.81 E5.94542
G1 X127.595 Y156.943 E5.95803
G1 X126.906 Y157.194 E5.98242
G1 X125.93 Y157.534 E6.01679
G1 X125.664 Y157.623 E6.02612
G1 X125.193 Y157.773 E6.04256
G1 X124.389 Y158.02 E6.07054
G1 X123.562 Y158.263 E6.09921
G1 X123.291 Y158.339 E6.10857
G1 X122.745 Y158.483 E6.12735
G1 X122.005 Y158.67 E6.15273
G1 X121.019 Y158.906 E6.18646
G1 X120.673 Y158.983 E6.19824
G1 X119.551 Y159.212 E6.23633
G1 X118.687 Y159.374 E6.26557
G1 X118.056 Y159.479 E6.28685
G1 X117.196 Y159.609 E6.31577
G1 X116.1 Y159.759 E6.35257
G1 X115.824 Y159.793 E6.36182
G1 X115.497 Y159.829 E6.37276
G1 X114.58 Y159.92 E6.40341
G1 X113.795 Y159.988 E6.42961
G1 X113.516 Y160.009 E6.43892
G1 X112.88 Y160.047 E6.46011
G1 X112.021 Y160.088 E6.48871
G1 X111.153 Y160.119 E6.5176
G1 X110.873 Y160.125 E6.52692
G1 X110.481 Y160.129 E6.53996
G1 X109.525 Y160.129 E6.57175
G1 X108.685 Y160.117 E6.59969
G1 X108.392 Y160.109 E6.60944
G1 X107.897 Y160.088 E6.62592
G1 X107.111 Y160.047 E6.6521
G1 X106.131 Y159.984 E6.68476
G1 X105.667 Y159.947 E6.70024
G1 X104.764 Y159.858 E6.73042
G1 X103.943 Y159.766 E6.7579
G1 X103.609 Y159.723 E6.7691
G1 X102.488 Y159.564 E6.80676
G1 X102.095 Y159.504 E6.81998
G1 X101.306 Y159.374 E6.84658
G1 X101.007 Y159.32 E6.85668
G1 X100.423 Y159.207 E6.87647
G1 X99.647 Y159.047 E6.90282
G1 X98.709 Y158.842 E6.93475
G1 X98.473 Y158.788 E6.94281
G1 X98.063 Y158.688 E6.95684
G1 X97.409 Y158.521 E6.97929
G1 X97.176 Y158.459 E6.98731
G1 X96.899 Y158.382 E6.99687
G1 X96.7 Y158.33 E7.00372
G1 X96.392 Y158.245 E7.01434
G1 X95.421 Y157.962 E7.04798
G1 X94.776 Y157.762 E7.07044
G1 X94.041 Y157.524 E7.09614
G1 X93.774 Y157.434 E7.10551
G1 X93.206 Y157.233 E7.12555
G1 X92.481 Y156.969 E7.15121
G1 X91.654 Y156.655 E7.18063
G1 X91.399 Y156.554 E7.18976
G1 X90.859 Y156.333 E7.20916
G1 X90.135 Y156.026 E7.23532
G1 X89.362 Y155.687 E7.26339
G1 X89.105 Y155.57 E7.27278
G1 X88.606 Y155.335 E7.29113
G1 X87.87 Y154.979 E7.31832
G1 X87.037 Y154.563 E7.34929
G1 X86.549 Y154.308 E7.3676
G1 X85.758 Y153.879 E7.39753
G1 X84.901 Y153.398 E7.43022
G1 X84.67 Y153.264 E7.4391
G1 X84.169 Y152.965 E7.45851
G1 X83.508 Y152.559 E7.48431
G1 X82.753 Y152.082 E7.51401
G1 X82.546 Y151.948 E7.52221
G1 X82.089 Y151.644 E7.54047
G1 X81.464 Y151.215 E7.56568
G1 X80.667 Y150.655 E7.59808
G1 X80.437 Y150.489 E7.60751
G1 X80.134 Y150.264 E7.62007
G1 X79.386 Y149.696 E7.6513
G1 X78.733 Y149.188 E7.67882
G1 X78.515 Y149.014 E7.6881
G1 X78.047 Y148.629 E7.70826
G1 X77.436 Y148.114 E7.73483
G1 X76.764 Y147.533 E7.76438
G1 X76.55 Y147.343 E7.7739
G1 X76.201 Y147.024 E7.78962
G1 X75.594 Y146.459 E7.8172
G1 X74.939 Y145.833 E7.84734
G1 X74.74 Y145.639 E7.85658
G1 X74.472 Y145.368 E7.86926
G1 X73.796 Y144.673 E7.90151
G1 X73.195 Y144.039 E7.93056
G1 X73.009 Y143.838 E7.93967
G1 X72.696 Y143.49 E7.95524
G1 X72.131 Y142.848 E7.98368
G1 X71.572 Y142.197 E8.01222
G1 X71.399 Y141.991 E8.02117
G1 X71.016 Y141.521 E8.04134
G1 X70.534 Y140.912 E8.06717
G1 X70.004 Y140.227 E8.09597
G1 X69.847 Y140.019 E8.10464
G1 X69.569 Y139.641 E8.12025
G1 X69.034 Y138.897 E8.15073
G1 X68.504 Y138.135 E8.1816
G1 X68.337 Y137.887 E8.19154
G1 X68.117 Y137.552 E8.20487
G1 X67.689 Y136.886 E8.2312
G1 X67.175 Y136.065 E8.26342
G1 X66.984 Y135.748 E8.27573
G1 X66.434 Y134.8 E8.31218
G1 X65.948 Y133.932 E8.34527
G1 X65.667 Y133.406 E8.3651
G1 X65.592 Y133.263 E8.37048
G1 X65.194 Y132.482 E8.39963
G1 X64.832 Y131.752 E8.42673
G1 X64.703 Y131.483 E8.43665
G1 X64.477 Y130.991 E8.45466
G1 X64.158 Y130.282 E8.48052
G1 X64.036 Y130.001 E8.49071
G1 X63.415 Y128.511 E8.5444
G1 X63.316 Y128.266 E8.55319
G1 X63.192 Y127.945 E8.56463
G1 X62.919 Y127.225 E8.59024
G1 X62.818 Y126.95 E8.59999
G1 X62.581 Y126.266 E8.62406
G1 X62.332 Y125.519 E8.65025
G1 X62.075 Y124.712 E8.67842
G1 X62.001 Y124.472 E8.68678
G1 X61.858 Y123.982 E8.70375
G1 X61.654 Y123.256 E8.72884
G1 X61.44 Y122.448 E8.75664
G1 X61.368 Y122.16 E8.76651
G1 X61.257 Y121.689 E8.7826
G1 X61.145 Y121.233 E8.79822
G1 X61.028 Y120.719 E8.81575
G1 X60.858 Y119.924 E8.84279
G1 X60.802 Y119.642 E8.85236
G1 X60.686 Y119.019 E8.87343
G1 X60.554 Y118.252 E8.89932
G1 X60.404 Y117.316 E8.93085
G1 X60.354 Y116.972 E8.94241
G1 X60.223 Y115.949 E8.97671
G1 X60.129 Y115.115 E9.00463
G1 X60.099 Y114.811 E9.01479
G1 X60.002 Y113.648 E9.0536
G1 X59.984 Y113.403 E9.06177
G1 X59.936 Y112.615 E9.08803
G1 X59.922 Y112.308 E9.09825
G1 X59.881 Y111.071 E9.13942
G1 X59.868 Y110.114 E9.17125
G1 X59.868 Y109.842 E9.1803
G1 X59.879 Y109.011 E9.20794
G1 X59.907 Y108.045 E9.24008
G1 X59.937 Y107.332 E9.26382
G1 X59.957 Y106.976 E9.27568
G1 X60.034 Y105.943 E9.31013
G1 X60.065 Y105.608 E9.32132
G1 X60.243 Y103.919 E9.37781
G1 X60.296 Y103.478 E9.39258
G1 X60.441 Y102.438 E9.42751
G1 X60.485 Y102.154 E9.43706
G1 X60.544 Y101.799 E9.44903
G1 X60.7 Y100.909 E9.47909
G1 X60.74 Y100.695 E9.48633
G1 X60.922 Y99.765 E9.51785
G1 X60.996 Y99.418 E9.52965
G1 X61.241 Y98.355 E9.56593
G1 X61.44 Y97.541 E9.5938
G1 X61.503 Y97.294 E9.60228
G1 X61.635 Y96.806 E9.61909
G1 X61.858 Y96.021 E9.64624
G1 X62.057 Y95.351 E9.66948
G1 X62.148 Y95.061 E9.67959
G1 X62.435 Y94.174 E9.7106
G1 X62.639 Y93.572 E9.73174
G1 X62.882 Y92.879 E9.75617
G1 X62.981 Y92.606 E9.76582
G1 X63.218 Y91.985 E9.78793
G1 X63.53 Y91.19 E9.81634
G1 X63.898 Y90.302 E9.84831
G1 X63.995 Y90.076 E9.85649
G1 X64.137 Y89.757 E9.8681
G1 X64.475 Y89.013 E9.89528
G1 X64.846 Y88.221 E9.92437
G1 X64.973 Y87.958 E9.93408
G1 X65.217 Y87.473 E9.95214
G1 X65.592 Y86.742 E9.97947
G1 X66.001 Y85.972 E10.00847
G1 X66.134 Y85.73 E10.01765
G1 X66.374 Y85.304 E10.03391
G1 X66.796 Y84.574 E10.06196
G1 X67.247 Y83.818 E10.09124
G1 X67.401 Y83.569 E10.10097
G1 X67.674 Y83.138 E10.11794
G1 X68.136 Y82.425 E10.1462
G1 X68.613 Y81.708 E10.17484
G1 X68.774 Y81.473 E10.18432
G1 X69.077 Y81.043 E10.20181
G1 X69.585 Y80.34 E10.23066
G1 X70.062 Y79.696 E10.25732
G1 X70.221 Y79.486 E10.26608
G1 X70.544 Y79.072 E10.28354
G1 X70.96 Y78.551 E10.30572
G1 X71.584 Y77.792 E10.3384
G1 X72.241 Y77.025 E10.37199
G1 X72.6 Y76.618 E10.39004
G1 X73.324 Y75.822 E10.42583
G1 X73.509 Y75.623 E10.43486
G1 X73.802 Y75.318 E10.44893
G1 X74.378 Y74.729 E10.47633
G0 F6000 X74.66 Y75.012
G1 F1200 X75.306 Y74.368 E10.50667
G1 X75.491 Y74.188 E10.51525
G1 X75.882 Y73.818 E10.53316
G1 X76.506 Y73.242 E10.5614
G1 X77.109 Y72.698 E10.58842
G1 X77.311 Y72.52 E10.59737
G1 X77.746 Y72.148 E10.61641
G1 X78.361 Y71.634 E10.64307
G1 X79.041 Y71.079 E10.67226
G1 X79.259 Y70.905 E10.68154
G1 X79.657 Y70.598 E10.69825
G1 X80.293 Y70.118 E10.72476
G1 X81.035 Y69.572 E10.7554
G1 X81.259 Y69.412 E10.76455
G1 X81.61 Y69.168 E10.77877
G1 X82.337 Y68.671 E10.80806
G1 X82.916 Y68.287 E10.83117
G1 X83.165 Y68.127 E10.84101
G1 X83.961 Y67.631 E10.87221
G1 X84.391 Y67.369 E10.88895
G1 X85.136 Y66.928 E10.91775
G1 X85.373 Y66.793 E10.92682
G1 X85.868 Y66.517 E10.94567
G1 X86.599 Y66.12 E10.97334
G1 X87.197 Y65.805 E10.99582
G1 X87.478 Y65.662 E11.00631
G1 X87.952 Y65.43 E11.02386
G1 X88.3 Y65.255 E11.03681
G1 X88.822 Y65.003 E11.05609
G1 X89.442 Y64.715 E11.07883
