;FLAVOR:Marlin
;TIME:7595
;Filament used: 4.97315m
;Layer height: 0.2
;MINX:57.168
;MINY:57.171
;MINZ:0.2
;MAXX:162.832
;MAXY:162.829
;MAXZ:20.2
;Generated with Cura_SteamEngine 4.9.0
M140 S60
M105
M190 S60
M104 S200
M105
M109 S200
M82 ;absolute extrusion mode
; Ender 3 Custom Start G-code
G92 E0 ; Reset Extruder
G28 ; Home all axes
G1 Z2.0 F3000 ; Move Z Axis up little to prevent scratching of Heat Bed
G1 X0.1 Y20 Z0.3 F5000.0 ; Move to start position
G1 X0.1 Y200.0 Z0.3 F1500.0 E15 ; Draw the first line
G1 X0.4 Y200.0 Z0.3 F5000.0 ; Move to side a little
G1 X0.4 Y20 Z0.3 F1500.0 E30 ; Draw the second line
G92 E0 ; Reset Extruder
G1 Z2.0 F3000 ; Move Z Axis up little to prevent scratching of Heat Bed
G1 X5 Y20 Z0.3 F5000.0 ; Move over to prevent blob squish
G92 E0
G92 E0
G1 F1500 E-6.5
;LAYER_COUNT:101
;LAYER:0
M107
G0 F6000 X72.508 Y72.78 Z0.2
;TYPE:SKIRT
G1 F1500 E0
G1 F1200 X73.159 Y72.13 E0.0306
G1 X73.351 Y71.943 E0.03951
G1 X73.605 Y71.702 E0.05116
G1 X74.448 Y70.92 E0.0894
G1 X75.031 Y70.394 E0.11552
G1 X75.228 Y70.221 E0.12424
G1 X75.687 Y69.827 E0.14436
G1 X76.471 Y69.172 E0.17834
G1 X77.089 Y68.669 E0.20484
G1 X77.283 Y68.515 E0.21308
G1 X77.757 Y68.147 E0.23304
G1 X78.439 Y67.633 E0.26144
G1 X79.207 Y67.069 E0.29313
G1 X79.412 Y66.922 E0.30152
G1 X79.816 Y66.64 E0.31791
G1 X80.635 Y66.083 E0.35085
G1 X81.368 Y65.598 E0.38009
G1 X81.594 Y65.453 E0.38902
G1 X82.066 Y65.157 E0.40755
G1 X82.846 Y64.682 E0.43792
G1 X83.623 Y64.222 E0.46795
G1 X84.163 Y63.917 E0.48858
G1 X85.018 Y63.449 E0.521
G1 X85.174 Y63.365 E0.52689
G1 X85.964 Y62.95 E0.55657
G1 X86.207 Y62.826 E0.56565
G1 X86.651 Y62.607 E0.58211
G1 X87.564 Y62.169 E0.61579
G1 X87.889 Y62.018 E0.62771
G1 X88.236 Y61.864 E0.64034
G1 X88.691 Y61.671 E0.65678
G1 X89.8 Y61.184 E0.69706
G1 X90.065 Y61.074 E0.70661
G1 X90.694 Y60.819 E0.72918
G1 X90.984 Y60.706 E0.73953
G1 X91.421 Y60.544 E0.75503
G1 X92.415 Y60.183 E0.79021
G1 X93.158 Y59.924 E0.81638
G1 X93.426 Y59.834 E0.82578
G1 X93.987 Y59.656 E0.84536
G1 X94.86 Y59.387 E0.87574
G1 X95.713 Y59.136 E0.90531
G1 X96.006 Y59.055 E0.91542
G1 X96.551 Y58.911 E0.93417
G1 X97.232 Y58.738 E0.95754
G1 X98.043 Y58.543 E0.98529
G1 X99.16 Y58.295 E1.02334
G1 X100.01 Y58.121 E1.0522
G1 X100.522 Y58.024 E1.06953
G1 X100.865 Y57.965 E1.08111
G1 X101.845 Y57.811 E1.1141
G1 X102.05 Y57.776 E1.12102
G1 X102.359 Y57.727 E1.13142
G1 X102.857 Y57.656 E1.14816
G1 X103.11 Y57.623 E1.15664
G1 X104.421 Y57.467 E1.20055
G1 X104.643 Y57.443 E1.20798
G1 X105.229 Y57.386 E1.22756
G1 X105.918 Y57.327 E1.25056
G1 X106.222 Y57.305 E1.2607
G1 X106.849 Y57.269 E1.28159
G1 X107.185 Y57.247 E1.29279
G1 X107.837 Y57.214 E1.3145
G1 X108.717 Y57.182 E1.34379
G1 X109.001 Y57.176 E1.35324
G1 X109.496 Y57.171 E1.3697
G1 X110.304 Y57.171 E1.39658
G1 X111.354 Y57.185 E1.4315
G1 X111.925 Y57.204 E1.4505
G1 X113.023 Y57.258 E1.48707
G1 X114.006 Y57.32 E1.51983
G1 X114.293 Y57.342 E1.5294
G1 X114.79 Y57.387 E1.546
G1 X115.731 Y57.482 E1.57746
G1 X116.607 Y57.582 E1.60678
G1 X116.884 Y57.617 E1.61607
G1 X117.394 Y57.689 E1.6332
G1 X118.355 Y57.835 E1.66553
G1 X119.264 Y57.985 E1.69617
G1 X119.521 Y58.03 E1.70485
G1 X119.937 Y58.11 E1.71894
G1 X120.944 Y58.315 E1.75312
G1 X121.613 Y58.46 E1.77589
G1 X121.902 Y58.526 E1.78575
G1 X122.805 Y58.748 E1.81667
G1 X123.54 Y58.935 E1.8419
G1 X124.361 Y59.156 E1.87018
G1 X124.645 Y59.237 E1.88
G1 X125.075 Y59.365 E1.89492
G1 X125.768 Y59.579 E1.91905
G1 X126.27 Y59.738 E1.93656
G1 X126.522 Y59.821 E1.94538
G1 X127.78 Y60.253 E1.98962
G1 X127.983 Y60.325 E1.99679
G1 X128.584 Y60.546 E2.01809
G1 X129.381 Y60.85 E2.04646
G1 X129.653 Y60.958 E2.05619
G1 X130.037 Y61.117 E2.07001
G1 X130.951 Y61.502 E2.103
G1 X131.778 Y61.864 E2.13303
G1 X132.049 Y61.987 E2.14293
G1 X132.398 Y62.152 E2.15576
G1 X133.404 Y62.635 E2.19288
G1 X133.734 Y62.8 E2.20515
G1 X134.958 Y63.439 E2.25108
G1 X135.532 Y63.75 E2.27279
G1 X136.478 Y64.281 E2.30887
G1 X136.684 Y64.4 E2.31678
G1 X137.132 Y64.667 E2.33413
G1 X137.935 Y65.16 E2.36547
G1 X138.725 Y65.658 E2.39653
G1 X138.969 Y65.816 E2.4062
G1 X139.326 Y66.055 E2.42049
G1 X140.212 Y66.662 E2.45621
G1 X140.91 Y67.153 E2.48459
G1 X141.125 Y67.309 E2.49343
G1 X141.499 Y67.586 E2.50891
G1 X142.283 Y68.181 E2.54164
G1 X142.996 Y68.738 E2.57174
G1 X143.218 Y68.916 E2.5812
G1 X143.593 Y69.225 E2.59736
G1 X144.293 Y69.815 E2.62781
G1 X145.017 Y70.439 E2.6596
G1 X145.23 Y70.627 E2.66905
G1 X145.545 Y70.914 E2.68322
G1 X146.279 Y71.596 E2.71655
G1 X146.933 Y72.22 E2.74661
G1 X147.138 Y72.421 E2.75616
G1 X147.409 Y72.693 E2.76893
G1 X148.036 Y73.336 E2.7988
G1 X148.75 Y74.087 E2.83327
G1 X148.938 Y74.29 E2.84247
G1 X149.292 Y74.682 E2.86004
G1 X149.938 Y75.418 E2.89261
G1 X150.497 Y76.07 E2.92117
G1 X150.665 Y76.271 E2.92989
G1 X150.977 Y76.653 E2.94629
G1 X151.449 Y77.243 E2.97142
G1 X151.779 Y77.673 E2.98945
G1 X151.918 Y77.849 E2.99691
G1 X152.127 Y78.121 E3.00832
G1 X152.771 Y78.991 E3.04432
G1 X153.189 Y79.576 E3.06823
G1 X153.7 Y80.307 E3.0979
G1 X153.851 Y80.529 E3.10683
G1 X154.115 Y80.928 E3.12274
G1 X154.562 Y81.619 E3.15011
G1 X155.081 Y82.447 E3.18262
G1 X155.212 Y82.66 E3.19093
G1 X155.491 Y83.132 E3.20917
G1 X155.979 Y83.977 E3.24162
G1 X156.426 Y84.776 E3.27208
G1 X156.702 Y85.293 E3.29157
G1 X156.769 Y85.42 E3.29634
G1 X157.222 Y86.306 E3.32944
G1 X157.58 Y87.029 E3.35627
G1 X157.697 Y87.273 E3.36527
G1 X157.955 Y87.831 E3.38572
G1 X158.346 Y88.701 E3.41745
G1 X158.711 Y89.544 E3.448
G1 X158.82 Y89.804 E3.45738
G1 X158.994 Y90.237 E3.4729
G1 X159.338 Y91.117 E3.50432
G1 X159.678 Y92.021 E3.53645
G1 X159.852 Y92.51 E3.55371
G1 X160.187 Y93.502 E3.58853
G1 X160.492 Y94.451 E3.62169
G1 X160.565 Y94.686 E3.62987
G1 X160.708 Y95.173 E3.64675
G1 X160.977 Y96.132 E3.67988
G1 X161.171 Y96.863 E3.70504
G1 X161.242 Y97.148 E3.7148
G1 X161.358 Y97.639 E3.73159
G1 X161.453 Y98.025 E3.74481
G1 X161.591 Y98.631 E3.76548
G1 X161.777 Y99.499 E3.795
G1 X161.826 Y99.74 E3.80318
G1 X161.915 Y100.211 E3.81913
G1 X162.126 Y101.396 E3.85916
G1 X162.168 Y101.651 E3.86775
G1 X162.3 Y102.509 E3.89663
G1 X162.342 Y102.812 E3.9068
G1 X162.47 Y103.834 E3.94106
G1 X162.555 Y104.588 E3.9663
G1 X162.586 Y104.909 E3.97702
G1 X162.664 Y105.832 E4.00783
G1 X162.714 Y106.489 E4.02975
G1 X162.759 Y107.215 E4.05394
G1 X162.773 Y107.513 E4.06386
G1 X162.807 Y108.488 E4.09631
G1 X162.823 Y109.129 E4.11764
G1 X162.832 Y109.853 E4.14172
G1 X162.832 Y110.136 E4.15113
G1 X162.819 Y111.029 E4.18084
G1 X162.79 Y112.102 E4.21654
G1 X162.761 Y112.788 E4.23937
G1 X162.747 Y113.047 E4.248
G1 X162.72 Y113.455 E4.2616
G1 X162.655 Y114.315 E4.29029
G1 X162.625 Y114.64 E4.30114
G1 X162.443 Y116.365 E4.35883
G1 X162.418 Y116.584 E4.36616
G1 X162.354 Y117.079 E4.38277
G1 X162.228 Y117.969 E4.41266
G1 X162.165 Y118.374 E4.42629
G1 X161.948 Y119.611 E4.46807
G1 X161.783 Y120.479 E4.49745
G1 X161.727 Y120.755 E4.50682
G1 X161.615 Y121.27 E4.52435
G1 X161.403 Y122.2 E4.55607
G1 X161.217 Y122.973 E4.58252
G1 X161.134 Y123.296 E4.59361
G1 X160.989 Y123.826 E4.61189
G1 X160.718 Y124.786 E4.64506
G1 X160.47 Y125.621 E4.67403
G1 X160.386 Y125.89 E4.68341
G1 X160.223 Y126.391 E4.70093
G1 X159.913 Y127.312 E4.73325
G1 X159.629 Y128.12 E4.76174
G1 X159.533 Y128.381 E4.77099
G1 X159.356 Y128.844 E4.78747
G1 X159.016 Y129.711 E4.81845
G1 X158.676 Y130.545 E4.8484
G1 X158.568 Y130.801 E4.85765
G1 X158.366 Y131.26 E4.87432
G1 X157.952 Y132.177 E4.90779
G1 X157.599 Y132.93 E4.93545
G1 X157.484 Y133.168 E4.94424
G1 X157.266 Y133.603 E4.96042
G1 X156.78 Y134.551 E4.99586
G1 X156.46 Y135.155 E5.01859
G1 X156.304 Y135.439 E5.02937
G1 X155.999 Y135.975 E5.04988
G1 X155.83 Y136.276 E5.06136
G1 X155.503 Y136.843 E5.08313
G1 X155.075 Y137.561 E5.11093
G1 X154.925 Y137.805 E5.12046
G1 X154.67 Y138.208 E5.13632
G1 X154.195 Y138.946 E5.16551
G1 X153.722 Y139.658 E5.19394
G1 X153.546 Y139.916 E5.20433
G1 X152.959 Y140.75 E5.23825
G1 X152.619 Y141.22 E5.25754
G1 X152.099 Y141.923 E5.28663
G1 X151.929 Y142.146 E5.29595
G1 X151.602 Y142.565 E5.31363
G1 X151.041 Y143.267 E5.34352
G1 X150.455 Y143.983 E5.37429
G1 X150.265 Y144.21 E5.38414
G1 X149.933 Y144.592 E5.40097
G1 X149.436 Y145.152 E5.42588
G1 X148.839 Y145.816 E5.45557
G1 X148.64 Y146.031 E5.46532
G1 X148.05 Y146.651 E5.49378
G1 X147.488 Y147.225 E5.5205
G1 X146.851 Y147.86 E5.55042
G1 X146.672 Y148.035 E5.55874
G1 X146.341 Y148.349 E5.57392
G1 X145.572 Y149.062 E5.6088
G1 X144.968 Y149.607 E5.63586
G1 X144.753 Y149.796 E5.64538
G1 X144.374 Y150.12 E5.66196
G1 X143.719 Y150.67 E5.69041
G1 X142.826 Y151.398 E5.72873
G1 X142.604 Y151.575 E5.73817
G1 X142.34 Y151.778 E5.74925
G1 X141.478 Y152.431 E5.78522
G1 X140.835 Y152.904 E5.81177
G1 X140.596 Y153.075 E5.82154
G1 X140.191 Y153.356 E5.83794
G1 X139.378 Y153.908 E5.87062
G1 X138.626 Y154.406 E5.90062
G1 X138.397 Y154.553 E5.90967
G1 X138.016 Y154.791 E5.92461
G1 X137.119 Y155.338 E5.95955
G1 X136.358 Y155.788 E5.98896
G1 X136.135 Y155.917 E5.99753
G1 X135.728 Y156.144 E6.01303
G1 X135.03 Y156.524 E6.03946
G1 X133.984 Y157.074 E6.07877
G1 X133.748 Y157.195 E6.08759
G1 X133.376 Y157.378 E6.10138
G1 X132.476 Y157.811 E6.1346
G1 X131.852 Y158.101 E6.15748
G1 X131.573 Y158.226 E6.16765
G1 X130.638 Y158.631 E6.20154
G1 X130.132 Y158.844 E6.2198
G1 X129.81 Y158.974 E6.23135
G1 X128.202 Y159.592 E6.28865
G1 X127.746 Y159.76 E6.30481
G1 X126.806 Y160.089 E6.33793
G1 X126.505 Y160.189 E6.34848
G1 X126.104 Y160.316 E6.36247
G1 X125.121 Y160.618 E6.39668
G1 X124.291 Y160.862 E6.42545
G1 X124.017 Y160.939 E6.43492
G1 X123.454 Y161.088 E6.45429
G1 X122.542 Y161.319 E6.48558
G1 X122.233 Y161.393 E6.49615
G1 X120.743 Y161.725 E6.54692
G1 X120.117 Y161.853 E6.56817
G1 X119.179 Y162.03 E6.59992
G1 X118.902 Y162.079 E6.60927
G1 X118.353 Y162.166 E6.62776
G1 X117.37 Y162.313 E6.66082
G1 X116.45 Y162.438 E6.6917
G1 X116.174 Y162.472 E6.70095
G1 X115.812 Y162.511 E6.71306
G1 X114.732 Y162.618 E6.74916
G1 X113.935 Y162.686 E6.77576
G1 X113.663 Y162.706 E6.78483
G1 X113.137 Y162.737 E6.80236
G1 X112.056 Y162.79 E6.83836
G1 X111.263 Y162.818 E6.86475
G1 X110.979 Y162.825 E6.8742
G1 X110.557 Y162.829 E6.88823
G1 X109.508 Y162.828 E6.92312
G1 X108.633 Y162.816 E6.95223
G1 X108.355 Y162.809 E6.96148
G1 X107.888 Y162.79 E6.97702
G1 X106.776 Y162.733 E7.01406
G1 X106.562 Y162.72 E7.02119
G1 X105.729 Y162.661 E7.04896
G1 X105.415 Y162.634 E7.05944
G1 X104.442 Y162.537 E7.09197
G1 X103.355 Y162.413 E7.12835
G1 X103.085 Y162.379 E7.13741
G1 X102.679 Y162.321 E7.15105
G1 X101.636 Y162.164 E7.18613
G1 X100.814 Y162.029 E7.21383
G1 X100.528 Y161.978 E7.2235
G1 X99.958 Y161.868 E7.2428
G1 X99.057 Y161.684 E7.27339
G1 X98.223 Y161.503 E7.30178
G1 X97.902 Y161.428 E7.31274
G1 X97.244 Y161.264 E7.33529
G1 X95.897 Y160.912 E7.3816
G1 X95.597 Y160.829 E7.39195
G1 X94.819 Y160.602 E7.41891
G1 X93.971 Y160.34 E7.44843
G1 X93.12 Y160.064 E7.47818
G1 X92.866 Y159.979 E7.48709
G1 X92.327 Y159.788 E7.50611
G1 X91.473 Y159.474 E7.53638
G1 X90.812 Y159.222 E7.5599
G1 X90.53 Y159.11 E7.57
G1 X90.02 Y158.899 E7.58835
G1 X89.59 Y158.726 E7.60377
G1 X89.028 Y158.488 E7.62407
G1 X88.202 Y158.126 E7.65406
G1 X87.96 Y158.017 E7.66289
G1 X87.53 Y157.815 E7.67869
G1 X86.663 Y157.397 E7.71071
G1 X86.027 Y157.08 E7.73434
G1 X85.773 Y156.949 E7.74385
G1 X84.819 Y156.442 E7.77978
G1 X84.344 Y156.182 E7.79779
G1 X83.548 Y155.734 E7.82817
G1 X83.312 Y155.598 E7.83723
G1 X82.869 Y155.333 E7.8544
G1 X82.007 Y154.805 E7.88802
G1 X81.268 Y154.339 E7.91708
G1 X81.04 Y154.191 E7.92612
G1 X80.642 Y153.925 E7.94204
G1 X79.803 Y153.352 E7.97583
G1 X79.137 Y152.883 E8.00293
G1 X78.922 Y152.728 E8.01174
G1 X78.496 Y152.411 E8.0294
G1 X77.733 Y151.831 E8.06128
G1 X76.989 Y151.25 E8.09268
G1 X76.756 Y151.063 E8.10261
G1 X76.407 Y150.774 E8.11768
G1 X75.669 Y150.154 E8.14974
G1 X74.983 Y149.562 E8.17988
G1 X74.763 Y149.366 E8.18968
G1 X74.425 Y149.058 E8.20489
G1 X73.819 Y148.495 E8.2324
G1 X73.004 Y147.716 E8.2699
G1 X72.807 Y147.524 E8.27905
G1 X72.576 Y147.29 E8.28998
G1 X71.793 Y146.487 E8.32729
G1 X71.283 Y145.951 E8.3519
G1 X71.081 Y145.733 E8.36178
G1 X70.633 Y145.235 E8.38406
G1 X70.062 Y144.584 E8.41286
G1 X69.449 Y143.868 E8.44421
G1 X69.263 Y143.645 E8.45387
G1 X69.024 Y143.35 E8.4665
G1 X68.473 Y142.66 E8.49587
G1 X67.826 Y141.823 E8.53105
G1 X67.682 Y141.632 E8.53901
G1 X67.408 Y141.259 E8.5544
G1 X66.807 Y140.422 E8.58867
G1 X66.345 Y139.76 E8.61552
G1 X66.191 Y139.534 E8.62462
G1 X65.866 Y139.041 E8.64426
G1 X65.438 Y138.377 E8.67053
G1 X64.869 Y137.466 E8.70626
G1 X64.739 Y137.252 E8.71459
G1 X64.482 Y136.818 E8.73136
G1 X63.994 Y135.973 E8.76382
G1 X63.679 Y135.409 E8.7853
G1 X63.528 Y135.128 E8.79591
G1 X63.178 Y134.455 E8.82114
G1 X63.003 Y134.127 E8.83351
G1 X62.764 Y133.662 E8.8509
G1 X62.446 Y133.023 E8.87464
G1 X62.315 Y132.75 E8.88471
G1 X61.991 Y132.049 E8.91039
G1 X61.683 Y131.36 E8.9355
G1 X61.17 Y130.165 E8.97875
G1 X61.044 Y129.859 E8.98976
G1 X60.666 Y128.897 E9.02413
G1 X60.366 Y128.103 E9.05236
G1 X60.268 Y127.832 E9.06195
G1 X60.045 Y127.19 E9.08455
G1 X59.684 Y126.107 E9.12252
G1 X59.587 Y125.798 E9.1333
G1 X59.24 Y124.642 E9.17344
G1 X59.18 Y124.435 E9.18061
G1 X59 Y123.785 E9.20304
G1 X58.838 Y123.177 E9.22397
G1 X58.759 Y122.864 E9.2347
G1 X58.628 Y122.307 E9.25374
G1 X58.583 Y122.129 E9.25984
G1 X58.52 Y121.865 E9.26887
G1 X58.39 Y121.29 E9.28848
G1 X58.23 Y120.552 E9.31359
G1 X58.167 Y120.239 E9.32421
G1 X58.03 Y119.501 E9.34918
G1 X57.872 Y118.586 E9.38006
G1 X57.733 Y117.711 E9.40953
G1 X57.667 Y117.246 E9.42515
G1 X57.541 Y116.257 E9.45831
G1 X57.435 Y115.318 E9.48974
G1 X57.408 Y115.044 E9.4989
G1 X57.347 Y114.326 E9.52286
G1 X57.282 Y113.427 E9.55284
G1 X57.24 Y112.709 E9.57676
G1 X57.227 Y112.425 E9.58622
G1 X57.213 Y111.983 E9.60093
G1 X57.194 Y111.541 E9.61564
G1 X57.177 Y110.863 E9.6382
G1 X57.168 Y110.139 E9.66228
G1 X57.168 Y109.855 E9.67173
G1 X57.181 Y108.971 E9.70113
G1 X57.21 Y107.889 E9.73713
G1 X57.24 Y107.19 E9.7604
G1 X57.255 Y106.915 E9.76956
G1 X57.284 Y106.492 E9.78367
G1 X57.348 Y105.648 E9.81182
G1 X57.378 Y105.323 E9.82267
G1 X57.554 Y103.659 E9.87833
G1 X57.581 Y103.424 E9.88619
G1 X57.638 Y102.989 E9.90079
G1 X57.785 Y101.947 E9.93579
G1 X57.849 Y101.54 E9.94949
G1 X58.037 Y100.466 E9.98575
G1 X58.213 Y99.534 E10.0173
G1 X58.261 Y99.296 E10.02538
G1 X58.394 Y98.679 E10.04637
G1 X58.613 Y97.736 E10.07857
G1 X58.828 Y96.859 E10.1086
G1 X58.954 Y96.379 E10.12511
G1 X59.246 Y95.338 E10.16107
G1 X59.475 Y94.563 E10.18795
G1 X59.565 Y94.273 E10.19804
G1 X59.872 Y93.328 E10.23109
G1 X60.089 Y92.685 E10.25366
G1 X60.356 Y91.923 E10.28052
G1 X60.453 Y91.657 E10.28994
G1 X60.655 Y91.125 E10.30886
G1 X60.916 Y90.461 E10.33259
G1 X61.467 Y89.125 E10.38066
G1 X61.606 Y88.802 E10.39235
G1 X62.13 Y87.644 E10.43463
G1 X62.329 Y87.221 E10.45018
G1 X62.776 Y86.316 E10.48375
G1 X63.209 Y85.47 E10.51536
G1 X63.438 Y85.038 E10.53162
G1 X63.607 Y84.731 E10.54328
G1 X63.911 Y84.199 E10.56366
G1 X64.31 Y83.48 E10.59101
G1 X64.507 Y83.139 E10.6041
G1 X64.95 Y82.397 E10.63285
G1 X65.099 Y82.154 E10.64233
G1 X65.327 Y81.795 E10.65647
G1 X65.933 Y80.859 E10.69356
G1 X66.292 Y80.32 E10.7151
G1 X66.455 Y80.082 E10.72469
G1 X67.021 Y79.28 E10.75734
G1 X67.47 Y78.656 E10.78291
G1 X67.657 Y78.401 E10.79343
G1 X67.827 Y78.175 E10.80283
G1 X68.517 Y77.285 E10.84029
G1 X69.038 Y76.635 E10.868
G1 X69.543 Y76.02 E10.89446
G1 X69.719 Y75.811 E10.90355
G1 X70.031 Y75.451 E10.9194
G1 X70.754 Y74.635 E10.95566
G1 X71.318 Y74.014 E10.98356
G1 X71.516 Y73.801 E10.99323
G1 X71.806 Y73.499 E11.00716
G1 X72.508 Y72.78 E11.04058
G0 F6000 X72.79 Y73.063
G1 F1200 X73.441 Y72.413 E11.07118
G1 X73.79 Y72.078 E11.08727
G1 X74.716 Y71.217 E11.12932
G1 X75.299 Y70.691 E11.15544
G1 X75.488 Y70.524 E11.16383
G1 X75.944 Y70.134 E11.18378
G1 X76.724 Y69.482 E11.2176
G1 X77.342 Y68.979 E11.2441
G1 X77.528 Y68.83 E11.25203
G1 X77.998 Y68.467 E11.27178
G1 X78.676 Y67.955 E11.30004
G1 X79.444 Y67.391 E11.33173
G1 X79.641 Y67.25 E11.33979
G1 X80.041 Y66.971 E11.35601
G1 X80.856 Y66.417 E11.38878
G1 X81.589 Y65.932 E11.41802
G1 X81.807 Y65.792 E11.42663
G1 X82.275 Y65.499 E11.445
G1 X83.05 Y65.027 E11.47518
