;FLAVOR:Marlin
;TIME:8207
;Filament used: 5.48548m
;Layer height: 0.2
;MINX:57.868
;MINY:57.87
;MINZ:0.2
;MAXX:162.133
;MAXY:162.13
;MAXZ:23.2
;Generated with Cura_SteamEngine 4.9.0
M140 S60
M105
M190 S60
M104 S200
M105
M109 S200
M82 ;absolute extrusion mode
; Ender 3 Custom Start G-code
G92 E0 ; Reset Extruder
G28 ; Home all axes
G1 Z2.0 F3000 ; Move Z Axis up little to prevent scratching of Heat Bed
G1 X0.1 Y20 Z0.3 F5000.0 ; Move to start position
G1 X0.1 Y200.0 Z0.3 F1500.0 E15 ; Draw the first line
G1 X0.4 Y200.0 Z0.3 F5000.0 ; Move to side a little
G1 X0.4 Y20 Z0.3 F1500.0 E30 ; Draw the second line
G92 E0 ; Reset Extruder
G1 Z2.0 F3000 ; Move Z Axis up little to prevent scratching of Heat Bed
G1 X5 Y20 Z0.3 F5000.0 ; Move over to prevent blob squish
G92 E0
G92 E0
G1 F1500 E-6.5
;LAYER_COUNT:116
;LAYER:0
M107
G0 F6000 X72.974 Y73.308 Z0.2
;TYPE:SKIRT
G1 F1500 E0
G1 F1200 X73.682 Y72.602 E0.03326
G1 X73.874 Y72.415 E0.04217
G1 X74.162 Y72.143 E0.05535
G1 X74.908 Y71.451 E0.08919
G1 X75.538 Y70.882 E0.11742
G1 X75.745 Y70.7 E0.12659
G1 X76.11 Y70.387 E0.14258
G1 X76.828 Y69.786 E0.17373
G1 X77.545 Y69.201 E0.2045
G1 X77.77 Y69.022 E0.21407
G1 X78.087 Y68.778 E0.22737
G1 X78.86 Y68.191 E0.25966
G1 X79.54 Y67.69 E0.28775
G1 X79.781 Y67.517 E0.29761
G1 X80.298 Y67.159 E0.31853
G1 X81.021 Y66.668 E0.3476
G1 X81.795 Y66.156 E0.37846
G1 X82.024 Y66.009 E0.38752
G1 X82.373 Y65.791 E0.4012
G1 X83.175 Y65.302 E0.43244
G1 X83.957 Y64.838 E0.46269
G1 X84.21 Y64.692 E0.4724
G1 X84.644 Y64.451 E0.48891
G1 X85.513 Y63.981 E0.52177
G1 X86.329 Y63.552 E0.55244
G1 X86.742 Y63.343 E0.56783
G1 X87.796 Y62.835 E0.60675
G1 X88.449 Y62.531 E0.6307
G1 X88.731 Y62.405 E0.64098
G1 X89.664 Y62.002 E0.67478
G1 X90.2 Y61.776 E0.69413
G1 X91.019 Y61.445 E0.72351
G1 X91.288 Y61.341 E0.7331
G1 X91.708 Y61.184 E0.74801
G1 X92.471 Y60.905 E0.77503
G1 X93.393 Y60.583 E0.80752
G1 X93.663 Y60.493 E0.81698
G1 X94.284 Y60.295 E0.83866
G1 X95.062 Y60.057 E0.86572
G1 X96.006 Y59.782 E0.89842
G1 X96.506 Y59.647 E0.91565
G1 X97.139 Y59.485 E0.93738
G1 X97.359 Y59.432 E0.94491
G1 X99.119 Y59.023 E1.00501
G1 X99.409 Y58.959 E1.01488
G1 X100.145 Y58.81 E1.03986
G1 X100.937 Y58.66 E1.06667
G1 X101.237 Y58.608 E1.0768
G1 X101.856 Y58.509 E1.09765
G1 X102.707 Y58.383 E1.12626
G1 X103.658 Y58.255 E1.15817
G1 X103.928 Y58.222 E1.16722
G1 X104.29 Y58.183 E1.17933
G1 X105.225 Y58.09 E1.21058
G1 X106.026 Y58.019 E1.23733
G1 X106.305 Y57.998 E1.24663
G1 X107.051 Y57.952 E1.27149
G1 X107.874 Y57.912 E1.2989
G1 X108.756 Y57.881 E1.32825
G1 X109.011 Y57.875 E1.33674
G1 X109.477 Y57.87 E1.35224
G1 X110.479 Y57.871 E1.38556
G1 X111.337 Y57.883 E1.4141
G1 X111.631 Y57.891 E1.42389
G1 X112.148 Y57.913 E1.4411
G1 X113.031 Y57.958 E1.4705
G1 X113.991 Y58.02 E1.5025
G1 X114.26 Y58.041 E1.51147
G1 X114.643 Y58.075 E1.52426
G1 X115.639 Y58.176 E1.55756
G1 X116.525 Y58.277 E1.58722
G1 X116.783 Y58.309 E1.59587
G1 X117.276 Y58.378 E1.61242
G1 X118.264 Y58.528 E1.64566
G1 X119.071 Y58.661 E1.67286
G1 X119.34 Y58.709 E1.68195
G1 X119.902 Y58.817 E1.70099
G1 X120.806 Y59.003 E1.73168
G1 X121.655 Y59.187 E1.76058
G1 X122.008 Y59.269 E1.77263
G1 X123.098 Y59.544 E1.81002
G1 X123.614 Y59.68 E1.82777
G1 X123.861 Y59.748 E1.83629
G1 X125.112 Y60.109 E1.87959
G1 X125.624 Y60.265 E1.8974
G1 X126.635 Y60.592 E1.93274
G1 X126.901 Y60.682 E1.94208
G1 X127.312 Y60.827 E1.95657
G1 X128.163 Y61.136 E1.98669
G1 X129.098 Y61.492 E2.01996
G1 X129.296 Y61.569 E2.02703
G1 X129.82 Y61.782 E2.04584
G1 X130.694 Y62.152 E2.07741
G1 X131.356 Y62.443 E2.10146
G1 X131.596 Y62.552 E2.11023
G1 X132.485 Y62.969 E2.14289
G1 X133.204 Y63.317 E2.16945
G1 X133.792 Y63.612 E2.19133
G1 X134.361 Y63.908 E2.21267
G1 X135.349 Y64.446 E2.25008
G1 X136.121 Y64.88 E2.27954
G1 X136.371 Y65.026 E2.28917
G1 X136.79 Y65.276 E2.3054
G1 X137.562 Y65.751 E2.33555
G1 X138.347 Y66.246 E2.36641
G1 X138.59 Y66.404 E2.37605
G1 X138.938 Y66.637 E2.38998
G1 X139.776 Y67.209 E2.42373
G1 X140.46 Y67.689 E2.45152
G1 X140.713 Y67.872 E2.46191
G1 X141.025 Y68.105 E2.47486
G1 X141.848 Y68.729 E2.50921
G1 X142.575 Y69.297 E2.53989
G1 X142.784 Y69.464 E2.54879
G1 X143.113 Y69.735 E2.56297
G1 X143.83 Y70.339 E2.59415
G1 X144.536 Y70.949 E2.62518
G1 X144.724 Y71.115 E2.63352
G1 X145.055 Y71.415 E2.64838
G1 X145.822 Y72.128 E2.68321
G1 X146.431 Y72.708 E2.71118
G1 X146.637 Y72.91 E2.72078
G1 X147.008 Y73.283 E2.73828
G1 X147.629 Y73.923 E2.76794
G1 X148.256 Y74.583 E2.79822
G1 X148.438 Y74.779 E2.80711
G1 X148.76 Y75.136 E2.8231
G1 X149.386 Y75.848 E2.85464
G1 X149.978 Y76.538 E2.88487
G1 X150.155 Y76.749 E2.89403
G1 X150.476 Y77.144 E2.91096
G1 X151.034 Y77.846 E2.94079
G1 X151.573 Y78.543 E2.9701
G1 X151.728 Y78.749 E2.97867
G1 X152.094 Y79.247 E2.99923
G1 X152.606 Y79.963 E3.0285
G1 X153.115 Y80.695 E3.05816
G1 X153.256 Y80.902 E3.06649
G1 X153.532 Y81.321 E3.08317
G1 X153.911 Y81.912 E3.10653
G1 X154.458 Y82.779 E3.14062
G1 X154.606 Y83.02 E3.15003
G1 X154.943 Y83.587 E3.17197
G1 X155.344 Y84.282 E3.19865
G1 X155.79 Y85.076 E3.22894
G1 X155.927 Y85.327 E3.23845
G1 X156.162 Y85.775 E3.25528
G1 X156.625 Y86.683 E3.28918
G1 X157.011 Y87.464 E3.31816
G1 X157.129 Y87.71 E3.32723
G1 X157.319 Y88.121 E3.34229
G1 X157.704 Y88.979 E3.37357
G1 X158.043 Y89.761 E3.40192
G1 X158.131 Y89.969 E3.40943
G1 X158.335 Y90.47 E3.42742
G1 X158.69 Y91.381 E3.45994
G1 X159.008 Y92.226 E3.48997
G1 X159.099 Y92.477 E3.49885
G1 X159.246 Y92.901 E3.51377
G1 X159.583 Y93.908 E3.54909
G1 X159.835 Y94.695 E3.57658
G1 X159.905 Y94.92 E3.58442
G1 X160.064 Y95.46 E3.60314
G1 X160.299 Y96.301 E3.63218
G1 X160.521 Y97.132 E3.66079
G1 X160.589 Y97.399 E3.66995
G1 X160.714 Y97.921 E3.68781
G1 X160.925 Y98.853 E3.71959
G1 X161.109 Y99.711 E3.74878
G1 X161.17 Y100.012 E3.75899
G1 X161.259 Y100.5 E3.77549
G1 X161.432 Y101.494 E3.80905
G1 X161.57 Y102.356 E3.83808
G1 X161.607 Y102.605 E3.84645
G1 X161.653 Y102.949 E3.858
G1 X161.782 Y103.974 E3.89236
G1 X161.857 Y104.648 E3.91491
G1 X161.886 Y104.951 E3.92504
G1 X161.939 Y105.591 E3.9464
G1 X161.971 Y105.947 E3.95829
G1 X162.015 Y106.531 E3.97776
G1 X162.058 Y107.215 E4.00056
G1 X162.074 Y107.538 E4.01132
G1 X162.109 Y108.555 E4.04516
G1 X162.123 Y109.112 E4.06369
G1 X162.133 Y109.83 E4.08758
G1 X162.133 Y110.13 E4.09755
G1 X162.121 Y110.96 E4.12516
G1 X162.094 Y111.939 E4.15774
G1 X162.06 Y112.765 E4.18523
G1 X162.047 Y113.02 E4.19373
G1 X162.022 Y113.388 E4.20599
G1 X161.951 Y114.319 E4.23705
G1 X161.923 Y114.629 E4.2474
G1 X161.751 Y116.271 E4.30231
G1 X161.693 Y116.751 E4.31839
G1 X161.547 Y117.806 E4.35382
G1 X161.505 Y118.082 E4.3631
G1 X161.433 Y118.514 E4.37767
G1 X161.261 Y119.485 E4.41047
G1 X161.123 Y120.209 E4.43498
G1 X161.062 Y120.51 E4.4452
G1 X160.871 Y121.372 E4.47456
G1 X160.635 Y122.372 E4.50874
G1 X160.374 Y123.417 E4.54456
G1 X160.294 Y123.721 E4.55502
G1 X160.049 Y124.59 E4.58505
G1 X159.863 Y125.217 E4.6068
G1 X159.777 Y125.493 E4.61641
G1 X159.486 Y126.386 E4.64765
G1 X159.248 Y127.092 E4.67243
G1 X158.988 Y127.832 E4.69852
G1 X158.898 Y128.079 E4.70726
G1 X158.677 Y128.66 E4.72794
G1 X158.29 Y129.643 E4.76308
G1 X158.156 Y129.969 E4.7748
G1 X157.67 Y131.096 E4.81562
G1 X157.331 Y131.85 E4.84312
G1 X157.256 Y132.014 E4.84911
G1 X156.896 Y132.778 E4.8772
G1 X156.738 Y133.099 E4.8891
G1 X156.231 Y134.09 E4.92613
G1 X155.768 Y134.965 E4.95905
G1 X155.627 Y135.223 E4.96883
G1 X155.408 Y135.61 E4.98362
G1 X154.914 Y136.464 E5.01644
G1 X154.458 Y137.228 E5.04603
G1 X154.314 Y137.463 E5.0552
G1 X154.071 Y137.847 E5.07031
G1 X153.545 Y138.66 E5.10252
G1 X153.182 Y139.204 E5.12427
G1 X153.001 Y139.466 E5.13486
G1 X152.762 Y139.802 E5.14857
G1 X152.471 Y140.225 E5.16565
G1 X152.023 Y140.854 E5.19134
G1 X151.869 Y141.063 E5.19997
G1 X151.341 Y141.765 E5.22919
G1 X151.149 Y142.013 E5.23962
G1 X150.463 Y142.871 E5.27615
G1 X149.934 Y143.516 E5.3039
G1 X149.747 Y143.737 E5.31353
G1 X149.431 Y144.103 E5.32961
G1 X148.75 Y144.872 E5.36378
G1 X148.196 Y145.48 E5.39113
G1 X148.027 Y145.661 E5.39937
G1 X147.658 Y146.047 E5.41713
G1 X146.986 Y146.735 E5.44912
G1 X146.367 Y147.353 E5.47821
G1 X146.161 Y147.554 E5.48778
G1 X145.82 Y147.876 E5.50338
G1 X145.044 Y148.593 E5.53852
G1 X144.415 Y149.159 E5.56667
G1 X144.213 Y149.336 E5.5756
G1 X143.906 Y149.598 E5.58902
G1 X143.142 Y150.239 E5.62219
G1 X142.487 Y150.776 E5.65036
G1 X142.218 Y150.989 E5.66178
G1 X141.921 Y151.217 E5.67423
G1 X141.134 Y151.811 E5.70702
G1 X140.385 Y152.362 E5.73795
G1 X140.169 Y152.517 E5.74679
G1 X139.794 Y152.778 E5.76199
G1 X138.956 Y153.349 E5.79572
G1 X138.311 Y153.776 E5.82144
G1 X138.069 Y153.932 E5.83102
G1 X137.519 Y154.275 E5.85258
G1 X136.783 Y154.722 E5.88122
G1 X135.998 Y155.186 E5.91155
G1 X135.772 Y155.317 E5.92024
G1 X135.389 Y155.53 E5.93481
G1 X134.745 Y155.881 E5.95921
G1 X133.883 Y156.34 E5.99169
G1 X133.602 Y156.485 E6.00221
G1 X132.953 Y156.806 E6.02629
G1 X132.156 Y157.189 E6.0557
G1 X131.85 Y157.33 E6.0669
G1 X130.362 Y157.988 E6.12102
G1 X129.781 Y158.231 E6.14196
G1 X128.914 Y158.58 E6.17305
G1 X128.5 Y158.74 E6.18781
G1 X127.517 Y159.099 E6.22262
G1 X126.619 Y159.413 E6.25426
G1 X126.358 Y159.501 E6.26342
G1 X125.737 Y159.699 E6.2851
G1 X124.924 Y159.947 E6.31337
G1 X124.231 Y160.15 E6.33739
G1 X123.918 Y160.237 E6.34819
G1 X122.551 Y160.594 E6.39519
G1 X122.317 Y160.653 E6.40321
G1 X121.434 Y160.863 E6.4334
G1 X121.166 Y160.923 E6.44253
G1 X120.02 Y161.159 E6.48145
G1 X119.262 Y161.304 E6.50712
G1 X118.939 Y161.36 E6.51802
G1 X117.936 Y161.518 E6.55179
G1 X116.899 Y161.665 E6.58663
G1 X115.136 Y161.876 E6.64568
G1 X114.752 Y161.914 E6.65852
G1 X113.821 Y161.993 E6.68959
G1 X113.34 Y162.026 E6.70563
G1 X112.134 Y162.087 E6.74579
G1 X111.323 Y162.117 E6.77279
G1 X111.042 Y162.124 E6.78214
G1 X110.48 Y162.13 E6.80083
G1 X109.504 Y162.129 E6.83329
G1 X108.628 Y162.117 E6.86243
G1 X108.337 Y162.109 E6.87211
G1 X107.871 Y162.09 E6.88762
G1 X106.959 Y162.042 E6.918
G1 X106.245 Y161.996 E6.9418
G1 X105.937 Y161.972 E6.95207
G1 X105.484 Y161.93 E6.9672
G1 X105.067 Y161.895 E6.98112
G1 X104.434 Y161.831 E7.00228
G1 X103.535 Y161.73 E7.03237
G1 X103.25 Y161.694 E7.04192
G1 X102.707 Y161.618 E7.06016
G1 X101.806 Y161.483 E7.09046
G1 X100.938 Y161.34 E7.11972
G1 X100.653 Y161.289 E7.12935
G1 X100.029 Y161.168 E7.15049
G1 X99.185 Y160.995 E7.17915
G1 X98.278 Y160.797 E7.21003
G1 X97.999 Y160.732 E7.21955
G1 X97.686 Y160.655 E7.23027
G1 X96.676 Y160.397 E7.26495
G1 X95.837 Y160.171 E7.29385
G1 X95.571 Y160.096 E7.30304
G1 X95.039 Y159.938 E7.3215
G1 X94.173 Y159.67 E7.35165
G1 X93.41 Y159.423 E7.37832
G1 X93.153 Y159.336 E7.38735
G1 X92.576 Y159.133 E7.40769
G1 X91.639 Y158.789 E7.44089
G1 X90.876 Y158.497 E7.46806
G1 X90.641 Y158.404 E7.47647
G1 X90.111 Y158.186 E7.49553
G1 X89.279 Y157.833 E7.52559
G1 X88.415 Y157.453 E7.55698
G1 X88.175 Y157.344 E7.56575
G1 X87.854 Y157.193 E7.57755
G1 X86.793 Y156.683 E7.6167
G1 X86.589 Y156.582 E7.62427
G1 X85.975 Y156.271 E7.64716
G1 X85.672 Y156.112 E7.65854
G1 X84.626 Y155.539 E7.69821
G1 X83.872 Y155.113 E7.72702
G1 X83.643 Y154.98 E7.73582
G1 X83.258 Y154.75 E7.75074
G1 X82.57 Y154.33 E7.77755
G1 X81.678 Y153.769 E7.8126
G1 X81.447 Y153.62 E7.82174
G1 X80.999 Y153.321 E7.83966
G1 X80.227 Y152.793 E7.87076
G1 X79.656 Y152.391 E7.89399
G1 X79.412 Y152.215 E7.904
G1 X78.591 Y151.605 E7.93802
G1 X78.091 Y151.225 E7.9589
G1 X77.456 Y150.729 E7.9857
G1 X77.244 Y150.559 E7.99474
G1 X76.811 Y150.203 E8.01338
G1 X76.149 Y149.645 E8.04218
G1 X75.471 Y149.059 E8.07199
G1 X75.246 Y148.86 E8.08198
G1 X74.886 Y148.53 E8.09822
G1 X74.162 Y147.855 E8.13114
G1 X73.546 Y147.266 E8.15949
G1 X73.353 Y147.078 E8.16845
G1 X73.045 Y146.767 E8.18301
G1 X72.33 Y146.034 E8.21707
G1 X71.765 Y145.438 E8.24438
G1 X71.606 Y145.267 E8.25215
G1 X71.194 Y144.811 E8.27259
G1 X70.581 Y144.113 E8.30349
G1 X70.035 Y143.477 E8.33137
G1 X69.852 Y143.259 E8.34083
G1 X69.51 Y142.838 E8.35887
G1 X68.959 Y142.145 E8.38832
G1 X68.339 Y141.344 E8.42201
G1 X68.11 Y141.037 E8.43475
G1 X67.315 Y139.931 E8.48005
G1 X67.072 Y139.583 E8.49417
G1 X66.928 Y139.371 E8.50269
G1 X66.411 Y138.591 E8.53382
G1 X65.939 Y137.86 E8.56276
G1 X65.453 Y137.081 E8.5933
G1 X65.171 Y136.611 E8.61153
G1 X65.09 Y136.474 E8.61682
G1 X64.587 Y135.599 E8.65039
G1 X64.187 Y134.883 E8.67767
G1 X64.055 Y134.639 E8.68689
G1 X63.843 Y134.236 E8.70204
G1 X63.413 Y133.396 E8.73342
G1 X63.037 Y132.637 E8.7616
G1 X62.919 Y132.392 E8.77064
G1 X62.687 Y131.893 E8.78894
G1 X62.288 Y131.004 E8.82135
G1 X61.938 Y130.196 E8.85064
G1 X61.832 Y129.941 E8.85983
G1 X61.613 Y129.399 E8.87927
G1 X61.362 Y128.759 E8.90213
G1 X60.971 Y127.716 E8.93918
G1 X60.878 Y127.458 E8.9483
G1 X60.759 Y127.112 E8.96047
G1 X60.413 Y126.085 E8.99652
G1 X60.199 Y125.417 E9.01985
G1 X60.109 Y125.12 E9.03017
G1 X59.884 Y124.343 E9.05707
G1 X59.692 Y123.66 E9.08067
G1 X59.465 Y122.81 E9.10993
G1 X59.396 Y122.538 E9.11927
G1 X59.293 Y122.105 E9.13407
G1 X59.079 Y121.166 E9.1661
G1 X58.899 Y120.323 E9.19477
G1 X58.845 Y120.053 E9.20393
G1 X58.743 Y119.502 E9.22257
G1 X58.569 Y118.511 E9.25603
G1 X58.438 Y117.704 E9.28323
G1 X58.395 Y117.412 E9.29304
G1 X58.332 Y116.945 E9.30872
G1 X58.216 Y116.016 E9.33985
G1 X58.138 Y115.312 E9.36341
G1 X58.108 Y115.004 E9.37371
G1 X58.03 Y114.071 E9.40485
G1 X57.984 Y113.45 E9.42556
G1 X57.94 Y112.727 E9.44965
G1 X57.926 Y112.424 E9.45974
G1 X57.907 Y111.838 E9.47924
G1 X57.893 Y111.507 E9.49026
G1 X57.877 Y110.869 E9.51148
G1 X57.868 Y110.145 E9.53557
G1 X57.868 Y109.875 E9.54455
G1 X57.88 Y108.973 E9.57455
G1 X57.909 Y107.924 E9.60945
G1 X57.939 Y107.224 E9.63276
G1 X57.969 Y106.736 E9.64902
G1 X58.049 Y105.677 E9.68434
G1 X58.078 Y105.355 E9.69509
G1 X58.249 Y103.736 E9.74924
G1 X58.276 Y103.5 E9.75714
G1 X58.333 Y103.064 E9.77177
G1 X58.462 Y102.145 E9.80263
G1 X58.5 Y101.894 E9.81108
G1 X58.561 Y101.529 E9.82338
G1 X58.756 Y100.424 E9.8607
G1 X58.895 Y99.695 E9.88539
G1 X58.949 Y99.426 E9.89451
G1 X59.096 Y98.755 E9.91736
G1 X59.28 Y97.955 E9.94466
G1 X59.5 Y97.056 E9.97545
G1 X59.568 Y96.794 E9.98445
G1 X59.683 Y96.371 E9.99903
G1 X59.939 Y95.464 E10.03037
G1 X60.197 Y94.589 E10.06072
G1 X60.288 Y94.296 E10.07092
G1 X60.417 Y93.901 E10.08474
G1 X60.749 Y92.913 E10.11941
G1 X60.863 Y92.589 E10.13083
G1 X61.36 Y91.25 E10.17834
G1 X61.593 Y90.65 E10.19974
G1 X61.979 Y89.704 E10.23373
G1 X62.085 Y89.455 E10.24273
G1 X62.275 Y89.023 E10.25842
G1 X62.661 Y88.169 E10.28959
G1 X63.032 Y87.377 E10.31868
G1 X63.149 Y87.134 E10.32765
G1 X63.393 Y86.647 E10.34577
G1 X63.86 Y85.738 E10.37976
G1 X64.241 Y85.021 E10.40677
G1 X64.362 Y84.8 E10.41515
G1 X64.605 Y84.368 E10.43163
G1 X65.142 Y83.437 E10.46738
G1 X65.28 Y83.205 E10.47636
G1 X65.743 Y82.446 E10.50593
G1 X65.899 Y82.197 E10.5157
G1 X66.387 Y81.443 E10.54557
G1 X66.97 Y80.567 E10.58057
G1 X67.136 Y80.324 E10.59036
G1 X67.363 Y80.002 E10.60346
G1 X67.743 Y79.472 E10.62515
G1 X68.619 Y78.291 E10.67406
G1 X68.847 Y77.995 E10.68649
G1 X69.528 Y77.143 E10.72276
G1 X70.088 Y76.46 E10.75214
G1 X70.267 Y76.247 E10.76139
G1 X70.561 Y75.907 E10.77634
G1 X71.218 Y75.165 E10.80931
G1 X71.805 Y74.519 E10.83834
G1 X71.999 Y74.312 E10.84777
G1 X72.392 Y73.902 E10.86666
G1 X72.974 Y73.308 E10.89432
G0 F6000 X73.256 Y73.591
G1 F1200 X73.964 Y72.885 E10.92758
G1 X74.149 Y72.705 E10.93616
G1 X74.434 Y72.436 E10.9492
G1 X75.176 Y71.748 E10.98285
G1 X75.806 Y71.179 E11.01109
G1 X76.005 Y71.003 E11.01992
G1 X76.368 Y70.693 E11.0358
G1 X77.081 Y70.096 E11.06673
G1 X77.798 Y69.511 E11.09751
G1 X78.015 Y69.339 E11.10672
G1 X78.329 Y69.096 E11.11992
G1 X79.098 Y68.513 E11.15202
G1 X79.778 Y68.012 E11.18011
G1 X80.01 Y67.846 E11.1896
G1 X80.523 Y67.489 E11.21039
G1 X81.242 Y67.001 E11.23929
G1 X82.016 Y66.489 E11.27016
G1 X82.477 Y66.197 E11.28831
G1 X83.264 Y65.715 E11.319
G1 X84.161 Y65.182 E11.35371
G1 X84.405 Y65.042 E11.36306
G1 X84.835 Y64.802 E11.37944
G1 X85.699 Y64.335 E11.41211
G1 X86.515 Y63.906 E11.44277
G1 X86.92 Y63.701 E11.45787
G1 X87.965 Y63.197 E11.49645
G1 X88.618 Y62.893 E11.52041
G1 X88.889 Y62.772 E11.53028
G1 X89.82 Y62.37 E11.56401
G1 X90.35 Y62.147 E11.58314
G1 X91.169 Y61.816 E11.61252
